;FLAVOR:Marlin
;TIME:2425
;Filament used: 1.09214m
;Layer height: 0.1
;MINX:-24.243
;MINY:-22.983
;MINZ:0.36
;MAXX:24.241
;MAXY:22.983
;MAXZ:30.26
;Generated with Cura_SteamEngine 4.6.2
M140 S70
M105
M190 S70
M104 S205
M105
M109 S205
M82 ;absolute extrusion mode
G28 ;Home
G1 Z15.0 F6000 ;Move the platform down 15mm
;Prime the extruder
G92 E0
G1 F200 E3
G92 E0
G92 E0
G92 E0
G1 F1500 E-6.5
;LAYER_COUNT:292
;LAYER:-9
M107
G0 F7200 X-22.044 Y-7.383 Z0.36
;TYPE:SUPPORT-INTERFACE
G1 F1500 E0
G1 F1350 X-17.205 Y-15.75 E1.15732
G1 X-16.709 Y-16.511 E1.26608
G1 X-16.587 Y-16.684 E1.29143
G1 X-15.966 Y-17.492 E1.41345
G1 X-15.241 Y-18.305 E1.54388
G1 X-14.49 Y-19.03 E1.66887
G1 X-13.798 Y-19.614 E1.77729
G1 X-13.65 Y-19.73 E1.7998
G1 X-12.919 Y-20.261 E1.90799
G1 X-12.798 Y-20.342 E1.92542
G1 X-12.022 Y-20.823 E2.03474
G1 X-11.883 Y-20.902 E2.05388
G1 X-11.088 Y-21.319 E2.16137
G1 X-10.94 Y-21.389 E2.18098
G1 X-10.094 Y-21.756 E2.29139
G1 X-9.972 Y-21.803 E2.30705
G1 X-9.103 Y-22.106 E2.41724
G1 X-8.945 Y-22.155 E2.43705
G1 X-8.087 Y-22.387 E2.54347
G1 X-7.912 Y-22.427 E2.56497
G1 X-6.892 Y-22.618 E2.68922
G1 X-5.987 Y-22.725 E2.79834
G1 X-5.804 Y-22.739 E2.82031
G1 X-4.664 Y-22.783 E2.95691
G1 X4.726 Y-22.782 E4.08124
G1 X5.85 Y-22.737 E4.21593
G1 X6.767 Y-22.635 E4.32641
G1 X6.942 Y-22.61 E4.34757
G1 X7.831 Y-22.446 E4.45582
G1 X7.954 Y-22.418 E4.47092
G1 X8.848 Y-22.184 E4.58157
G1 X9.011 Y-22.135 E4.60195
G1 X9.853 Y-21.848 E4.70846
G1 X10.019 Y-21.785 E4.72972
G1 X10.835 Y-21.439 E4.83585
G1 X10.994 Y-21.364 E4.8569
G1 X11.922 Y-20.882 E4.98211
G1 X12.701 Y-20.407 E5.09136
G1 X12.848 Y-20.31 E5.11244
G1 X13.566 Y-19.796 E5.21817
G1 X13.714 Y-19.683 E5.24047
G1 X14.405 Y-19.107 E5.34818
G1 X14.518 Y-19.006 E5.36633
G1 X15.167 Y-18.381 E5.47421
G1 X15.287 Y-18.256 E5.49496
G1 X15.89 Y-17.585 E5.60298
G1 X15.986 Y-17.469 E5.62101
G1 X16.534 Y-16.759 E5.7284
G1 X16.645 Y-16.602 E5.75142
G1 X17.389 Y-15.445 E5.91613
G1 X22.105 Y-7.269 E7.04627
G1 X22.55 Y-6.43 E7.15999
G1 X22.629 Y-6.265 E7.18189
G1 X22.982 Y-5.463 E7.28681
G1 X23.045 Y-5.307 E7.30696
G1 X23.344 Y-4.461 E7.41439
G1 X23.396 Y-4.297 E7.43499
G1 X23.637 Y-3.419 E7.54401
G1 X23.677 Y-3.252 E7.56457
G1 X23.844 Y-2.404 E7.66806
G1 X23.875 Y-2.211 E7.69147
G1 X23.983 Y-1.33 E7.79774
G1 X23.997 Y-1.161 E7.81805
G1 X24.041 Y-.264 E7.92558
G1 X24.043 Y-0.078 E7.94785
G1 X24.022 Y0.795 E8.05241
G1 X24.012 Y0.972 E8.07364
G1 X23.924 Y1.873 E8.18204
G1 X23.901 Y2.043 E8.20258
G1 X23.75 Y2.916 E8.30866
G1 X23.716 Y3.081 E8.32883
G1 X23.457 Y4.104 E8.45519
G1 X23.175 Y4.965 E8.56367
G1 X23.115 Y5.127 E8.58435
G1 X22.781 Y5.941 E8.6897
G1 X22.699 Y6.119 E8.71317
G1 X22.06 Y7.358 E8.88009
G1 X17.394 Y15.441 E9.9976
G1 X16.882 Y16.26 E10.11325
G1 X16.771 Y16.421 E10.13667
G1 X16.245 Y17.138 E10.24314
G1 X16.136 Y17.276 E10.2642
G1 X15.566 Y17.945 E10.36943
G1 X15.432 Y18.087 E10.39281
G1 X14.518 Y18.993 E10.54691
G1 X13.651 Y19.719 E10.68231
G1 X12.928 Y20.244 E10.78929
G1 X12.765 Y20.354 E10.81284
G1 X12.009 Y20.822 E10.9193
G1 X11.869 Y20.902 E10.93861
G1 X10.924 Y21.391 E11.06601
G1 X9.964 Y21.802 E11.19105
G1 X9.086 Y22.109 E11.30242
G1 X8.935 Y22.155 E11.32132
G1 X8.059 Y22.392 E11.42998
G1 X7.918 Y22.424 E11.44729
G1 X7.007 Y22.6 E11.55839
G1 X6.854 Y22.624 E11.57693
G1 X5.967 Y22.727 E11.68385
G1 X5.795 Y22.74 E11.7045
G1 X4.644 Y22.785 E11.84243
G1 X-4.727 Y22.782 E12.96448
G1 X-5.851 Y22.737 E13.09917
G1 X-6.768 Y22.635 E13.20964
G1 X-6.943 Y22.61 E13.23081
G1 X-7.832 Y22.446 E13.33905
G1 X-7.955 Y22.418 E13.35416
G1 X-8.849 Y22.184 E13.46481
G1 X-9.012 Y22.135 E13.48519
G1 X-9.854 Y21.848 E13.5917
G1 X-10.02 Y21.785 E13.61296
G1 X-10.823 Y21.444 E13.71742
G1 X-11.012 Y21.356 E13.74238
G1 X-11.923 Y20.882 E13.86534
G1 X-12.702 Y20.407 E13.97459
G1 X-12.853 Y20.307 E13.99628
G1 X-13.567 Y19.796 E14.10141
G1 X-13.715 Y19.683 E14.1237
G1 X-14.406 Y19.107 E14.23142
G1 X-14.519 Y19.006 E14.24956
G1 X-15.168 Y18.381 E14.35745
G1 X-15.288 Y18.256 E14.3782
G1 X-15.891 Y17.585 E14.48621
G1 X-15.987 Y17.468 E14.50434
G1 X-16.538 Y16.755 E14.61223
G1 X-16.658 Y16.583 E14.63734
G1 X-17.391 Y15.443 E14.79962
G1 X-22.125 Y7.241 E15.93354
G1 X-22.554 Y6.43 E16.0434
G1 X-22.63 Y6.273 E16.06428
G1 X-22.987 Y5.461 E16.17049
G1 X-23.051 Y5.301 E16.19113
G1 X-23.344 Y4.472 E16.29641
G1 X-23.404 Y4.28 E16.32049
G1 X-23.633 Y3.446 E16.42405
G1 X-23.679 Y3.247 E16.4485
G1 X-23.847 Y2.399 E16.55201
G1 X-23.877 Y2.217 E16.5741
G1 X-23.983 Y1.351 E16.67856
G1 X-24 Y1.15 E16.70272
G1 X-24.043 Y0.27 E16.80821
G1 X-24.046 Y0.105 E16.82797
G1 X-24.016 Y-.949 E16.95422
G1 X-23.926 Y-1.867 E17.06467
G1 X-23.906 Y-2.017 E17.08279
G1 X-23.752 Y-2.912 E17.19153
G1 X-23.72 Y-3.065 E17.21024
G1 X-23.499 Y-3.956 E17.32016
G1 X-23.457 Y-4.103 E17.33847
G1 X-23.178 Y-4.955 E17.44581
G1 X-23.114 Y-5.13 E17.46813
G1 X-22.787 Y-5.926 E17.57116
G1 X-22.7 Y-6.116 E17.59619
G1 X-22.044 Y-7.383 E17.76702
G0 F7200 X-22.4 Y-6.696
G1 F1350 X-22.4 Y6.721 E19.37352
G0 F7200 X-20.8 Y9.536
G1 F1350 X-20.8 Y-9.534 E21.6569
G0 F7200 X-19.2 Y-12.301
G1 F1350 X-19.2 Y12.308 E24.60349
G0 F7200 X-17.6 Y15.08
G1 F1350 X-17.6 Y-15.068 E28.21331
G0 F7200 X-16 Y-17.448
G1 F1350 X-16 Y17.451 E32.39199
G0 F7200 X-14.4 Y19.112
G1 F1350 X-14.4 Y-19.106 E36.96808
G0 F7200 X-12.8 Y-20.341
G1 F1350 X-12.8 Y20.342 E41.83932
G0 F7200 X-11.2 Y21.258
G1 F1350 X-11.2 Y-21.261 E46.9304
G0 F7200 X-9.6 Y-21.933
G1 F1350 X-9.6 Y21.934 E52.18288
G0 F7200 X-8 Y22.406
G1 F1350 X-8 Y-22.407 E57.54863
G0 F7200 X-6.4 Y-22.677
G1 F1350 X-6.4 Y22.675 E62.97892
G0 F7200 X-4.8 Y22.779
G1 F1350 X-4.8 Y-22.778 E68.43375
G0 F7200 X-3.2 Y-22.782
G1 F1350 X-3.2 Y22.782 E73.88943
G0 F7200 X-1.6 Y22.783
G1 F1350 X-1.6 Y-22.782 E79.34522
G0 F7200 X0.00 Y-22.782
G1 F1350 X0.00 Y22.783 E84.80101
G0 F7200 X1.6 Y22.784
G1 F1350 X1.6 Y-22.782 E90.25693
G0 F7200 X3.2 Y-22.782
G1 F1350 X3.2 Y22.784 E95.71284
G0 F7200 X4.8 Y22.779
G1 F1350 X4.8 Y-22.779 E101.16779
G0 F7200 X6.4 Y-22.675
G1 F1350 X6.4 Y22.677 E106.59808
G0 F7200 X8 Y22.406
G1 F1350 X8 Y-22.405 E111.96359
G0 F7200 X9.6 Y-21.934
G1 F1350 X9.6 Y21.93 E117.21572
G0 F7200 X11.2 Y21.249
G1 F1350 X11.2 Y-21.257 E122.30523
G0 F7200 X12.8 Y-20.341
G1 F1350 X12.8 Y20.331 E127.17516
G0 F7200 X14.4 Y19.092
G1 F1350 X14.4 Y-19.111 E131.74945
G0 F7200 X16 Y-17.45
G1 F1350 X16 Y17.436 E135.92658
G0 F7200 X17.6 Y15.085
G1 F1350 X17.6 Y-15.079 E139.53831
G0 F7200 X19.2 Y-12.305
G1 F1350 X19.2 Y12.313 E142.48598
G0 F7200 X20.8 Y9.541
G1 F1350 X20.8 Y-9.531 E144.7696
G0 F7200 X22.4 Y-6.712
G1 F1350 X22.4 Y6.699 E146.37538
G0 F7200 X24 Y1.095
G1 F1350 X24 Y-1.099 E146.63808
G0 F7200 X-24 Y-1.113
G1 F1350 X-24 Y1.15 E146.90905
G0 F600 X-24 Y1.15 Z0.51
G0 F7200 X-23.999 Y1.149
;TIME_ELAPSED:58.567304
;LAYER:-8
M140 S70
;TYPE:SUPPORT
G1 F1350 X-24.042 Y0.269 E146.953
G1 X-24.045 Y0.105 E146.96119
G1 X-24.042 Y0.00 E146.96643
G1 X-1.26 Y22.781 E148.57378
G1 X0.154 Y22.782 E148.64433
G1 X-23.976 Y-1.349 E150.34687
G1 X-23.925 Y-1.866 E150.37278
G1 X-23.905 Y-2.017 E150.38038
G1 X-23.806 Y-2.593 E150.40954
G1 X1.569 Y22.782 E152.19989
G1 X2.984 Y22.783 E152.27048
G1 X-23.549 Y-3.75 E154.14253
G1 X-23.497 Y-3.956 E154.15313
G1 X-23.456 Y-4.102 E154.16069
G1 X-23.217 Y-4.833 E154.19906
G1 X4.398 Y22.783 E156.14748
G1 X4.644 Y22.784 E156.15976
G1 X5.769 Y22.739 E156.21593
G1 X-22.819 Y-5.848 E158.23293
G1 X-22.786 Y-5.926 E158.23716
G1 X-22.698 Y-6.115 E158.24756
G1 X-22.349 Y-6.793 E158.2856
G1 X7.036 Y22.592 E160.35887
G1 X7.918 Y22.423 E160.40368
G1 X8.059 Y22.391 E160.41089
G1 X8.208 Y22.35 E160.4186
G1 X-21.853 Y-7.711 E162.53956
G1 X-21.335 Y-8.607 E162.5912
G1 X9.304 Y22.032 E164.75295
G1 X9.963 Y21.8 E164.7878
G1 X10.33 Y21.643 E164.80772
G1 X-20.817 Y-9.503 E167.00527
G1 X-20.298 Y-10.399 E167.05693
G1 X11.297 Y21.196 E169.28613
G1 X11.868 Y20.901 E169.31819
G1 X12.009 Y20.821 E169.32628
G1 X12.211 Y20.696 E169.33813
G1 X-19.781 Y-11.296 E171.59534
G1 X-19.263 Y-12.191 E171.64693
G1 X13.069 Y20.14 E173.92809
G1 X13.651 Y19.718 E173.96396
G1 X13.874 Y19.53 E173.97851
G1 X-18.744 Y-13.087 E176.27985
G1 X-18.226 Y-13.983 E176.33149
G1 X14.633 Y18.876 E178.64987
G1 X15.344 Y18.172 E178.69978
G1 X-17.708 Y-14.879 E181.03175
G1 X-17.203 Y-15.75 E181.08198
G1 X-17.188 Y-15.774 E181.08339
G1 X16.009 Y17.423 E183.42562
G1 X16.135 Y17.275 E183.43531
G1 X16.245 Y17.137 E183.44412
G1 X16.622 Y16.622 E183.47596
G1 X-16.627 Y-16.627 E185.82186
G1 X-16.587 Y-16.683 E185.82529
G1 X-16.014 Y-17.428 E185.87218
G1 X17.186 Y15.772 E188.21462
G1 X17.392 Y15.441 E188.23407
G1 X17.713 Y14.885 E188.2661
G1 X-15.351 Y-18.18 E190.59898
G1 X-15.24 Y-18.304 E190.60728
G1 X-14.64 Y-18.883 E190.64888
G1 X18.231 Y13.988 E192.96811
G1 X18.748 Y13.092 E193.01972
G1 X-13.883 Y-19.54 E195.32204
G1 X-13.797 Y-19.613 E195.32767
G1 X-13.649 Y-19.729 E195.33705
G1 X-13.075 Y-20.146 E195.37245
G1 X19.266 Y12.195 E197.65428
G1 X19.784 Y11.298 E197.70596
G1 X-12.215 Y-20.701 E199.96366
G1 X-12.021 Y-20.822 E199.97507
G1 X-11.882 Y-20.901 E199.98305
G1 X-11.304 Y-21.204 E200.0156
G1 X20.301 Y10.402 E202.24554
G1 X20.819 Y9.505 E202.29722
G1 X-10.336 Y-21.65 E204.49537
G1 X-10.093 Y-21.755 E204.50858
G1 X-9.972 Y-21.802 E204.51506
G1 X-9.306 Y-22.034 E204.55024
G1 X21.336 Y8.609 E206.71224
G1 X21.854 Y7.712 E206.76391
G1 X-8.21 Y-22.352 E208.88509
G1 X-8.087 Y-22.386 E208.89146
G1 X-7.911 Y-22.425 E208.90045
G1 X-7.033 Y-22.589 E208.94501
G1 X22.35 Y6.793 E211.01811
G1 X22.698 Y6.119 E211.05595
G1 X22.78 Y5.941 E211.06573
G1 X22.819 Y5.848 E211.07076
G1 X-5.767 Y-22.738 E213.08766
G1 X-4.663 Y-22.782 E213.14278
G1 X-4.396 Y-22.781 E213.1561
G1 X23.217 Y4.833 E215.10438
G1 X23.456 Y4.104 E215.14265
G1 X23.546 Y3.747 E215.16102
G1 X-2.982 Y-22.781 E217.03272
G1 X-1.568 Y-22.781 E217.10326
G1 X23.805 Y2.592 E218.89346
G1 X23.9 Y2.043 E218.92126
G1 X23.923 Y1.873 E218.92982
G1 X23.975 Y1.347 E218.95619
G1 X-.154 Y-22.781 E220.65859
G1 X1.26 Y-22.781 E220.72913
G1 X24.04 Y0.00 E222.33642
G1 X24.042 Y-0.078 E222.34031
G1 X24.04 Y-.264 E222.34959
G1 X23.996 Y-1.161 E222.3944
G1 X23.982 Y-1.329 E222.40281
G1 X23.962 Y-1.493 E222.41105
G1 X2.674 Y-22.781 E223.91303
G1 X4.088 Y-22.781 E223.98358
G1 X23.69 Y-3.179 E225.3666
G1 X23.676 Y-3.251 E225.37026
G1 X23.636 Y-3.418 E225.37883
G1 X23.395 Y-4.296 E225.42425
G1 X23.343 Y-4.461 E225.43289
G1 X23.08 Y-5.203 E225.47216
G1 X5.535 Y-22.748 E226.71005
G1 X5.85 Y-22.736 E226.72578
G1 X6.767 Y-22.634 E226.77181
G1 X6.942 Y-22.609 E226.78063
G1 X7.122 Y-22.575 E226.78977
G1 X21.661 Y-8.036 E227.81558
G1 X19.733 Y-11.378 E228.00807
G1 X8.964 Y-22.147 E228.76788
G1 X9.01 Y-22.134 E228.77026
G1 X9.852 Y-21.846 E228.81466
G1 X10.018 Y-21.783 E228.82352
G1 X10.834 Y-21.438 E228.86772
G1 X10.994 Y-21.363 E228.87653
G1 X11.347 Y-21.179 E228.89639
G1 X17.807 Y-14.719 E229.35218
G0 F7200 X17.388 Y-15.445
G1 F1350 X16.644 Y-16.602 E229.42081
G1 X16.533 Y-16.758 E229.43036
G1 X15.986 Y-17.468 E229.47507
G1 X15.89 Y-17.584 E229.48259
G1 X15.286 Y-18.255 E229.52763
G1 X15.167 Y-18.38 E229.53624
G1 X14.518 Y-19.005 E229.58119
G1 X14.405 Y-19.106 E229.58875
G1 X13.714 Y-19.682 E229.63363
G1 X13.565 Y-19.795 E229.64296
G1 X12.848 Y-20.309 E229.68697
G1 X12.701 Y-20.405 E229.69573
G1 X11.921 Y-20.88 E229.7413
G1 X11.347 Y-21.179 E229.77359
G0 F7200 X-17.809 Y14.717
G1 F1350 X-11.345 Y21.181 E230.22966
G1 X-11.923 Y20.88 E230.26217
G1 X-12.701 Y20.406 E230.30762
G1 X-12.853 Y20.305 E230.31672
G1 X-13.567 Y19.795 E230.3605
G1 X-13.714 Y19.682 E230.36975
G1 X-14.405 Y19.106 E230.41463
G1 X-14.519 Y19.004 E230.42226
G1 X-15.168 Y18.379 E230.46721
G1 X-15.288 Y18.255 E230.47582
G1 X-15.891 Y17.584 E230.52083
G1 X-15.986 Y17.467 E230.52835
G1 X-16.537 Y16.754 E230.57331
G1 X-16.657 Y16.582 E230.58377
G1 X-17.39 Y15.443 E230.65134
G0 F7200 X-11.345 Y21.181
G1 F1350 X-11.011 Y21.355 E230.67013
G1 X-10.822 Y21.443 E230.68053
G1 X-10.019 Y21.784 E230.72406
G1 X-9.853 Y21.847 E230.73292
G1 X-9.012 Y22.134 E230.77725
G1 X-8.963 Y22.148 E230.77979
G1 X-19.739 Y11.373 E231.54006
G1 X-21.668 Y8.029 E231.73266
G1 X-7.121 Y22.576 E232.75903
G1 X-6.943 Y22.609 E232.76806
G1 X-6.768 Y22.634 E232.77688
G1 X-5.85 Y22.736 E232.82296
G1 X-5.535 Y22.748 E232.83869
G1 X-23.087 Y5.197 E234.07704
G1 X-23.343 Y4.471 E234.11545
G1 X-23.403 Y4.28 E234.12544
G1 X-23.632 Y3.445 E234.16864
G1 X-23.678 Y3.247 E234.17878
G1 X-23.692 Y3.177 E234.18234
G1 X-4.089 Y22.78 E235.56544
G1 X-2.674 Y22.781 E235.63603
G1 X-23.965 Y1.49 E237.13823
G1 X-23.982 Y1.35 E237.14526
G1 X-23.999 Y1.149 E237.15532
G0 F600 X-23.999 Y1.149 Z0.61
G0 F7200 X-6.98 Y22.8
;TIME_ELAPSED:139.869873
;LAYER:-7
;TYPE:SUPPORT-INTERFACE
G1 F1800 X7.01 Y22.8 E237.38798
G1 X7.052 Y22.795 E237.38868
G1 X8.099 Y22.588 E237.40643
G1 X8.782 Y22.4 E237.41821
G1 X-8.814 Y22.4 E237.71084
G1 X-8.896 Y22.379 E237.71224
G1 X-9.91 Y22.04 E237.73002
G1 X-10.007 Y22 E237.73177
G1 X9.988 Y22 E238.06429
G1 X10.16 Y21.939 E238.06732
G1 X10.928 Y21.6 E238.08128
G1 X-10.959 Y21.6 E238.44526
G1 X-11.748 Y21.2 E238.45998
G1 X11.722 Y21.2 E238.85028
G1 X12.119 Y20.989 E238.85776
G1 X12.419 Y20.8 E238.86366
G1 X-12.436 Y20.8 E239.277
G1 X-12.798 Y20.582 E239.28402
G1 X-13.057 Y20.4 E239.28929
G1 X13.052 Y20.4 E239.72348
G1 X13.596 Y20 E239.73471
G1 X-13.624 Y20 E240.18738
G1 X-13.693 Y19.951 E240.18879
G1 X-14.12 Y19.6 E240.19798
G1 X14.106 Y19.6 E240.66738
G1 X14.573 Y19.2 E240.67761
G1 X-14.598 Y19.2 E241.16272
G1 X-15.018 Y18.8 E241.17237
G1 X14.996 Y18.8 E241.6715
G1 X15.393 Y18.4 E241.68088
G1 X-15.421 Y18.4 E242.19331
G1 X-15.784 Y18 E242.2023
G1 X15.779 Y18 E242.72719
G1 X16.116 Y17.6 E242.73589
G1 X-16.132 Y17.6 E243.27218
G1 X-16.445 Y17.2 E243.28062
G1 X16.447 Y17.2 E243.82762
G1 X16.737 Y16.8 E243.83584
G1 X-16.747 Y16.8 E244.39268
G1 X-17.008 Y16.4 E244.40062
G1 X17.026 Y16.4 E244.96661
G1 X17.047 Y16.372 E244.96719
G1 X17.279 Y16 E244.97448
G1 X-17.269 Y15.999 E245.54902
G1 X-17.517 Y15.619 E245.55656
G1 X-17.529 Y15.599 E245.55695
G1 X17.53 Y15.6 E246.13998
G1 X17.574 Y15.53 E246.14136
G1 X17.764 Y15.2 E246.14769
G1 X-17.76 Y15.199 E246.73846
G1 X-17.991 Y14.799 E246.74614
G1 X17.994 Y14.8 E247.34457
G1 X18.225 Y14.4 E247.35225
G1 X-18.222 Y14.399 E247.95837
G1 X-18.454 Y13.999 E247.96606
G1 X18.456 Y14 E248.57988
G1 X18.686 Y13.6 E248.58755
G1 X-18.685 Y13.599 E249.20903
G1 X-18.916 Y13.199 E249.21671
G1 X18.917 Y13.2 E249.84588
G1 X19.148 Y12.8 E249.85356
G1 X-19.147 Y12.799 E250.49041
G1 X-19.378 Y12.399 E250.49809
G1 X19.378 Y12.4 E251.1426
G1 X19.609 Y12 E251.15029
G1 X-19.609 Y11.999 E251.80248
G1 X-19.84 Y11.599 E251.81017
G1 X19.84 Y11.6 E252.47005
G1 X20.07 Y11.2 E252.47772
G1 X-20.072 Y11.199 E253.14528
G1 X-20.303 Y10.799 E253.15297
G1 X20.301 Y10.8 E253.82821
G1 X20.532 Y10.4 E253.83589
G1 X-20.534 Y10.399 E254.51883
G1 X-20.765 Y9.999 E254.52651
G1 X20.762 Y10 E255.2171
G1 X20.993 Y9.6 E255.22479
G1 X-20.996 Y9.599 E255.92307
G1 X-21.227 Y9.199 E255.93075
G1 X21.223 Y9.2 E256.63669
G1 X21.454 Y8.8 E256.64437
G1 X-21.458 Y8.799 E257.358
G1 X-21.69 Y8.399 E257.36569
G1 X21.685 Y8.4 E258.08702
G1 X21.915 Y8 E258.0947
G1 X-21.921 Y7.999 E258.82369
G1 X-22.152 Y7.599 E258.83137
G1 X22.146 Y7.6 E259.56805
G1 X22.297 Y7.339 E259.57307
G1 X22.367 Y7.2 E259.57566
G1 X-22.372 Y7.199 E260.31967
G1 X-22.584 Y6.799 E260.3272
G1 X22.569 Y6.8 E261.07809
G1 X22.771 Y6.4 E261.08555
G1 X-22.787 Y6.399 E261.84318
G1 X-22.965 Y5.999 E261.85046
G1 X22.972 Y6 E262.61439
G1 X23.134 Y5.6 E262.62157
G1 X-23.144 Y5.599 E263.39118
G1 X-23.167 Y5.547 E263.39212
G1 X-23.293 Y5.199 E263.39828
G1 X23.295 Y5.2 E264.17304
G1 X23.363 Y5.033 E264.17604
G1 X23.437 Y4.8 E264.1801
G1 X-23.438 Y4.799 E264.95964
G1 X-23.537 Y4.523 E264.96452
G1 X-23.572 Y4.399 E264.96666
G1 X23.566 Y4.4 E265.75057
G1 X23.689 Y4.017 E265.75726
G1 X23.693 Y4 E265.75755
G1 X-23.685 Y3.999 E266.54545
G1 X-23.798 Y3.599 E266.55236
G1 X23.79 Y3.6 E267.34375
G1 X23.886 Y3.2 E267.35059
G1 X-23.888 Y3.199 E268.14508
G1 X-23.97 Y2.799 E268.15187
G1 X23.971 Y2.8 E268.94913
G1 X24.038 Y2.4 E268.95587
G1 X-24.05 Y2.399 E269.75558
G1 X-24.101 Y1.999 E269.76228
