;FLAVOR:Marlin
;TIME:8255
;Filament used: 4.60789m
;Layer height: 0.1
;MINX:-33.695
;MINY:-31.17
;MINZ:0.36
;MAXX:33.695
;MAXY:31.17
;MAXZ:59.76
;Generated with Cura_SteamEngine 4.6.2
M140 S70
M105
M190 S70
M104 S205
M105
M109 S205
M82 ;absolute extrusion mode
G28 ;Home
G1 Z15.0 F6000 ;Move the platform down 15mm
;Prime the extruder
G92 E0
G1 F200 E3
G92 E0
G92 E0
G92 E0
G1 F1500 E-6.5
;LAYER_COUNT:587
;LAYER:-9
M107
G0 F7200 X-30.579 Y-8.979 Z0.36
;TYPE:SUPPORT-INTERFACE
G1 F1500 E0
G1 F1350 X-22.069 Y-23.709 E2.0369
G1 X-21.584 Y-24.485 E2.14647
G1 X-21.473 Y-24.646 E2.16989
G1 X-20.947 Y-25.363 E2.27636
G1 X-20.835 Y-25.505 E2.29802
G1 X-20.261 Y-26.177 E2.40384
G1 X-20.147 Y-26.3 E2.42392
G1 X-19.507 Y-26.948 E2.53297
G1 X-19.405 Y-27.044 E2.54974
G1 X-18.697 Y-27.664 E2.66243
G1 X-18.594 Y-27.747 E2.67827
G1 X-17.884 Y-28.282 E2.78471
G1 X-17.721 Y-28.395 E2.80846
G1 X-16.846 Y-28.953 E2.93272
G1 X-16.054 Y-29.384 E3.04069
G1 X-15.876 Y-29.473 E3.06451
G1 X-15.085 Y-29.832 E3.16852
G1 X-14.916 Y-29.902 E3.19043
G1 X-14.097 Y-30.204 E3.29495
G1 X-13.9 Y-30.269 E3.31978
G1 X-13.069 Y-30.508 E3.42332
G1 X-12.875 Y-30.556 E3.44725
G1 X-12.032 Y-30.733 E3.55039
G1 X-11.843 Y-30.766 E3.57336
G1 X-10.973 Y-30.884 E3.67848
G1 X-10.789 Y-30.901 E3.70061
G1 X-9.439 Y-30.966 E3.86244
G1 X-7.841 Y-30.97 E4.05378
G1 X9.451 Y-30.969 E6.12426
G1 X10.575 Y-30.924 E6.25896
G1 X11.492 Y-30.822 E6.36943
G1 X11.667 Y-30.797 E6.3906
G1 X12.556 Y-30.633 E6.49884
G1 X12.679 Y-30.605 E6.51394
G1 X13.573 Y-30.371 E6.62459
G1 X13.736 Y-30.322 E6.64497
G1 X14.578 Y-30.035 E6.75149
G1 X14.744 Y-29.972 E6.77275
G1 X15.547 Y-29.631 E6.87721
G1 X15.736 Y-29.543 E6.90217
G1 X16.647 Y-29.069 E7.02513
G1 X17.426 Y-28.594 E7.13438
G1 X17.577 Y-28.494 E7.15606
G1 X18.291 Y-27.983 E7.26119
G1 X18.439 Y-27.87 E7.28349
G1 X19.13 Y-27.294 E7.3912
G1 X19.243 Y-27.193 E7.40935
G1 X19.892 Y-26.568 E7.51723
G1 X20.012 Y-26.443 E7.53798
G1 X20.615 Y-25.772 E7.646
G1 X20.711 Y-25.655 E7.66412
G1 X21.262 Y-24.942 E7.77202
G1 X21.382 Y-24.77 E7.79713
G1 X22.116 Y-23.628 E7.95967
G1 X31.362 Y-7.62 E10.17316
G1 X31.649 Y-7.104 E10.24386
G1 X32.059 Y-6.308 E10.35107
G1 X32.146 Y-6.124 E10.37544
G1 X32.489 Y-5.319 E10.48021
G1 X32.555 Y-5.15 E10.50194
G1 X32.885 Y-4.177 E10.62496
G1 X33.156 Y-3.132 E10.75422
G1 X33.322 Y-2.24 E10.86286
G1 X33.347 Y-2.073 E10.88308
G1 X33.45 Y-1.155 E10.99369
G1 X33.46 Y-1.017 E11.01026
G1 X33.495 Y-.109 E11.11906
G1 X33.496 Y0.054 E11.13858
G1 X33.464 Y0.965 E11.24772
G1 X33.453 Y1.123 E11.26669
G1 X33.358 Y2.008 E11.37326
G1 X33.331 Y2.194 E11.39577
G1 X33.172 Y3.061 E11.50131
G1 X33.135 Y3.232 E11.52226
G1 X32.909 Y4.106 E11.63035
G1 X32.869 Y4.24 E11.64709
G1 X32.571 Y5.121 E11.75845
G1 X32.518 Y5.26 E11.77627
G1 X32.169 Y6.085 E11.88352
G1 X32.095 Y6.243 E11.90441
G1 X31.513 Y7.357 E12.05491
G1 X22.136 Y23.598 E14.3004
G1 X21.621 Y24.419 E14.41644
G1 X21.528 Y24.554 E14.43607
G1 X20.605 Y25.766 E14.61848
G1 X19.907 Y26.535 E14.74283
G1 X19.816 Y26.627 E14.75833
G1 X19.147 Y27.263 E14.86885
G1 X19.024 Y27.371 E14.88845
G1 X18.327 Y27.943 E14.99641
G1 X18.204 Y28.037 E15.01495
G1 X17.465 Y28.557 E15.12315
G1 X17.323 Y28.649 E15.14341
G1 X16.57 Y29.102 E15.24862
G1 X16.4 Y29.196 E15.27188
G1 X15.598 Y29.6 E15.37941
G1 X15.453 Y29.667 E15.39853
G1 X14.632 Y30.009 E15.50503
G1 X14.452 Y30.076 E15.52802
G1 X13.618 Y30.355 E15.63332
G1 X13.447 Y30.405 E15.65466
G1 X12.577 Y30.624 E15.76208
G1 X12.41 Y30.66 E15.78253
G1 X11.54 Y30.814 E15.88832
G1 X11.362 Y30.839 E15.90984
G1 X10.453 Y30.933 E16.01926
G1 X10.314 Y30.942 E16.03594
G1 X9.38 Y30.971 E16.14783
G1 X-9.454 Y30.969 E18.40295
G1 X-10.577 Y30.924 E18.53752
G1 X-11.495 Y30.822 E18.64811
G1 X-11.67 Y30.797 E18.66928
G1 X-12.559 Y30.633 E18.77752
G1 X-12.682 Y30.605 E18.79263
G1 X-13.724 Y30.327 E18.92176
G1 X-14.593 Y30.031 E19.03168
G1 X-14.739 Y29.975 E19.0504
G1 X-15.556 Y29.628 E19.15668
G1 X-15.733 Y29.544 E19.18014
G1 X-16.53 Y29.136 E19.28735
G1 X-16.663 Y29.062 E19.30557
G1 X-17.415 Y28.601 E19.41119
G1 X-17.586 Y28.488 E19.43573
G1 X-18.319 Y27.964 E19.54362
G1 X-18.42 Y27.885 E19.55897
G1 X-19.128 Y27.297 E19.66917
G1 X-19.245 Y27.193 E19.68791
G1 X-19.899 Y26.563 E19.79664
G1 X-20.025 Y26.431 E19.81849
G1 X-20.607 Y25.781 E19.92296
G1 X-20.739 Y25.622 E19.9477
G1 X-21.248 Y24.962 E20.0475
G1 X-21.383 Y24.772 E20.07541
G1 X-22.133 Y23.604 E20.24161
G1 X-31.56 Y7.275 E22.49922
G1 X-32.002 Y6.441 E22.61224
G1 X-32.081 Y6.276 E22.63414
G1 X-32.439 Y5.462 E22.74062
G1 X-32.498 Y5.314 E22.7597
G1 X-32.793 Y4.484 E22.86517
G1 X-32.856 Y4.284 E22.89027
G1 X-33.087 Y3.444 E22.99459
G1 X-33.132 Y3.249 E23.01855
G1 X-33.297 Y2.415 E23.12035
G1 X-33.33 Y2.208 E23.14544
G1 X-33.435 Y1.352 E23.24871
G1 X-33.452 Y1.151 E23.27286
G1 X-33.495 Y0.273 E23.37811
G1 X-33.497 Y0.078 E23.40146
G1 X-33.476 Y-.783 E23.50459
G1 X-33.466 Y-.96 E23.52581
G1 X-33.359 Y-2.008 E23.65195
G1 X-33.205 Y-2.911 E23.76163
G1 X-33.172 Y-3.064 E23.78038
G1 X-32.951 Y-3.955 E23.89029
G1 X-32.909 Y-4.102 E23.9086
G1 X-32.63 Y-4.954 E24.01594
G1 X-32.566 Y-5.129 E24.03826
G1 X-32.246 Y-5.907 E24.13898
G1 X-32.148 Y-6.122 E24.16727
G1 X-31.538 Y-7.307 E24.32686
G1 X-30.579 Y-8.979 E24.55765
G0 F7200 X-30.4 Y-9.289
G1 F1350 X-30.4 Y9.284 E26.78152
G0 F7200 X-28.8 Y12.055
G1 F1350 X-28.8 Y-12.059 E29.66884
G0 F7200 X-27.2 Y-14.828
G1 F1350 X-27.2 Y14.827 E33.21963
G0 F7200 X-25.6 Y17.598
G1 F1350 X-25.6 Y-17.598 E37.43387
G0 F7200 X-24 Y-20.367
G1 F1350 X-24 Y20.37 E42.31158
G0 F7200 X-22.4 Y23.141
G1 F1350 X-22.4 Y-23.137 E47.85274
G0 F7200 X-20.8 Y-25.546
G1 F1350 X-20.8 Y25.542 E53.96984
G0 F7200 X-19.2 Y27.233
G1 F1350 X-19.2 Y-27.224 E60.49033
G0 F7200 X-17.6 Y-28.473
G1 F1350 X-17.6 Y28.477 E67.30932
G0 F7200 X-16 Y29.407
G1 F1350 X-16 Y-29.411 E74.35198
G0 F7200 X-14.4 Y-30.093
G1 F1350 X-14.4 Y30.096 E81.5588
G0 F7200 X-12.8 Y30.573
G1 F1350 X-12.8 Y-30.572 E88.88009
G0 F7200 X-11.2 Y-30.854
G1 F1350 X-11.2 Y30.854 E96.26879
G0 F7200 X-9.6 Y30.963
G1 F1350 X-9.6 Y-30.959 E103.68311
G0 F7200 X-8 Y-30.97
G1 F1350 X-8 Y30.969 E111.09947
G0 F7200 X-6.4 Y30.969
G1 F1350 X-6.4 Y-30.969 E118.51571
G0 F7200 X-4.8 Y-30.969
G1 F1350 X-4.8 Y30.969 E125.93195
G0 F7200 X-3.2 Y30.969
G1 F1350 X-3.2 Y-30.969 E133.34819
G0 F7200 X-1.6 Y-30.969
G1 F1350 X-1.6 Y30.969 E140.76442
G0 F7200 X0.00 Y30.97
G1 F1350 X0.00 Y-30.969 E148.18078
G0 F7200 X1.6 Y-30.969
G1 F1350 X1.6 Y30.97 E155.59714
G0 F7200 X3.2 Y30.97
G1 F1350 X3.2 Y-30.969 E163.0135
G0 F7200 X4.8 Y-30.969
G1 F1350 X4.8 Y30.97 E170.42986
G0 F7200 X6.4 Y30.97
G1 F1350 X6.4 Y-30.969 E177.84622
G0 F7200 X8 Y-30.969
G1 F1350 X8 Y30.97 E185.26257
G0 F7200 X9.6 Y30.965
G1 F1350 X9.6 Y-30.963 E192.67761
G0 F7200 X11.2 Y-30.854
G1 F1350 X11.2 Y30.856 E200.06655
G0 F7200 X12.8 Y30.568
G1 F1350 X12.8 Y-30.573 E207.38736
G0 F7200 X14.4 Y-30.095
G1 F1350 X14.4 Y30.094 E214.59418
G0 F7200 X16 Y29.398
G1 F1350 X16 Y-29.405 E221.63505
G0 F7200 X17.6 Y-28.477
G1 F1350 X17.6 Y28.463 E228.45284
G0 F7200 X19.2 Y27.213
G1 F1350 X19.2 Y-27.231 E234.97177
G0 F7200 X20.8 Y-25.539
G1 F1350 X20.8 Y25.51 E241.0842
G0 F7200 X22.4 Y23.141
G1 F1350 X22.4 Y-23.136 E246.62525
G0 F7200 X24 Y-20.366
G1 F1350 X24 Y20.37 E251.50283
G0 F7200 X25.6 Y17.599
G1 F1350 X25.6 Y-17.596 E255.71696
G0 F7200 X27.2 Y-14.825
G1 F1350 X27.2 Y14.828 E259.26751
G0 F7200 X28.8 Y12.056
G1 F1350 X28.8 Y-12.055 E262.15447
G0 F7200 X30.4 Y-9.285
G1 F1350 X30.4 Y9.285 E264.37798
G0 F7200 X32 Y6.425
G1 F1350 X32 Y-6.422 E265.91623
G0 F7200 X-32 Y-6.41
G1 F1350 X-32 Y6.444 E267.45533
G0 F600 X-32 Y6.444 Z0.51
G0 F7200 X-32.001 Y6.441
;TIME_ELAPSED:103.967474
;LAYER:-8
M140 S70
;TYPE:SUPPORT
G1 F1350 X-32.08 Y6.276 E267.46445
G1 X-32.216 Y5.967 E267.4813
G1 X-7.215 Y30.968 E269.24525
G1 X-5.801 Y30.968 E269.3158
G1 X-32.995 Y3.773 E271.23451
G1 X-33.086 Y3.444 E271.25154
G1 X-33.131 Y3.249 E271.26153
G1 X-33.296 Y2.415 E271.30394
G1 X-33.329 Y2.208 E271.3144
G1 X-33.355 Y1.999 E271.32491
G1 X-4.386 Y30.968 E273.36883
G1 X-2.971 Y30.969 E273.43942
G1 X-33.485 Y0.455 E275.59235
G1 X-33.494 Y0.272 E275.60149
G1 X-33.496 Y0.078 E275.61117
G1 X-33.475 Y-.782 E275.65409
G1 X-33.466 Y-.939 E275.66193
G1 X-1.557 Y30.969 E277.91325
G1 X-.143 Y30.969 E277.9838
G1 X-33.323 Y-2.211 E280.32482
G1 X-33.204 Y-2.91 E280.3602
G1 X-33.171 Y-3.063 E280.36801
G1 X-33.09 Y-3.391 E280.38486
G1 X1.27 Y30.969 E282.80915
G1 X2.684 Y30.969 E282.87969
G1 X-32.779 Y-4.495 E285.38183
G1 X-32.628 Y-4.953 E285.40589
G1 X-32.565 Y-5.129 E285.41522
G1 X-32.401 Y-5.53 E285.43683
G1 X4.099 Y30.969 E288.01207
G1 X5.514 Y30.969 E288.08267
G1 X-31.954 Y-6.498 E290.7262
G1 X-31.536 Y-7.307 E290.77163
G1 X-31.469 Y-7.427 E290.77849
G1 X6.928 Y30.969 E293.48757
G1 X8.342 Y30.969 E293.55811
G1 X-30.953 Y-8.326 E296.33059
G1 X-30.578 Y-8.978 E296.36811
G1 X-30.437 Y-9.224 E296.38226
G1 X9.745 Y30.958 E299.21732
G1 X10.313 Y30.941 E299.24567
G1 X10.453 Y30.932 E299.25266
G1 X11.069 Y30.868 E299.28356
G1 X-29.919 Y-10.12 E302.17549
G1 X-29.401 Y-11.016 E302.22712
G1 X12.294 Y30.679 E305.16893
G1 X12.41 Y30.659 E305.1748
G1 X12.576 Y30.623 E305.18328
G1 X13.436 Y30.407 E305.22751
G1 X-28.883 Y-11.913 E308.21338
G1 X-28.365 Y-12.809 E308.26502
G1 X14.5 Y30.056 E311.28937
G1 X14.631 Y30.008 E311.29634
G1 X15.453 Y29.665 E311.34077
G1 X15.501 Y29.643 E311.34341
G1 X-27.847 Y-13.705 E314.40184
G1 X-27.329 Y-14.601 E314.45348
G1 X16.443 Y29.17 E317.54179
G1 X16.569 Y29.1 E317.54898
G1 X17.323 Y28.648 E317.59284
G1 X17.329 Y28.643 E317.59323
G1 X-26.812 Y-15.498 E320.70762
G1 X-26.294 Y-16.394 E320.75925
G1 X18.164 Y28.063 E323.89597
G1 X18.204 Y28.036 E323.89838
G1 X18.326 Y27.942 E323.90606
G1 X18.947 Y27.432 E323.94615
G1 X-25.776 Y-17.29 E327.10156
G1 X-25.258 Y-18.187 E327.15324
G1 X19.682 Y26.753 E330.324
G1 X19.815 Y26.626 E330.33318
G1 X19.907 Y26.534 E330.33967
G1 X20.368 Y26.025 E330.37393
G1 X-24.74 Y-19.084 E333.55658
G1 X-24.222 Y-19.98 E333.60821
G1 X21.001 Y25.244 E336.79897
G1 X21.527 Y24.552 E336.84234
G1 X21.608 Y24.436 E336.8494
G1 X-23.705 Y-20.876 E340.04644
G1 X-23.187 Y-21.773 E340.09812
G1 X22.153 Y23.567 E343.2971
G1 X22.671 Y22.671 E343.34873
G1 X-22.669 Y-22.669 E346.54771
G1 X-22.151 Y-23.565 E346.59935
G1 X23.188 Y21.774 E349.79826
G1 X23.706 Y20.878 E349.84989
G1 X-21.612 Y-24.44 E353.04732
G1 X-21.583 Y-24.484 E353.04995
G1 X-21.473 Y-24.645 E353.05968
G1 X-21.02 Y-25.263 E353.09791
G1 X24.224 Y19.981 E356.29012
G1 X24.741 Y19.084 E356.34177
G1 X-20.38 Y-26.037 E359.5253
G1 X-20.26 Y-26.176 E359.53446
G1 X-20.146 Y-26.298 E359.54279
G1 X-19.69 Y-26.761 E359.57521
G1 X25.259 Y18.188 E362.74661
G1 X25.776 Y17.291 E362.79826
G1 X-18.953 Y-27.438 E365.95413
G1 X-18.697 Y-27.663 E365.97114
G1 X-18.594 Y-27.746 E365.97774
G1 X-18.167 Y-28.067 E366.00439
G1 X26.294 Y16.394 E369.14135
G1 X26.812 Y15.498 E369.19299
G1 X-17.329 Y-28.642 E372.30734
G1 X-16.846 Y-28.951 E372.33594
G1 X-16.443 Y-29.17 E372.35883
G1 X27.329 Y14.601 E375.44714
G1 X27.847 Y13.705 E375.49878
G1 X-15.5 Y-29.642 E378.55714
G1 X-15.085 Y-29.831 E378.57989
G1 X-14.916 Y-29.901 E378.58902
G1 X-14.498 Y-30.054 E378.61122
G1 X28.365 Y12.809 E381.63544
G1 X28.883 Y11.912 E381.68712
G1 X-13.432 Y-30.402 E384.67264
G1 X-13.068 Y-30.507 E384.69154
G1 X-12.875 Y-30.555 E384.70146
G1 X-12.292 Y-30.677 E384.73117
G1 X29.4 Y11.016 E387.6728
G1 X29.918 Y10.119 E387.72448
G1 X-11.071 Y-30.87 E390.61648
G1 X-10.972 Y-30.883 E390.62146
G1 X-10.789 Y-30.9 E390.63063
G1 X-9.736 Y-30.95 E390.68322
G1 X30.435 Y9.222 E393.51754
G1 X30.953 Y8.326 E393.56917
G1 X-8.34 Y-30.967 E396.34151
G1 X-7.841 Y-30.969 E396.3664
G1 X-6.926 Y-30.968 E396.41205
G1 X31.471 Y7.429 E399.12117
G1 X31.512 Y7.357 E399.1253
G1 X31.959 Y6.503 E399.17339
G1 X-5.512 Y-30.968 E401.81717
G1 X-4.098 Y-30.968 E401.88772
G1 X32.402 Y5.532 E404.46299
G1 X32.517 Y5.26 E404.47772
G1 X32.57 Y5.12 E404.48519
G1 X32.782 Y4.497 E404.51802
G1 X-2.684 Y-30.968 E407.0203
G1 X-1.269 Y-30.968 E407.0909
G1 X33.092 Y3.394 E409.51529
G1 X33.134 Y3.232 E409.52364
G1 X33.171 Y3.061 E409.53237
G1 X33.326 Y2.213 E409.57537
G1 X0.144 Y-30.968 E411.91651
G1 X1.558 Y-30.968 E411.98705
G1 X33.464 Y0.937 E414.23816
G1 X33.495 Y0.053 E414.28229
G1 X33.494 Y-.108 E414.29032
G1 X33.48 Y-.46 E414.3079
G1 X2.972 Y-30.968 E416.4604
G1 X4.386 Y-30.968 E416.53095
G1 X33.354 Y-2 E418.57479
G1 X33.346 Y-2.072 E418.57841
G1 X33.321 Y-2.24 E418.58688
G1 X33.155 Y-3.131 E418.6321
G1 X32.986 Y-3.783 E418.6657
G1 X5.801 Y-30.968 E420.58375
G1 X7.215 Y-30.968 E420.6543
G1 X32.208 Y-5.975 E422.41769
G1 X32.145 Y-6.123 E422.42571
G1 X32.058 Y-6.308 E422.43591
G1 X31.647 Y-7.104 E422.4806
G1 X31.361 Y-7.619 E422.50999
G1 X30.518 Y-9.079 E422.5941
G1 X8.629 Y-30.968 E424.13849
G1 X9.451 Y-30.968 E424.1795
G1 X10.069 Y-30.942 E424.21036
G1 X28.584 Y-12.427 E425.51669
G1 X26.65 Y-15.775 E425.70959
G1 X11.624 Y-30.801 E426.76976
G1 X11.667 Y-30.795 E426.77192
G1 X12.556 Y-30.632 E426.81702
G1 X12.679 Y-30.604 E426.82331
G1 X13.434 Y-30.406 E426.86225
G1 X24.716 Y-19.123 E427.65829
G1 X22.782 Y-22.471 E427.85119
G1 X15.691 Y-29.563 E428.35153
G1 X15.735 Y-29.542 E428.35397
G1 X16.647 Y-29.068 E428.40524
G1 X17.426 Y-28.593 E428.45076
G1 X17.577 Y-28.493 E428.4598
G1 X18.29 Y-27.982 E428.50356
G1 X18.439 Y-27.869 E428.51289
G1 X19.13 Y-27.292 E428.5578
G1 X19.243 Y-27.192 E428.56533
G1 X19.892 Y-26.567 E428.61028
G1 X20.011 Y-26.442 E428.61889
G1 X20.614 Y-25.771 E428.6639
G1 X20.711 Y-25.653 E428.67152
G1 X21.261 Y-24.941 E428.71641
G1 X21.382 Y-24.769 E428.7269
G1 X22.115 Y-23.627 E428.7946
G0 F7200 X-22.132 Y23.603
G1 F1350 X-21.382 Y24.771 E428.86385
G1 X-21.247 Y24.961 E428.87548
G1 X-20.739 Y25.621 E428.91703
G1 X-20.607 Y25.78 E428.92734
G1 X-20.025 Y26.43 E428.97087
G1 X-19.898 Y26.562 E428.98001
G1 X-19.244 Y27.192 E429.02531
G1 X-19.127 Y27.296 E429.03312
G1 X-18.42 Y27.884 E429.079
G1 X-18.319 Y27.963 E429.0854
G1 X-17.586 Y28.487 E429.13035
G1 X-17.415 Y28.6 E429.14058
G1 X-16.662 Y29.061 E429.18463
G1 X-16.53 Y29.134 E429.19215
G1 X-15.733 Y29.542 E429.23682
G1 X-15.692 Y29.562 E429.2391
G1 X-22.789 Y22.465 E429.73983
G1 X-24.721 Y19.119 E429.93259
G1 X-13.438 Y30.402 E430.72867
G1 X-12.681 Y30.604 E430.76776
G1 X-12.558 Y30.632 E430.77405
G1 X-11.67 Y30.795 E430.81909
G1 X-11.624 Y30.802 E430.82141
G1 X-26.652 Y15.773 E431.88175
G1 X-28.584 Y12.427 E432.07452
G1 X-10.069 Y30.942 E433.38085
G1 X-9.454 Y30.968 E433.41156
G1 X-8.629 Y30.968 E433.45272
G1 X-30.516 Y9.081 E434.99697
G1 X-31.559 Y7.274 E435.10106
G1 X-32.001 Y6.441 E435.1481
G0 F600 X-32.001 Y6.441 Z0.61
G0 F7200 X-12.708 Y30.8
;TIME_ELAPSED:254.352783
;LAYER:-7
;TYPE:SUPPORT-INTERFACE
G1 F1800 X12.693 Y30.8 E435.57052
G1 X12.632 Y30.816 E435.57157
G1 X11.574 Y31.011 E435.58946
G1 X10.478 Y31.131 E435.6078
G1 X9.473 Y31.169 E435.62452
G1 X-9.111 Y31.17 E435.93358
G1 X-10.463 Y31.133 E435.95607
G1 X-11.516 Y31.021 E435.97368
G1 X-12.598 Y30.828 E435.99196
G0 F7200 X12.693 Y30.8
G1 F1800 X13.673 Y30.546 E436.00879
G1 X14.102 Y30.4 E436.01633
G1 X-14.122 Y30.4 E436.4857
G1 X-14.65 Y30.223 E436.49496
G1 X-15.184 Y30 E436.50458
G1 X15.164 Y30 E437.00927
G1 X15.675 Y29.784 E437.0185
G1 X16.034 Y29.6 E437.0252
G1 X-16.055 Y29.6 E437.55885
G1 X-16.615 Y29.317 E437.56928
G1 X-16.81 Y29.2 E437.57306
G1 X16.793 Y29.2 E438.13188
G1 X17.449 Y28.8 E438.14466
G1 X-17.473 Y28.8 E438.72542
G1 X-17.532 Y28.764 E438.72657
G1 X-18.048 Y28.4 E438.73707
G1 X18.028 Y28.4 E439.33701
G1 X18.454 Y28.097 E439.34571
G1 X18.571 Y28 E439.34823
G1 X-18.59 Y28 E439.96622
G1 X-19.075 Y27.6 E439.97668
G1 X19.054 Y27.6 E440.61077
G1 X19.273 Y27.419 E440.61549
G1 X19.501 Y27.2 E440.62075
G1 X-19.52 Y27.2 E441.26967
G1 X-19.941 Y26.8 E441.27933
G1 X19.918 Y26.8 E441.94219
G1 X20.054 Y26.67 E441.94532
G1 X20.295 Y26.4 E441.95133
G1 X-20.317 Y26.4 E442.62671
G1 X-20.679 Y26 E442.63569
G1 X20.653 Y26 E443.32304
G1 X20.846 Y25.785 E443.32784
G1 X20.984 Y25.6 E443.33168
G1 X-21.004 Y25.6 E444.02995
G1 X-21.317 Y25.2 E444.03839
G1 X21.284 Y25.2 E444.74685
G1 X21.584 Y24.8 E444.75516
G1 X-21.595 Y24.8 E445.47323
