;FLAVOR:Marlin
;TIME:2555
;Filament used: 0.973204m
;Layer height: 0.1
;MINX:-24.245
;MINY:-22.984
;MINZ:0.36
;MAXX:24.245
;MAXY:22.985
;MAXZ:33.46
;Generated with Cura_SteamEngine 4.6.2
M140 S70
M105
M190 S70
M104 S205
M105
M109 S205
M82 ;absolute extrusion mode
G28 ;Home
G1 Z15.0 F6000 ;Move the platform down 15mm
;Prime the extruder
G92 E0
G1 F200 E3
G92 E0
G92 E0
G92 E0
G1 F1500 E-6.5
;LAYER_COUNT:318
;LAYER:-9
M107
G0 F7200 X3.945 Y22.785 Z0.36
;TYPE:SUPPORT-INTERFACE
G1 F1500 E0
G1 F1350 X-4.728 Y22.784 E1.03847
G1 X-5.852 Y22.739 E1.17317
G1 X-6.769 Y22.637 E1.28364
G1 X-6.944 Y22.612 E1.30481
G1 X-7.833 Y22.448 E1.41305
G1 X-7.956 Y22.42 E1.42815
G1 X-8.85 Y22.186 E1.53881
G1 X-9.013 Y22.137 E1.55918
G1 X-9.855 Y21.85 E1.6657
G1 X-10.021 Y21.787 E1.68696
G1 X-10.824 Y21.446 E1.79142
G1 X-11.013 Y21.358 E1.81638
G1 X-11.924 Y20.884 E1.93934
G1 X-12.703 Y20.409 E2.04859
G1 X-12.854 Y20.309 E2.07027
G1 X-13.568 Y19.798 E2.17541
G1 X-13.716 Y19.685 E2.1977
G1 X-14.407 Y19.109 E2.30541
G1 X-14.52 Y19.008 E2.32356
G1 X-15.169 Y18.383 E2.43145
G1 X-15.289 Y18.258 E2.45219
G1 X-15.892 Y17.587 E2.56021
G1 X-15.989 Y17.469 E2.5785
G1 X-16.536 Y16.76 E2.68572
G1 X-16.647 Y16.604 E2.70865
G1 X-17.397 Y15.435 E2.87495
G1 X-22.115 Y7.261 E4.00501
G1 X-22.547 Y6.448 E4.11525
G1 X-22.629 Y6.277 E4.13795
G1 X-22.979 Y5.483 E4.24185
G1 X-23.052 Y5.299 E4.26555
G1 X-23.339 Y4.493 E4.368
G1 X-23.406 Y4.279 E4.39485
G1 X-23.674 Y3.282 E4.51846
G1 X-23.851 Y2.387 E4.6277
G1 X-23.876 Y2.231 E4.64662
G1 X-24 Y1.196 E4.77143
G1 X-24.048 Y0.111 E4.90147
G1 X-24.026 Y-.799 E5.01047
G1 X-24.015 Y-.979 E5.03206
G1 X-23.93 Y-1.853 E5.1372
G1 X-23.908 Y-2.019 E5.15725
G1 X-23.758 Y-2.893 E5.26343
G1 X-23.72 Y-3.077 E5.28593
G1 X-23.508 Y-3.936 E5.39187
G1 X-23.463 Y-4.093 E5.41142
G1 X-23.182 Y-4.955 E5.51998
G1 X-23.125 Y-5.108 E5.53953
G1 X-22.795 Y-5.916 E5.64404
G1 X-22.708 Y-6.104 E5.66884
G1 X-22.044 Y-7.388 E5.84192
G1 X-17.315 Y-15.574 E6.97389
G1 X-16.835 Y-16.335 E7.08162
G1 X-16.726 Y-16.494 E7.1047
G1 X-16.202 Y-17.204 E7.21036
G1 X-16.086 Y-17.349 E7.23259
G1 X-15.51 Y-18.02 E7.33848
G1 X-15.385 Y-18.155 E7.36051
G1 X-14.649 Y-18.891 E7.48513
G1 X-13.963 Y-19.487 E7.59394
G1 X-13.829 Y-19.595 E7.61455
G1 X-13.1 Y-20.14 E7.72354
G1 X-12.973 Y-20.227 E7.74197
G1 X-12.23 Y-20.704 E7.84769
G1 X-12.061 Y-20.804 E7.8712
G1 X-11.284 Y-21.225 E7.97701
G1 X-11.126 Y-21.303 E7.99811
G1 X-10.172 Y-21.728 E8.12316
G1 X-9.301 Y-22.046 E8.23419
G1 X-9.164 Y-22.09 E8.25142
G1 X-8.142 Y-22.376 E8.37849
G1 X-7.252 Y-22.56 E8.48731
G1 X-7.087 Y-22.589 E8.50737
G1 X-6.21 Y-22.705 E8.61329
G1 X-6.005 Y-22.722 E8.63792
G1 X-4.665 Y-22.784 E8.79854
G1 X4.446 Y-22.782 E9.88946
G1 X5.29 Y-22.757 E9.99056
G1 X5.66 Y-22.732 E10.03496
G1 X6.58 Y-22.644 E10.14562
G1 X6.738 Y-22.623 E10.16471
G1 X7.623 Y-22.472 E10.27221
G1 X7.796 Y-22.436 E10.29337
G1 X8.657 Y-22.224 E10.39954
G1 X8.833 Y-22.174 E10.42145
G1 X9.69 Y-21.895 E10.52936
G1 X9.836 Y-21.842 E10.54796
G1 X10.654 Y-21.508 E10.65375
G1 X10.83 Y-21.428 E10.6769
G1 X11.636 Y-21.028 E10.78464
G1 X11.769 Y-20.955 E10.80281
G1 X12.566 Y-20.485 E10.91359
G1 X12.687 Y-20.407 E10.93083
G1 X13.405 Y-19.908 E11.03553
G1 X13.578 Y-19.778 E11.06144
G1 X14.256 Y-19.231 E11.16574
G1 X14.372 Y-19.13 E11.18416
G1 X15.04 Y-18.504 E11.29378
G1 X15.165 Y-18.378 E11.31503
G1 X15.767 Y-17.725 E11.42137
G1 X15.874 Y-17.601 E11.44098
G1 X16.43 Y-16.901 E11.54802
G1 X16.538 Y-16.755 E11.56977
G1 X17.12 Y-15.897 E11.6939
G1 X17.402 Y-15.427 E11.75953
G1 X22.121 Y-7.251 E12.88986
G1 X22.549 Y-6.445 E12.99913
G1 X22.631 Y-6.274 E13.02184
G1 X22.988 Y-5.46 E13.12827
G1 X23.048 Y-5.31 E13.14761
G1 X23.349 Y-4.464 E13.25513
G1 X23.399 Y-4.303 E13.27531
G1 X23.639 Y-3.431 E13.38361
G1 X23.679 Y-3.264 E13.40417
G1 X23.875 Y-2.243 E13.52865
G1 X23.985 Y-1.347 E13.63674
G1 X24.001 Y-1.16 E13.65921
G1 X24.045 Y-.268 E13.76615
G1 X24.047 Y-0.086 E13.78794
G1 X24.026 Y0.788 E13.89262
G1 X24.016 Y0.965 E13.91385
G1 X23.928 Y1.864 E14.022
G1 X23.905 Y2.034 E14.04255
G1 X23.756 Y2.903 E14.14811
G1 X23.719 Y3.083 E14.17012
G1 X23.462 Y4.097 E14.29537
G1 X23.182 Y4.951 E14.40298
G1 X23.112 Y5.139 E14.427
G1 X22.79 Y5.927 E14.52893
G1 X22.708 Y6.107 E14.55261
G1 X22.058 Y7.365 E14.72216
G1 X17.375 Y15.473 E15.84328
G1 X16.868 Y16.283 E15.9577
G1 X16.757 Y16.444 E15.98111
G1 X16.231 Y17.161 E16.08759
G1 X16.122 Y17.299 E16.10864
G1 X15.547 Y17.973 E16.21472
G1 X15.431 Y18.098 E16.23514
G1 X14.791 Y18.746 E16.3442
G1 X14.689 Y18.842 E16.36097
G1 X13.878 Y19.545 E16.48948
G1 X13.168 Y20.08 E16.59592
G1 X13.005 Y20.193 E16.61967
G1 X12.269 Y20.668 E16.72456
G1 X12.109 Y20.762 E16.74678
G1 X11.344 Y21.18 E16.85116
G1 X11.158 Y21.273 E16.87606
G1 X10.369 Y21.631 E16.9798
G1 X10.2 Y21.701 E17.0017
G1 X9.381 Y22.003 E17.10622
G1 X9.184 Y22.068 E17.13106
G1 X8.353 Y22.307 E17.23459
G1 X8.161 Y22.355 E17.25829
G1 X7.316 Y22.532 E17.36166
G1 X7.127 Y22.565 E17.38464
G1 X6.239 Y22.685 E17.49193
G1 X6.082 Y22.701 E17.51082
G1 X5.053 Y22.761 E17.63424
G1 X3.945 Y22.785 E17.76694
G0 F7200 X3.2 Y22.784
G1 F1350 X3.2 Y-22.782 E23.22285
G0 F7200 X1.6 Y-22.782
G1 F1350 X1.6 Y22.784 E28.67877
G0 F7200 X0.00 Y22.784
G1 F1350 X0.00 Y-22.782 E34.13468
G0 F7200 X-1.6 Y-22.783
G1 F1350 X-1.6 Y22.784 E39.59071
G0 F7200 X-3.2 Y22.784
G1 F1350 X-3.2 Y-22.783 E45.04675
G0 F7200 X-4.8 Y-22.778
G1 F1350 X-4.8 Y22.781 E50.50182
G0 F7200 X-6.4 Y22.678
G1 F1350 X-6.4 Y-22.68 E55.93283
G0 F7200 X-8 Y-22.406
G1 F1350 X-8 Y22.408 E61.2987
G0 F7200 X-9.6 Y21.936
G1 F1350 X-9.6 Y-21.937 E66.5519
G0 F7200 X-11.2 Y-21.267
G1 F1350 X-11.2 Y21.26 E71.64393
G0 F7200 X-12.8 Y20.344
G1 F1350 X-12.8 Y-20.339 E76.51517
G0 F7200 X-14.4 Y-19.108
G1 F1350 X-14.4 Y19.114 E81.09174
G0 F7200 X-16 Y17.454
G1 F1350 X-16 Y-17.45 E85.27102
G0 F7200 X-17.6 Y-15.081
G1 F1350 X-17.6 Y15.083 E88.88275
G0 F7200 X-19.2 Y12.311
G1 F1350 X-19.2 Y-12.312 E91.83102
G0 F7200 X-20.8 Y-9.542
G1 F1350 X-20.8 Y9.539 E94.11572
G0 F7200 X-22.4 Y6.724
G1 F1350 X-22.4 Y-6.7 E95.72306
G0 F7200 X-24 Y-1.134
G1 F1350 X-24 Y1.196 E96.00204
G0 F7200 X4.8 Y22.767
G1 F1350 X4.8 Y-22.771 E101.4546
G0 F7200 X6.4 Y-22.661
G1 F1350 X6.4 Y22.664 E106.88166
G0 F7200 X8 Y22.389
G1 F1350 X8 Y-22.385 E112.24274
G0 F7200 X9.6 Y-21.924
G1 F1350 X9.6 Y21.923 E117.49283
G0 F7200 X11.2 Y21.252
G1 F1350 X11.2 Y-21.244 E122.58115
G0 F7200 X12.8 Y-20.328
G1 F1350 X12.8 Y20.326 E127.44892
G0 F7200 X14.4 Y19.093
G1 F1350 X14.4 Y-19.103 E132.02237
G0 F7200 X16 Y-17.442
G1 F1350 X16 Y17.443 E136.19938
G0 F7200 X17.6 Y15.084
G1 F1350 X17.6 Y-15.083 E139.81147
G0 F7200 X19.2 Y-12.311
G1 F1350 X19.2 Y12.314 E142.75998
G0 F7200 X20.8 Y9.544
G1 F1350 X20.8 Y-9.539 E145.04491
G0 F7200 X22.4 Y-6.725
G1 F1350 X22.4 Y6.704 E146.65285
G0 F7200 X24 Y1.129
G1 F1350 X24 Y-1.171 E146.92825
G0 F600 X24 Y-1.171 Z0.51
G0 F7200 X17.812 Y-14.714
;TIME_ELAPSED:58.664122
;LAYER:-8
M140 S70
;TYPE:SUPPORT
G1 F1350 X11.366 Y-21.16 E147.38305
G1 X11.635 Y-21.027 E147.39802
G1 X11.769 Y-20.954 E147.40563
G1 X12.565 Y-20.484 E147.45175
G1 X12.686 Y-20.405 E147.45896
G1 X13.404 Y-19.907 E147.50255
G1 X13.577 Y-19.777 E147.51335
G1 X14.255 Y-19.229 E147.55684
G1 X14.371 Y-19.129 E147.56448
G1 X15.04 Y-18.503 E147.61019
G1 X15.165 Y-18.376 E147.61908
G1 X15.767 Y-17.724 E147.66336
G1 X15.873 Y-17.6 E147.67149
G1 X16.429 Y-16.9 E147.71609
G1 X16.537 Y-16.754 E147.72515
G1 X17.119 Y-15.897 E147.77684
G1 X17.401 Y-15.426 E147.80423
G0 F7200 X11.366 Y-21.16
G1 F1350 X10.83 Y-21.426 E147.83408
G1 X10.653 Y-21.506 E147.84377
G1 X9.835 Y-21.841 E147.88787
G1 X9.689 Y-21.894 E147.89562
G1 X8.99 Y-22.121 E147.93228
G1 X19.743 Y-11.368 E148.69097
G1 X21.674 Y-8.023 E148.88366
G1 X7.146 Y-22.552 E149.90872
G1 X6.738 Y-22.622 E149.92938
G1 X6.58 Y-22.642 E149.93732
G1 X5.66 Y-22.731 E149.98344
G1 X5.545 Y-22.739 E149.98919
G1 X23.088 Y-5.195 E151.22698
G1 X23.347 Y-4.463 E151.26571
G1 X23.398 Y-4.303 E151.27409
G1 X23.638 Y-3.43 E151.31926
G1 X23.678 Y-3.264 E151.32778
G1 X23.695 Y-3.174 E151.33235
G1 X4.088 Y-22.781 E152.71573
G1 X2.674 Y-22.781 E152.78627
G1 X23.967 Y-1.488 E154.28861
G1 X23.984 Y-1.347 E154.2957
G1 X24 Y-1.159 E154.30511
G1 X24.043 Y-.267 E154.34966
G1 X24.045 Y-0.086 E154.35869
G1 X24.044 Y0.002 E154.36308
G1 X1.259 Y-22.782 E155.97065
G1 X-.154 Y-22.782 E156.04115
G1 X23.977 Y1.35 E157.74376
G1 X23.927 Y1.863 E157.76947
G1 X23.904 Y2.033 E157.77803
G1 X23.808 Y2.595 E157.80647
G1 X-1.569 Y-22.782 E159.59696
G1 X-2.983 Y-22.782 E159.6675
G1 X23.549 Y3.75 E161.53948
G1 X23.461 Y4.096 E161.55729
G1 X23.219 Y4.835 E161.59609
G1 X-4.398 Y-22.782 E163.54462
G1 X-4.664 Y-22.783 E163.55789
G1 X-5.761 Y-22.732 E163.61267
G1 X22.82 Y5.849 E165.62922
G1 X22.788 Y5.926 E165.63338
G1 X22.707 Y6.107 E165.64327
G1 X22.352 Y6.796 E165.68194
G1 X-7.038 Y-22.594 E167.75556
G1 X-7.087 Y-22.588 E167.75803
G1 X-7.252 Y-22.559 E167.76638
G1 X-8.142 Y-22.374 E167.81174
G1 X-8.213 Y-22.355 E167.8154
G1 X21.856 Y7.714 E169.93693
G1 X21.338 Y8.61 E169.98857
G1 X-9.312 Y-22.04 E172.15109
G1 X-10.171 Y-21.727 E172.1967
G1 X-10.338 Y-21.652 E172.20584
G1 X20.82 Y9.507 E174.40424
G1 X20.303 Y10.403 E174.45585
G1 X-11.31 Y-21.209 E176.68628
G1 X-12.061 Y-20.803 E176.72887
G1 X-12.221 Y-20.706 E176.73821
G1 X19.785 Y11.3 E178.9964
G1 X19.267 Y12.196 E179.04804
G1 X-13.08 Y-20.151 E181.33029
G1 X-13.099 Y-20.139 E181.33141
G1 X-13.828 Y-19.594 E181.37682
G1 X-13.888 Y-19.545 E181.38069
G1 X18.749 Y13.092 E183.6834
G1 X18.232 Y13.989 E183.73506
G1 X-14.647 Y-18.89 E186.05485
G0 F7200 X-14.649 Y-18.89
G1 F1350 X-15.355 Y-18.183 E186.1047
G1 X17.714 Y14.886 E188.43789
G1 X17.374 Y15.473 E188.47174
G1 X17.187 Y15.773 E188.48937
G1 X-16.016 Y-17.43 E190.83202
G1 X-16.085 Y-17.348 E190.83737
G1 X-16.201 Y-17.203 E190.84663
G1 X-16.627 Y-16.627 E190.88238
G1 X16.624 Y16.624 E193.22841
G1 X16.23 Y17.16 E193.2616
G1 X16.122 Y17.298 E193.27034
G1 X16.013 Y17.427 E193.27877
G1 X-17.189 Y-15.774 E195.62132
G1 X-17.314 Y-15.574 E195.63308
G1 X-17.713 Y-14.885 E195.6728
G1 X15.35 Y18.179 E198.00561
G1 X14.791 Y18.745 E198.0453
G1 X14.688 Y18.84 E198.05229
G1 X14.639 Y18.882 E198.05551
G1 X-18.231 Y-13.988 E200.37467
G1 X-18.748 Y-13.092 E200.42628
G1 X13.882 Y19.539 E202.72853
G1 X13.877 Y19.544 E202.72889
G1 X13.167 Y20.079 E202.77324
G1 X13.072 Y20.144 E202.77898
G1 X-19.266 Y-12.195 E205.06064
G1 X-19.784 Y-11.299 E205.11227
G1 X12.213 Y20.699 E207.36987
G1 X12.109 Y20.761 E207.37591
G1 X11.343 Y21.179 E207.41945
G1 X11.3 Y21.2 E207.42183
G1 X-20.302 Y-10.402 E209.65153
G1 X-20.82 Y-9.506 E209.70316
G1 X10.331 Y21.645 E211.90103
G1 X10.2 Y21.7 E211.90812
G1 X9.38 Y22.002 E211.95172
G1 X9.3 Y22.028 E211.95591
G1 X-21.337 Y-8.609 E214.11752
G1 X-21.855 Y-7.713 E214.16915
G1 X8.201 Y22.343 E216.28977
G1 X8.161 Y22.354 E216.29183
G1 X7.315 Y22.531 E216.33496
G1 X7.126 Y22.564 E216.34453
G1 X7.022 Y22.578 E216.34976
G1 X-22.35 Y-6.794 E218.42212
G1 X-22.707 Y-6.104 E218.46088
G1 X-22.794 Y-5.915 E218.47126
G1 X-22.821 Y-5.85 E218.47477
G1 X5.748 Y22.719 E220.49046
G1 X5.052 Y22.76 E220.52525
G1 X4.389 Y22.773 E220.55833
G1 X-23.22 Y-4.835 E222.50626
G1 X-23.462 Y-4.093 E222.5452
G1 X-23.507 Y-3.935 E222.55339
G1 X-23.552 Y-3.753 E222.56275
G1 X2.983 Y22.782 E224.43494
G1 X1.569 Y22.782 E224.50548
G1 X-23.808 Y-2.595 E226.29596
G1 X-23.907 Y-2.019 E226.32512
G1 X-23.929 Y-1.853 E226.33348
G1 X-23.978 Y-1.351 E226.35864
G1 X0.155 Y22.782 E228.06135
G1 X-1.258 Y22.782 E228.13185
G1 X-24.045 Y-0.003 E229.73952
G1 X-24.047 Y0.11 E229.74516
G1 X-23.999 Y1.196 E229.7994
G1 X-23.963 Y1.491 E229.81422
G1 X-2.672 Y22.782 E231.31642
G1 X-4.087 Y22.782 E231.38701
G1 X-23.694 Y3.175 E232.77039
G1 X-23.673 Y3.281 E232.77578
G1 X-23.405 Y4.279 E232.82734
G1 X-23.338 Y4.492 E232.83848
G1 X-23.088 Y5.195 E232.8757
G1 X-5.533 Y22.75 E234.1143
G1 X-5.852 Y22.737 E234.13023
G1 X-6.769 Y22.636 E234.17626
G1 X-6.944 Y22.611 E234.18508
G1 X-7.119 Y22.578 E234.19396
G1 X-21.672 Y8.026 E235.22072
G1 X-19.741 Y11.37 E235.41337
G1 X-8.961 Y22.151 E236.17399
G1 X-9.012 Y22.136 E236.17664
G1 X-9.854 Y21.848 E236.22104
G1 X-10.021 Y21.785 E236.22995
G1 X-10.824 Y21.445 E236.27345
G1 X-11.012 Y21.357 E236.28381
G1 X-11.34 Y21.186 E236.30226
G1 X-17.811 Y14.715 E236.75882
G0 F7200 X-17.396 Y15.434
G1 F1350 X-16.646 Y16.604 E236.82816
G1 X-16.535 Y16.759 E236.83767
G1 X-15.989 Y17.468 E236.88232
G1 X-15.892 Y17.586 E236.88994
G1 X-15.289 Y18.257 E236.93494
G1 X-15.168 Y18.381 E236.94359
G1 X-14.519 Y19.007 E236.98857
G1 X-14.407 Y19.108 E236.9961
G1 X-13.716 Y19.684 E237.04098
G1 X-13.567 Y19.797 E237.05031
G1 X-12.853 Y20.308 E237.09411
G1 X-12.703 Y20.407 E237.10308
G1 X-11.923 Y20.882 E237.14864
G1 X-11.34 Y21.186 E237.18145
G0 F600 X-11.34 Y21.186 Z0.61
G0 F7200 X-6.992 Y22.8
;TIME_ELAPSED:139.372772
;LAYER:-7
;TYPE:SUPPORT-INTERFACE
G1 F1800 X6.85 Y22.8 E237.41164
G1 X6.26 Y22.884 E237.42155
G1 X5.138 Y22.958 E237.44025
G1 X4.326 Y22.98 E237.45376
G1 X-4.698 Y22.985 E237.60383
G1 X-5.738 Y22.948 E237.62113
G1 X-6.79 Y22.836 E237.63873
G0 F7200 X6.85 Y22.8
G1 F1800 X7.342 Y22.73 E237.64699
G1 X8.4 Y22.501 E237.66499
G1 X8.742 Y22.4 E237.67092
G1 X-8.823 Y22.4 E237.96303
G1 X-8.897 Y22.381 E237.9643
G1 X-9.911 Y22.042 E237.98208
G1 X-10.013 Y22 E237.98392
G1 X9.955 Y22 E238.31599
G1 X10.444 Y21.816 E238.32467
G1 X10.911 Y21.6 E238.33323
G1 X-10.964 Y21.6 E238.69701
G1 X-11.753 Y21.2 E238.71172
G1 X11.719 Y21.2 E239.10207
G1 X12.363 Y20.845 E239.11429
G1 X12.431 Y20.8 E239.11565
G1 X-12.441 Y20.8 E239.52927
G1 X-12.799 Y20.584 E239.53623
G1 X-13.06 Y20.4 E239.54154
G1 X13.043 Y20.4 E239.97563
G1 X13.275 Y20.249 E239.98024
G1 X13.601 Y20 E239.98706
G1 X-13.628 Y20 E240.43988
G1 X-13.694 Y19.953 E240.44123
G1 X-14.124 Y19.6 E240.45048
G1 X14.125 Y19.6 E240.92026
G1 X14.577 Y19.2 E240.9303
G1 X-14.601 Y19.2 E241.41553
G1 X-15.021 Y18.8 E241.42517
G1 X15.017 Y18.8 E241.92471
G1 X15.407 Y18.4 E241.934
G1 X-15.424 Y18.4 E242.44672
G1 X-15.787 Y18 E242.4557
G1 X15.784 Y18 E242.98073
G1 X16.121 Y17.6 E242.98943
G1 X-16.134 Y17.6 E243.52583
G1 X-16.447 Y17.2 E243.53428
G1 X16.45 Y17.2 E244.08136
G1 X16.74 Y16.8 E244.08957
G1 X-16.751 Y16.8 E244.64653
G1 X-17.012 Y16.4 E244.65448
G1 X17.029 Y16.4 E245.22058
G1 X17.279 Y16 E245.22842
G1 X-17.272 Y15.999 E245.80301
G1 X-17.524 Y15.612 E245.81069
G1 X-17.532 Y15.599 E245.81094
G1 X17.528 Y15.6 E246.39399
G1 X17.572 Y15.53 E246.39537
G1 X17.762 Y15.2 E246.4017
G1 X-17.763 Y15.199 E246.99248
G1 X-17.994 Y14.799 E247.00017
G1 X17.993 Y14.8 E247.59863
G1 X18.224 Y14.4 E247.60631
G1 X-18.225 Y14.399 E248.21246
G1 X-18.456 Y13.999 E248.22014
G1 X18.454 Y14 E248.83396
G1 X18.685 Y13.6 E248.84164
G1 X-18.687 Y13.599 E249.46314
G1 X-18.918 Y13.199 E249.47082
G1 X18.916 Y13.2 E250.1
G1 X19.147 Y12.8 E250.10769
G1 X-19.149 Y12.799 E250.74455
G1 X-19.38 Y12.399 E250.75223
G1 X19.378 Y12.4 E251.39678
G1 X19.608 Y12 E251.40445
G1 X-19.612 Y11.999 E252.05669
G1 X-19.843 Y11.599 E252.06437
G1 X19.839 Y11.6 E252.72428
G1 X20.07 Y11.2 E252.73196
G1 X-20.074 Y11.199 E253.39956
G1 X-20.305 Y10.799 E253.40724
G1 X20.301 Y10.8 E254.08252
G1 X20.532 Y10.4 E254.0902
G1 X-20.536 Y10.399 E254.77317
G1 X-20.767 Y9.999 E254.78085
G1 X20.763 Y10 E255.4715
G1 X20.993 Y9.6 E255.47917
G1 X-20.998 Y9.599 E256.17748
G1 X-21.229 Y9.199 E256.18516
G1 X21.224 Y9.2 E256.89116
G1 X21.455 Y8.8 E256.89884
G1 X-21.46 Y8.799 E257.61252
G1 X-21.691 Y8.399 E257.6202
G1 X21.686 Y8.4 E258.34157
G1 X21.917 Y8 E258.34925
G1 X-21.922 Y7.999 E259.07829
G1 X-22.153 Y7.599 E259.08597
G1 X22.147 Y7.6 E259.82269
G1 X22.306 Y7.326 E259.82795
G1 X22.369 Y7.2 E259.8303
G1 X-22.372 Y7.199 E260.57434
G1 X-22.585 Y6.799 E260.58188
G1 X22.571 Y6.8 E261.33283
G1 X22.774 Y6.4 E261.34029
G1 X-22.787 Y6.399 E262.09797
G1 X-22.967 Y5.999 E262.10526
G1 X22.975 Y6 E262.86928
G1 X23.136 Y5.6 E262.87645
G1 X-23.146 Y5.599 E263.64612
G1 X-23.168 Y5.549 E263.64703
G1 X-23.296 Y5.199 E263.65323
G1 X23.297 Y5.2 E264.42808
G1 X23.37 Y5.02 E264.43131
G1 X23.44 Y4.8 E264.43515
G1 X-23.441 Y4.799 E265.21478
G1 X-23.53 Y4.552 E265.21915
