;FLAVOR:Marlin
;TIME:7799
;Filament used: 3.9888m
;Layer height: 0.1
;MINX:-33.696
;MINY:-31.168
;MINZ:0.36
;MAXX:33.697
;MAXY:31.171
;MAXZ:64.96
;Generated with Cura_SteamEngine 4.6.2
M140 S70
M105
M190 S70
M104 S205
M105
M109 S205
M82 ;absolute extrusion mode
G28 ;Home
G1 Z15.0 F6000 ;Move the platform down 15mm
;Prime the extruder
G92 E0
G1 F200 E3
G92 E0
G92 E0
G92 E0
G1 F1500 E-6.5
;LAYER_COUNT:638
;LAYER:-9
M107
G0 F7200 X8.751 Y30.971 Z0.36
;TYPE:SUPPORT-INTERFACE
G1 F1500 E0
G1 F1350 X-9.454 Y30.97 E2.1798
G1 X-10.578 Y30.925 E2.31449
G1 X-11.495 Y30.823 E2.42497
G1 X-11.67 Y30.798 E2.44614
G1 X-12.559 Y30.634 E2.55438
G1 X-12.682 Y30.606 E2.56948
G1 X-13.576 Y30.372 E2.68013
G1 X-13.739 Y30.323 E2.70051
G1 X-14.581 Y30.036 E2.80703
G1 X-14.747 Y29.973 E2.82829
G1 X-15.55 Y29.632 E2.93275
G1 X-15.739 Y29.544 E2.95771
G1 X-16.65 Y29.07 E3.08067
G1 X-17.429 Y28.595 E3.18992
G1 X-17.58 Y28.495 E3.2116
G1 X-18.294 Y27.984 E3.31673
G1 X-18.442 Y27.871 E3.33903
G1 X-19.133 Y27.295 E3.44674
G1 X-19.246 Y27.194 E3.46489
G1 X-19.895 Y26.569 E3.57277
G1 X-20.015 Y26.444 E3.59352
G1 X-20.618 Y25.773 E3.70154
G1 X-20.715 Y25.655 E3.71983
G1 X-21.262 Y24.946 E3.82705
G1 X-21.373 Y24.79 E3.84998
G1 X-22.123 Y23.621 E4.01628
G1 X-31.544 Y7.303 E6.27239
G1 X-31.988 Y6.471 E6.38531
G1 X-32.061 Y6.321 E6.40528
G1 X-32.483 Y5.355 E6.5315
G1 X-32.84 Y4.342 E6.66011
G1 X-33.082 Y3.469 E6.76858
G1 X-33.123 Y3.297 E6.78975
G1 X-33.296 Y2.429 E6.89573
G1 X-33.324 Y2.258 E6.91648
G1 X-33.436 Y1.37 E7.02364
G1 X-33.451 Y1.196 E7.04456
G1 X-33.496 Y0.311 E7.15066
G1 X-33.499 Y0.153 E7.16958
G1 X-33.48 Y-.764 E7.2794
G1 X-33.47 Y-.934 E7.29979
G1 X-33.384 Y-1.837 E7.4084
G1 X-33.365 Y-1.982 E7.42591
G1 X-33.184 Y-3.023 E7.55243
G1 X-32.968 Y-3.905 E7.66116
G1 X-32.922 Y-4.064 E7.68098
G1 X-32.651 Y-4.905 E7.78678
G1 X-32.581 Y-5.097 E7.81124
G1 X-32.256 Y-5.897 E7.91464
G1 X-32.178 Y-6.067 E7.93703
G1 X-31.518 Y-7.351 E8.1099
G1 X-22.087 Y-23.685 E10.36826
G1 X-21.571 Y-24.506 E10.48437
G1 X-21.481 Y-24.637 E10.5034
G1 X-20.954 Y-25.357 E10.61024
G1 X-20.85 Y-25.489 E10.63036
G1 X-20.258 Y-26.184 E10.73967
G1 X-20.141 Y-26.311 E10.76035
G1 X-19.519 Y-26.94 E10.86627
G1 X-19.406 Y-27.046 E10.88482
G1 X-18.698 Y-27.666 E10.9975
G1 X-18.595 Y-27.749 E11.01334
G1 X-17.885 Y-28.284 E11.11979
G1 X-17.722 Y-28.397 E11.14354
G1 X-16.98 Y-28.875 E11.24922
G1 X-16.835 Y-28.961 E11.26941
G1 X-16.048 Y-29.391 E11.37679
G1 X-15.889 Y-29.471 E11.3981
G1 X-15.085 Y-29.836 E11.50382
G1 X-14.916 Y-29.905 E11.52568
G1 X-14.08 Y-30.214 E11.6324
G1 X-13.921 Y-30.266 E11.65243
G1 X-13.058 Y-30.515 E11.75998
G1 X-12.882 Y-30.558 E11.78167
G1 X-12.041 Y-30.736 E11.8846
G1 X-11.825 Y-30.773 E11.91084
G1 X-10.995 Y-30.884 E12.01111
G1 X-10.786 Y-30.904 E12.03625
G1 X-9.358 Y-30.97 E12.20741
G1 X9.454 Y-30.967 E14.45989
G1 X10.577 Y-30.922 E14.59447
G1 X11.495 Y-30.82 E14.70506
G1 X11.67 Y-30.795 E14.72623
G1 X12.547 Y-30.633 E14.83301
G1 X12.702 Y-30.598 E14.85204
G1 X13.56 Y-30.374 E14.95822
G1 X13.728 Y-30.323 E14.97924
G1 X14.58 Y-30.032 E15.08704
G1 X14.757 Y-29.965 E15.1097
G1 X15.549 Y-29.628 E15.21276
G1 X15.738 Y-29.54 E15.23772
G1 X16.649 Y-29.066 E15.36069
G1 X17.428 Y-28.591 E15.46993
G1 X17.579 Y-28.491 E15.49162
G1 X18.293 Y-27.98 E15.59675
G1 X18.441 Y-27.867 E15.61904
G1 X19.132 Y-27.291 E15.72676
G1 X19.245 Y-27.19 E15.74491
G1 X19.894 Y-26.565 E15.85279
G1 X20.014 Y-26.44 E15.87354
G1 X20.617 Y-25.769 E15.98156
G1 X20.713 Y-25.653 E15.99958
G1 X21.271 Y-24.93 E16.10894
G1 X21.366 Y-24.795 E16.1287
G1 X22.128 Y-23.606 E16.2978
G1 X31.578 Y-7.24 E18.56062
G1 X31.997 Y-6.452 E18.66748
G1 X32.082 Y-6.276 E18.69089
G1 X32.427 Y-5.492 E18.79345
G1 X32.508 Y-5.289 E18.81962
G1 X32.803 Y-4.456 E18.92543
G1 X32.849 Y-4.31 E18.94376
G1 X33.128 Y-3.274 E19.07222
G1 X33.303 Y-2.389 E19.18024
G1 X33.329 Y-2.23 E19.19953
G1 X33.437 Y-1.349 E19.30581
G1 X33.453 Y-1.162 E19.32828
G1 X33.497 Y-.268 E19.43546
G1 X33.5 Y-.103 E19.45522
G1 X33.47 Y0.951 E19.58147
G1 X33.361 Y2.009 E19.70882
G1 X33.207 Y2.912 E19.8185
G1 X33.177 Y3.055 E19.836
G1 X32.959 Y3.936 E19.94467
G1 X32.906 Y4.121 E19.96771
G1 X32.635 Y4.949 E20.07203
G1 X32.568 Y5.129 E20.09503
G1 X32.24 Y5.931 E20.19877
G1 X32.158 Y6.108 E20.22213
G1 X31.51 Y7.364 E20.39136
G1 X22.095 Y23.668 E22.64566
G1 X21.593 Y24.47 E22.75895
G1 X21.482 Y24.631 E22.78236
G1 X20.956 Y25.348 E22.88884
G1 X20.847 Y25.486 E22.90989
G1 X20.281 Y26.149 E23.01427
G1 X20.155 Y26.287 E23.03665
G1 X19.419 Y27.028 E23.1617
G1 X18.728 Y27.631 E23.27151
G1 X18.597 Y27.737 E23.29169
G1 X17.887 Y28.273 E23.39821
G1 X17.743 Y28.374 E23.41927
G1 X16.976 Y28.868 E23.5285
G1 X16.853 Y28.941 E23.54563
G1 X16.064 Y29.37 E23.65316
G1 X15.888 Y29.458 E23.67673
G1 X15.093 Y29.819 E23.78127
G1 X14.924 Y29.888 E23.80313
G1 X14.091 Y30.196 E23.90947
G1 X13.929 Y30.249 E23.92988
G1 X13.066 Y30.498 E24.03742
G1 X12.89 Y30.541 E24.05912
G1 X12.049 Y30.719 E24.16205
G1 X11.832 Y30.756 E24.1884
G1 X10.979 Y30.871 E24.29146
G1 X10.798 Y30.888 E24.31323
G1 X9.765 Y30.95 E24.43714
G1 X8.751 Y30.971 E24.55858
G0 F7200 X8 Y30.97
G1 F1350 X8 Y-30.967 E31.9747
G0 F7200 X6.4 Y-30.967
G1 F1350 X6.4 Y30.97 E39.39082
G0 F7200 X4.8 Y30.97
G1 F1350 X4.8 Y-30.967 E46.80694
G0 F7200 X3.2 Y-30.967
G1 F1350 X3.2 Y30.97 E54.22306
G0 F7200 X1.6 Y30.97
G1 F1350 X1.6 Y-30.968 E61.63929
G0 F7200 X0.00 Y-30.968
G1 F1350 X0.00 Y30.97 E69.05553
G0 F7200 X-1.6 Y30.97
G1 F1350 X-1.6 Y-30.968 E76.47177
G0 F7200 X-3.2 Y-30.969
G1 F1350 X-3.2 Y30.97 E83.88813
G0 F7200 X-4.8 Y30.97
G1 F1350 X-4.8 Y-30.969 E91.30449
G0 F7200 X-6.4 Y-30.969
G1 F1350 X-6.4 Y30.97 E98.72085
G0 F7200 X-8 Y30.97
G1 F1350 X-8 Y-30.969 E106.1372
G0 F7200 X-9.6 Y-30.959
G1 F1350 X-9.6 Y30.964 E113.55165
G0 F7200 X-11.2 Y30.855
G1 F1350 X-11.2 Y-30.857 E120.94082
G0 F7200 X-12.8 Y-30.576
G1 F1350 X-12.8 Y30.575 E128.26283
G0 F7200 X-14.4 Y30.097
G1 F1350 X-14.4 Y-30.096 E135.47013
G0 F7200 X-16 Y-29.416
G1 F1350 X-16 Y29.408 E142.51351
G0 F7200 X-17.6 Y28.48
G1 F1350 X-17.6 Y-28.476 E149.33322
G0 F7200 X-19.2 Y-27.227
G1 F1350 X-19.2 Y27.235 E155.85431
G0 F7200 X-20.8 Y25.544
G1 F1350 X-20.8 Y-25.548 E161.97188
G0 F7200 X-22.4 Y-23.143
G1 F1350 X-22.4 Y23.141 E167.51377
G0 F7200 X-24 Y20.369
G1 F1350 X-24 Y-20.372 E172.39195
G0 F7200 X-25.6 Y-17.601
G1 F1350 X-25.6 Y17.598 E176.60656
G0 F7200 X-27.2 Y14.827
G1 F1350 X-27.2 Y-14.83 E180.15758
G0 F7200 X-28.8 Y-12.059
G1 F1350 X-28.8 Y12.055 E183.04491
G0 F7200 X-30.4 Y9.284
G1 F1350 X-30.4 Y-9.288 E185.26865
G0 F7200 X-32 Y-6.414
G1 F1350 X-32 Y6.446 E186.80846
G0 F7200 X9.6 Y30.954
G1 F1350 X9.6 Y-30.961 E194.22195
G0 F7200 X11.2 Y-30.852
G1 F1350 X11.2 Y30.842 E201.60897
G0 F7200 X12.8 Y30.561
G1 F1350 X12.8 Y-30.572 E208.92882
G0 F7200 X14.4 Y-30.093
G1 F1350 X14.4 Y30.082 E216.13397
G0 F7200 X16 Y29.402
G1 F1350 X16 Y-29.403 E223.17507
G0 F7200 X17.6 Y-28.475
G1 F1350 X17.6 Y28.467 E229.9931
G0 F7200 X19.2 Y27.22
G1 F1350 X19.2 Y-27.23 E236.51276
G0 F7200 X20.8 Y-25.54
G1 F1350 X20.8 Y25.542 E242.62914
G0 F7200 X22.4 Y23.14
G1 F1350 X22.4 Y-23.134 E248.16982
G0 F7200 X24 Y-20.363
G1 F1350 X24 Y20.37 E253.04705
G0 F7200 X25.6 Y17.599
G1 F1350 X25.6 Y-17.593 E257.26081
G0 F7200 X27.2 Y-14.822
G1 F1350 X27.2 Y14.828 E260.811
G0 F7200 X28.8 Y12.057
G1 F1350 X28.8 Y-12.051 E263.69761
G0 F7200 X30.4 Y-9.28
G1 F1350 X30.4 Y9.287 E265.92076
G0 F7200 X32 Y6.415
G1 F1350 X32 Y-6.445 E267.46057
G0 F600 X32 Y-6.445 Z0.51
G0 F7200 X22.127 Y-23.605
;TIME_ELAPSED:104.067441
;LAYER:-8
M140 S70
;TYPE:SUPPORT
G1 F1350 X21.365 Y-24.793 E267.53098
G1 X21.271 Y-24.929 E267.53923
G1 X20.712 Y-25.652 E267.58482
G1 X20.616 Y-25.768 E267.59234
G1 X20.013 Y-26.438 E267.63731
G1 X19.893 Y-26.564 E267.64599
G1 X19.245 Y-27.188 E267.69087
G1 X19.132 Y-27.29 E267.69846
G1 X18.44 Y-27.866 E267.74338
G1 X18.292 Y-27.978 E267.75264
G1 X17.579 Y-28.49 E267.79643
G1 X17.428 Y-28.59 E267.80547
G1 X16.648 Y-29.065 E267.85103
G1 X15.738 Y-29.539 E267.90222
G1 X15.696 Y-29.558 E267.90452
G1 X22.78 Y-22.473 E268.40437
G1 X24.713 Y-19.127 E268.59716
G1 X13.434 Y-30.406 E269.39295
G1 X12.701 Y-30.597 E269.43074
G1 X12.546 Y-30.631 E269.43866
G1 X11.67 Y-30.794 E269.48311
G1 X11.626 Y-30.8 E269.48533
G1 X26.645 Y-15.78 E270.54504
G1 X28.578 Y-12.433 E270.73787
G1 X10.071 Y-30.94 E272.04364
G1 X9.454 Y-30.965 E272.07444
G1 X8.632 Y-30.965 E272.11545
G1 X30.51 Y-9.087 E273.65906
G1 X31.577 Y-7.24 E273.76548
G1 X31.996 Y-6.451 E273.81005
G1 X32.081 Y-6.276 E273.81976
G1 X32.217 Y-5.965 E273.83669
G1 X7.218 Y-30.965 E275.60054
G1 X5.803 Y-30.965 E275.67114
G1 X32.992 Y-3.777 E277.58943
G1 X33.127 Y-3.274 E277.61542
G1 X33.302 Y-2.389 E277.66042
G1 X33.328 Y-2.23 E277.66846
G1 X33.357 Y-1.997 E277.68017
G1 X4.389 Y-30.966 E279.72406
G1 X2.974 Y-30.966 E279.79465
G1 X33.487 Y-.453 E281.94751
G1 X33.496 Y-.267 E281.9568
G1 X33.499 Y-.102 E281.96503
G1 X33.47 Y0.943 E282.01719
G1 X1.559 Y-30.967 E284.26865
G1 X0.145 Y-30.967 E284.33919
G1 X33.325 Y2.213 E286.68022
G1 X33.205 Y2.911 E286.71555
G1 X33.176 Y3.054 E286.72283
G1 X33.092 Y3.394 E286.74031
G1 X-1.268 Y-30.967 E289.16463
G1 X-2.683 Y-30.967 E289.23522
G1 X32.782 Y4.497 E291.73743
G1 X32.633 Y4.949 E291.76118
G1 X32.567 Y5.128 E291.77069
G1 X32.402 Y5.532 E291.79247
G1 X-4.097 Y-30.967 E294.36767
G1 X-5.511 Y-30.967 E294.43821
G1 X31.956 Y6.5 E297.08171
G1 X31.509 Y7.364 E297.13024
G1 X31.471 Y7.43 E297.13404
G1 X-6.926 Y-30.968 E299.84319
G1 X-8.341 Y-30.968 E299.91379
G1 X30.954 Y8.326 E302.68623
G1 X30.436 Y9.223 E302.73791
G1 X-9.738 Y-30.951 E305.5724
G1 X-10.786 Y-30.903 E305.62474
G1 X-10.994 Y-30.882 E305.63517
G1 X-11.073 Y-30.872 E305.63914
G1 X29.919 Y10.12 E308.53135
G1 X29.4 Y11.016 E308.58301
G1 X-12.295 Y-30.68 E311.52485
G1 X-12.882 Y-30.556 E311.55478
G1 X-13.058 Y-30.513 E311.56382
G1 X-13.434 Y-30.404 E311.58335
G1 X28.883 Y11.912 E314.56901
G1 X28.365 Y12.809 E314.62069
G1 X-14.5 Y-30.056 E317.64504
G1 X-14.916 Y-29.904 E317.66714
G1 X-15.084 Y-29.834 E317.67622
G1 X-15.502 Y-29.644 E317.69913
G1 X27.847 Y13.705 E320.75763
G1 X27.33 Y14.602 E320.80929
G1 X-16.445 Y-29.173 E323.89785
G1 X-16.834 Y-28.96 E323.91998
G1 X-16.979 Y-28.874 E323.92839
G1 X-17.333 Y-28.647 E323.94937
G1 X26.812 Y15.499 E327.06407
G1 X26.295 Y16.395 E327.11568
G1 X-18.169 Y-28.068 E330.25282
G1 X-18.595 Y-27.748 E330.2794
G1 X-18.698 Y-27.665 E330.286
G1 X-18.954 Y-27.439 E330.30304
G1 X25.776 Y17.291 E333.45898
G1 X25.259 Y18.188 E333.51063
G1 X-19.692 Y-26.763 E336.68217
G1 X-20.141 Y-26.31 E336.71399
G1 X-20.257 Y-26.183 E336.72257
G1 X-20.381 Y-26.038 E336.73209
G1 X24.741 Y19.084 E339.91569
G1 X24.224 Y19.981 E339.96734
G1 X-21.021 Y-25.264 E343.15962
G1 X-21.481 Y-24.636 E343.19846
G1 X-21.57 Y-24.505 E343.20636
G1 X-21.612 Y-24.44 E343.21022
G1 X23.706 Y20.878 E346.40765
G1 X23.188 Y21.774 E346.45929
G1 X-22.154 Y-23.568 E349.65841
G1 X-22.671 Y-22.671 E349.71006
G1 X22.671 Y22.671 E352.90918
G1 X22.152 Y23.567 E352.96084
G1 X-23.189 Y-21.775 E356.15993
G1 X-23.707 Y-20.878 E356.21161
G1 X21.612 Y24.44 E359.40907
G1 X21.592 Y24.469 E359.41083
G1 X21.481 Y24.629 E359.42055
G1 X21.018 Y25.261 E359.45963
G1 X-24.224 Y-19.982 E362.65174
G1 X-24.742 Y-19.085 E362.70341
G1 X20.378 Y26.034 E365.88684
G1 X20.28 Y26.148 E365.89434
G1 X20.155 Y26.285 E365.90359
G1 X19.686 Y26.757 E365.93679
G1 X-25.259 Y-18.188 E369.1079
G1 X-25.777 Y-17.292 E369.15953
G1 X18.949 Y27.435 E372.31523
G1 X18.727 Y27.63 E372.32997
G1 X18.597 Y27.736 E372.33834
G1 X18.163 Y28.062 E372.36542
G1 X-26.295 Y-16.395 E375.50214
G1 X-26.813 Y-15.499 E375.55377
G1 X17.326 Y28.64 E378.66802
G1 X16.976 Y28.866 E378.6888
G1 X16.853 Y28.94 E378.69596
G1 X16.437 Y29.165 E378.71956
G1 X-27.331 Y-14.603 E381.80763
G1 X-27.848 Y-13.706 E381.85928
G1 X15.493 Y29.635 E384.91722
G1 X15.093 Y29.817 E384.93915
G1 X14.923 Y29.887 E384.94832
G1 X14.49 Y30.047 E384.97135
G1 X-28.366 Y-12.809 E387.99507
G1 X-28.883 Y-11.913 E388.04668
G1 X13.423 Y30.393 E391.0316
G1 X13.065 Y30.497 E391.0502
G1 X12.889 Y30.54 E391.05923
G1 X12.283 Y30.667 E391.09013
G1 X-29.401 Y-11.016 E394.03112
G1 X-29.919 Y-10.12 E394.08276
G1 X11.059 Y30.858 E396.97397
G1 X10.979 Y30.87 E396.97801
G1 X10.798 Y30.887 E396.98708
G1 X9.764 Y30.949 E397.03876
G1 X9.736 Y30.949 E397.04016
G1 X-30.436 Y-9.223 E399.87451
G1 X-30.954 Y-8.326 E399.92619
G1 X8.342 Y30.969 E402.6987
G1 X6.928 Y30.969 E402.76924
G1 X-31.471 Y-7.43 E405.4785
G1 X-31.517 Y-7.351 E405.48306
G1 X-31.955 Y-6.499 E405.53085
G1 X5.514 Y30.969 E408.17446
G1 X4.099 Y30.969 E408.24505
G1 X-32.403 Y-5.533 E410.82046
G1 X-32.58 Y-5.096 E410.84399
G1 X-32.65 Y-4.905 E410.85414
G1 X-32.782 Y-4.497 E410.87553
G1 X2.685 Y30.969 E413.37788
G1 X1.271 Y30.969 E413.44843
G1 X-33.093 Y-3.394 E415.87296
G1 X-33.183 Y-3.022 E415.89205
G1 X-33.325 Y-2.212 E415.93308
G1 X-.142 Y30.969 E418.27425
G1 X-1.557 Y30.969 E418.34484
G1 X-33.468 Y-.941 E420.5963
G1 X-33.469 Y-.934 E420.59666
G1 X-33.479 Y-.764 E420.60515
G1 X-33.498 Y0.152 E420.65086
G1 X-33.495 Y0.311 E420.65879
G1 X-33.488 Y0.452 E420.66584
G1 X-2.971 Y30.969 E422.81898
G1 X-4.385 Y30.969 E422.88952
G1 X-33.356 Y1.998 E424.93358
G1 X-33.323 Y2.258 E424.94666
G1 X-33.295 Y2.428 E424.95525
G1 X-33.122 Y3.296 E424.99941
G1 X-33.081 Y3.469 E425.00828
G1 X-32.997 Y3.771 E425.02392
G1 X-5.799 Y30.969 E426.94288
G1 X-7.213 Y30.969 E427.01343
G1 X-32.214 Y5.969 E428.77735
G1 X-32.06 Y6.321 E428.79652
G1 X-31.987 Y6.47 E428.8048
G1 X-31.542 Y7.302 E428.85187
G1 X-30.515 Y9.082 E428.95439
G1 X-8.628 Y30.969 E430.49864
G1 X-9.454 Y30.969 E430.53985
G1 X-10.067 Y30.945 E430.57046
G1 X-28.584 Y12.428 E431.87693
G1 X-26.652 Y15.774 E432.06969
G1 X-11.622 Y30.803 E433.1301
G1 X-11.67 Y30.797 E433.13252
G1 X-12.559 Y30.633 E433.17762
G1 X-12.681 Y30.605 E433.18386
G1 X-13.432 Y30.408 E433.2226
G1 X-24.72 Y19.12 E434.01903
G1 X-22.789 Y22.465 E434.21172
G1 X-15.688 Y29.566 E434.71274
G1 X-15.738 Y29.542 E434.7155
G1 X-16.649 Y29.069 E434.76671
G1 X-17.428 Y28.593 E434.81226
G1 X-17.579 Y28.494 E434.82127
G1 X-18.294 Y27.983 E434.86511
G1 X-18.442 Y27.87 E434.8744
G1 X-19.132 Y27.294 E434.91924
G1 X-19.246 Y27.193 E434.92684
G1 X-19.895 Y26.568 E434.9718
G1 X-20.015 Y26.442 E434.98048
G1 X-20.617 Y25.772 E435.02541
G1 X-20.714 Y25.654 E435.03303
G1 X-21.261 Y24.944 E435.07775
G1 X-21.373 Y24.789 E435.08729
G1 X-22.122 Y23.62 E435.15656
G0 F600 X-22.122 Y23.62 Z0.61
G0 F7200 X-12.712 Y30.8
;TIME_ELAPSED:253.729708
;LAYER:-7
;TYPE:SUPPORT-INTERFACE
G1 F1800 X12.613 Y30.8 E435.57771
G1 X12.079 Y30.916 E435.5868
G1 X10.995 Y31.07 E435.60501
G1 X9.893 Y31.144 E435.62338
G1 X9.133 Y31.166 E435.63602
G1 X-9.424 Y31.171 E435.94462
G1 X-10.464 Y31.134 E435.96193
G1 X-11.516 Y31.022 E435.97952
G1 X-12.598 Y30.829 E435.9978
G0 F7200 X12.613 Y30.8
G1 F1800 X13.121 Y30.69 E436.00645
G1 X14.102 Y30.4 E436.02346
G1 X-14.123 Y30.4 E436.49284
G1 X-14.637 Y30.228 E436.50185
G1 X-15.186 Y30 E436.51174
G1 X15.177 Y30 E437.01668
G1 X16.042 Y29.6 E437.03253
G1 X-16.057 Y29.6 E437.56634
G1 X-16.624 Y29.313 E437.5769
G1 X-16.812 Y29.2 E437.58055
G1 X16.786 Y29.2 E438.13929
G1 X17.091 Y29.032 E438.14508
G1 X17.446 Y28.8 E438.15213
G1 X-17.477 Y28.8 E438.7329
G1 X-17.526 Y28.77 E438.73386
G1 X-18.051 Y28.4 E438.74454
G1 X18.049 Y28.4 E439.34489
G1 X18.574 Y28 E439.35586
G1 X-18.59 Y28 E439.9739
G1 X-19.077 Y27.6 E439.98438
G1 X19.064 Y27.6 E440.61867
G1 X19.517 Y27.2 E440.62872
G1 X-19.523 Y27.2 E441.27796
G1 X-19.943 Y26.8 E441.2876
G1 X19.926 Y26.8 E441.95063
G1 X20.315 Y26.4 E441.95991
G1 X-20.319 Y26.4 E442.63565
G1 X-20.682 Y26 E442.64464
G1 X20.667 Y26 E443.33227
G1 X21.004 Y25.6 E443.34097
G1 X-21.007 Y25.6 E444.03962
G1 X-21.319 Y25.2 E444.04805
G1 X21.311 Y25.2 E444.75699
G1 X21.6 Y24.8 E444.7652
G1 X-21.598 Y24.8 E445.48359
G1 X-21.859 Y24.4 E445.49153
G1 X21.872 Y24.4 E446.21878
G1 X22.122 Y24 E446.22662
G1 X-22.12 Y24 E446.96237
G1 X-22.25 Y23.799 E446.96635
G1 X-22.365 Y23.6 E446.97017
G1 X22.366 Y23.6 E447.71405
G1 X22.597 Y23.2 E447.72173
G1 X-22.596 Y23.2 E448.4733
G1 X-22.827 Y22.8 E448.48098
G1 X22.828 Y22.8 E449.24022
