;FLAVOR:Marlin
;TIME:10848
;Filament used: 6.43128m
;Layer height: 0.1
;MINX:-43.65
;MINY:-44.65
;MINZ:0.36
;MAXX:43.65
;MAXY:44.65
;MAXZ:28.36
;Generated with Cura_SteamEngine 4.6.2
M140 S70
M105
M190 S70
M104 S205
M105
M109 S205
M82 ;absolute extrusion mode
G28 ;Home
G1 Z15.0 F6000 ;Move the platform down 15mm
;Prime the extruder
G92 E0
G1 F200 E3
G92 E0
G92 E0
G92 E0
G1 F1500 E-6.5
;LAYER_COUNT:263
;LAYER:-9
M107
G0 F7200 X-43.45 Y29.576 Z0.36
;TYPE:SUPPORT-INTERFACE
G1 F1500 E0
G1 F1350 X-43.45 Y-29.644 E7.09079
G1 X-43.414 Y-30.65 E7.21133
G1 X-43.404 Y-30.785 E7.22754
G1 X-43.303 Y-31.7 E7.33776
G1 X-43.277 Y-31.875 E7.35894
G1 X-43.115 Y-32.755 E7.46608
G1 X-43.085 Y-32.889 E7.48252
G1 X-42.854 Y-33.775 E7.59216
G1 X-42.802 Y-33.946 E7.61356
G1 X-42.515 Y-34.788 E7.72007
G1 X-42.452 Y-34.954 E7.74133
G1 X-42.111 Y-35.757 E7.84579
G1 X-42.03 Y-35.932 E7.86888
G1 X-41.549 Y-36.857 E7.99372
G1 X-41.001 Y-37.751 E8.11927
G1 X-40.463 Y-38.506 E8.23027
G1 X-39.898 Y-39.221 E8.33939
G1 X-39.773 Y-39.368 E8.36249
G1 X-39.176 Y-40.016 E8.46799
G1 X-39.052 Y-40.142 E8.48916
G1 X-38.393 Y-40.761 E8.59742
G1 X-38.277 Y-40.863 E8.61591
G1 X-37.458 Y-41.522 E8.74178
G1 X-36.711 Y-42.043 E8.85083
G1 X-36.56 Y-42.14 E8.87232
G1 X-35.796 Y-42.594 E8.97873
G1 X-35.645 Y-42.674 E8.99919
G1 X-34.234 Y-43.343 E9.18617
G1 X-34.151 Y-43.375 E9.19682
G1 X-33.301 Y-43.689 E9.30532
G1 X-33.127 Y-43.746 E9.32724
G1 X-32.264 Y-43.995 E9.43479
G1 X-32.081 Y-44.04 E9.45735
G1 X-31.238 Y-44.217 E9.56049
G1 X-31.045 Y-44.251 E9.58396
G1 X-30.2 Y-44.365 E9.68605
G1 X-29.986 Y-44.384 E9.71177
G1 X-28.567 Y-44.45 E9.88186
G1 X28.626 Y-44.45 E16.72995
G1 X28.661 Y-44.449 E16.73414
G1 X29.785 Y-44.404 E16.86884
G1 X30.702 Y-44.302 E16.97931
G1 X30.877 Y-44.277 E17.00048
G1 X31.766 Y-44.113 E17.10872
G1 X31.889 Y-44.085 E17.12382
G1 X32.783 Y-43.851 E17.23448
G1 X32.946 Y-43.802 E17.25485
G1 X33.788 Y-43.515 E17.36137
G1 X33.954 Y-43.452 E17.38263
G1 X34.757 Y-43.111 E17.48709
G1 X34.946 Y-43.023 E17.51205
G1 X35.857 Y-42.549 E17.63501
G1 X36.636 Y-42.074 E17.74426
G1 X36.787 Y-41.974 E17.76594
G1 X37.501 Y-41.463 E17.87108
G1 X37.649 Y-41.35 E17.89337
G1 X38.449 Y-40.677 E18.01855
G1 X38.96 Y-40.194 E18.10274
G1 X39.192 Y-39.963 E18.14194
G1 X39.838 Y-39.267 E18.25564
G1 X39.957 Y-39.128 E18.27755
G1 X40.511 Y-38.437 E18.3836
G1 X40.615 Y-38.298 E18.40438
G1 X41.104 Y-37.587 E18.50771
G1 X41.225 Y-37.398 E18.53458
G1 X41.737 Y-36.516 E18.65669
G1 X42.142 Y-35.693 E18.76652
G1 X42.203 Y-35.556 E18.78447
G1 X42.545 Y-34.711 E18.89362
G1 X42.604 Y-34.545 E18.91472
G1 X42.875 Y-33.703 E19.02063
G1 X42.922 Y-33.537 E19.04129
G1 X43.133 Y-32.668 E19.14836
G1 X43.167 Y-32.505 E19.1683
G1 X43.315 Y-31.613 E19.27656
G1 X43.339 Y-31.427 E19.29902
G1 X43.429 Y-30.391 E19.42353
G1 X43.45 Y-29.658 E19.51134
G1 X43.45 Y29.644 E26.61195
G1 X43.414 Y30.65 E26.73248
G1 X43.404 Y30.785 E26.74869
G1 X43.302 Y31.702 E26.85917
G1 X43.277 Y31.877 E26.88033
G1 X43.115 Y32.755 E26.98724
G1 X43.085 Y32.889 E27.00368
G1 X42.854 Y33.774 E27.11319
G1 X42.802 Y33.946 E27.13471
G1 X42.515 Y34.788 E27.24122
G1 X42.452 Y34.954 E27.26248
G1 X42.111 Y35.757 E27.36694
G1 X42.03 Y35.932 E27.39003
G1 X41.628 Y36.714 E27.49531
G1 X41.548 Y36.857 E27.51493
G1 X41.001 Y37.751 E27.64042
G1 X40.466 Y38.502 E27.75083
G1 X39.898 Y39.221 E27.86054
G1 X39.774 Y39.367 E27.88348
G1 X39.176 Y40.016 E27.98915
G1 X39.052 Y40.142 E28.01031
G1 X38.393 Y40.761 E28.11857
G1 X38.278 Y40.862 E28.1369
G1 X37.458 Y41.522 E28.26293
G1 X36.711 Y42.043 E28.37198
G1 X36.56 Y42.14 E28.39347
G1 X35.796 Y42.594 E28.49988
G1 X35.645 Y42.674 E28.52034
G1 X34.241 Y43.34 E28.70641
G1 X34.156 Y43.373 E28.71733
G1 X33.301 Y43.689 E28.82647
G1 X33.127 Y43.746 E28.84839
G1 X32.264 Y43.995 E28.95594
G1 X32.083 Y44.04 E28.97827
G1 X31.238 Y44.217 E29.08165
G1 X31.045 Y44.251 E29.10511
G1 X30.2 Y44.365 E29.20721
G1 X29.986 Y44.384 E29.23293
G1 X28.567 Y44.45 E29.40302
G1 X-28.626 Y44.45 E36.25111
G1 X-28.661 Y44.449 E36.2553
G1 X-29.785 Y44.404 E36.38999
G1 X-30.702 Y44.302 E36.50047
G1 X-30.877 Y44.277 E36.52164
G1 X-31.766 Y44.113 E36.62988
G1 X-31.889 Y44.085 E36.64498
G1 X-32.783 Y43.851 E36.75563
G1 X-32.946 Y43.802 E36.77601
G1 X-33.788 Y43.515 E36.88253
G1 X-33.954 Y43.452 E36.90379
G1 X-34.757 Y43.111 E37.00824
G1 X-34.946 Y43.023 E37.03321
G1 X-35.857 Y42.549 E37.15617
G1 X-36.756 Y41.998 E37.28242
G1 X-37.414 Y41.534 E37.37883
G1 X-37.51 Y41.46 E37.39334
G1 X-38.232 Y40.889 E37.50356
G1 X-38.368 Y40.773 E37.52496
G1 X-39.016 Y40.176 E37.63046
G1 X-39.144 Y40.05 E37.65196
G1 X-39.761 Y39.393 E37.75988
G1 X-39.863 Y39.277 E37.77838
G1 X-40.523 Y38.457 E37.90441
G1 X-41.044 Y37.71 E38.01346
G1 X-41.14 Y37.56 E38.03479
G1 X-41.595 Y36.793 E38.14157
G1 X-41.682 Y36.629 E38.1638
G1 X-42.343 Y35.234 E38.34863
G1 X-42.377 Y35.146 E38.35993
G1 X-42.694 Y34.287 E38.46956
G1 X-42.748 Y34.12 E38.49058
G1 X-42.997 Y33.257 E38.59813
G1 X-43.04 Y33.081 E38.61982
G1 X-43.217 Y32.238 E38.72296
G1 X-43.251 Y32.042 E38.74678
G1 X-43.366 Y31.19 E38.84972
G1 X-43.384 Y30.986 E38.87424
G1 X-43.45 Y29.576 E39.04325
G0 F7200 X-43.2 Y32.318
G1 F1350 X-43.2 Y-32.294 E46.77967
G0 F7200 X-41.6 Y-36.759
G1 F1350 X-41.6 Y36.783 E55.58533
G0 F7200 X-40 Y39.106
G1 F1350 X-40 Y-39.092 E64.94848
G0 F7200 X-38.4 Y-40.755
G1 F1350 X-38.4 Y40.743 E74.70676
G0 F7200 X-36.8 Y41.966
G1 F1350 X-36.8 Y-41.981 E84.75828
G0 F7200 X-35.2 Y-42.885
G1 F1350 X-35.2 Y42.89 E95.02868
G0 F7200 X-33.6 Y43.579
G1 F1350 X-33.6 Y-43.579 E105.46467
G0 F7200 X-32 Y-44.058
G1 F1350 X-32 Y44.055 E116.01501
G0 F7200 X-30.4 Y44.335
G1 F1350 X-30.4 Y-44.339 E126.63253
G0 F7200 X-28.8 Y-44.44
G1 F1350 X-28.8 Y44.443 E137.27506
G0 F7200 X-27.2 Y44.45
G1 F1350 X-27.2 Y-44.45 E147.91964
G0 F7200 X-25.6 Y-44.45
G1 F1350 X-25.6 Y44.45 E158.56421
G0 F7200 X-24 Y44.45
G1 F1350 X-24 Y-44.45 E169.20879
G0 F7200 X-22.4 Y-44.45
G1 F1350 X-22.4 Y44.45 E179.85336
G0 F7200 X-20.8 Y44.45
G1 F1350 X-20.8 Y-44.45 E190.49793
G0 F7200 X-19.2 Y-44.45
G1 F1350 X-19.2 Y44.45 E201.14251
G0 F7200 X-17.6 Y44.45
G1 F1350 X-17.6 Y-44.45 E211.78708
G0 F7200 X-16 Y-44.45
G1 F1350 X-16 Y44.45 E222.43165
G0 F7200 X-14.4 Y44.45
G1 F1350 X-14.4 Y-44.45 E233.07623
G0 F7200 X-12.8 Y-44.45
G1 F1350 X-12.8 Y44.45 E243.7208
G0 F7200 X-11.2 Y44.45
G1 F1350 X-11.2 Y-44.45 E254.36537
G0 F7200 X-9.6 Y-44.45
G1 F1350 X-9.6 Y44.45 E265.00995
G0 F7200 X-8 Y44.45
G1 F1350 X-8 Y-44.45 E275.65452
G0 F7200 X-6.4 Y-44.45
G1 F1350 X-6.4 Y44.45 E286.2991
G0 F7200 X-4.8 Y44.45
G1 F1350 X-4.8 Y-44.45 E296.94367
G0 F7200 X-3.2 Y-44.45
G1 F1350 X-3.2 Y44.45 E307.58824
G0 F7200 X-1.6 Y44.45
G1 F1350 X-1.6 Y-44.45 E318.23282
G0 F7200 X0.00 Y-44.45
G1 F1350 X0.00 Y44.45 E328.87739
G0 F7200 X1.6 Y44.45
G1 F1350 X1.6 Y-44.45 E339.52196
G0 F7200 X3.2 Y-44.45
G1 F1350 X3.2 Y44.45 E350.16654
G0 F7200 X4.8 Y44.45
G1 F1350 X4.8 Y-44.45 E360.81111
G0 F7200 X6.4 Y-44.45
G1 F1350 X6.4 Y44.45 E371.45568
G0 F7200 X8 Y44.45
G1 F1350 X8 Y-44.45 E382.10026
G0 F7200 X9.6 Y-44.45
G1 F1350 X9.6 Y44.45 E392.74483
G0 F7200 X11.2 Y44.45
G1 F1350 X11.2 Y-44.45 E403.38941
G0 F7200 X12.8 Y-44.45
G1 F1350 X12.8 Y44.45 E414.03398
G0 F7200 X14.4 Y44.45
G1 F1350 X14.4 Y-44.45 E424.67855
G0 F7200 X16 Y-44.45
G1 F1350 X16 Y44.45 E435.32313
G0 F7200 X17.6 Y44.45
G1 F1350 X17.6 Y-44.45 E445.9677
G0 F7200 X19.2 Y-44.45
G1 F1350 X19.2 Y44.45 E456.61227
G0 F7200 X20.8 Y44.45
G1 F1350 X20.8 Y-44.45 E467.25685
G0 F7200 X22.4 Y-44.45
G1 F1350 X22.4 Y44.45 E477.90142
G0 F7200 X24 Y44.45
G1 F1350 X24 Y-44.45 E488.54599
G0 F7200 X25.6 Y-44.45
G1 F1350 X25.6 Y44.45 E499.19057
G0 F7200 X27.2 Y44.45
G1 F1350 X27.2 Y-44.45 E509.83514
G0 F7200 X28.8 Y-44.443
G1 F1350 X28.8 Y44.44 E520.47768
G0 F7200 X30.4 Y44.339
G1 F1350 X30.4 Y-44.335 E531.09519
G0 F7200 X32 Y-44.055
G1 F1350 X32 Y44.058 E541.64553
G0 F7200 X33.6 Y43.579
G1 F1350 X33.6 Y-43.579 E552.08153
G0 F7200 X35.2 Y-42.89
G1 F1350 X35.2 Y42.886 E562.35204
G0 F7200 X36.8 Y41.981
G1 F1350 X36.8 Y-41.964 E572.40332
G0 F7200 X38.4 Y-40.718
G1 F1350 X38.4 Y40.755 E582.15861
G0 F7200 X40 Y39.092
G1 F1350 X40 Y-39.074 E591.51794
G0 F7200 X41.6 Y-36.752
G1 F1350 X41.6 Y36.765 E600.3206
G0 F7200 X43.2 Y32.295
G1 F1350 X43.2 Y-32.306 E608.0557
G0 F600 X43.2 Y-32.306 Z0.51
G0 F7200 X42.183 Y-35.598
;TIME_ELAPSED:230.625183
;LAYER:-8
M140 S70
;TYPE:SUPPORT
G1 F1350 X34.609 Y-43.172 E608.59009
G1 X34.756 Y-43.11 E608.59805
G1 X34.945 Y-43.022 E608.60845
G1 X35.857 Y-42.548 E608.65973
G1 X36.635 Y-42.073 E608.7052
G1 X36.787 Y-41.973 E608.71428
G1 X37.5 Y-41.461 E608.75807
G1 X37.648 Y-41.349 E608.76733
G1 X38.448 Y-40.676 E608.81949
G1 X38.96 Y-40.193 E608.85461
G1 X39.192 Y-39.962 E608.87094
G1 X39.836 Y-39.267 E608.91821
G1 X39.956 Y-39.127 E608.92741
G1 X40.51 Y-38.436 E608.9716
G1 X40.614 Y-38.297 E608.98026
G1 X41.102 Y-37.586 E609.02328
G1 X41.224 Y-37.397 E609.0345
G1 X41.736 Y-36.516 E609.08534
G1 X42.141 Y-35.692 E609.13115
G0 F7200 X34.609 Y-43.172
G1 F1350 X33.953 Y-43.451 E609.16671
G1 X33.787 Y-43.514 E609.17557
G1 X32.946 Y-43.801 E609.2199
G1 X32.782 Y-43.85 E609.22844
G1 X32.423 Y-43.943 E609.24694
G1 X42.951 Y-33.416 E609.98972
G1 X43.132 Y-32.668 E610.02811
G1 X43.166 Y-32.504 E610.03647
G1 X43.309 Y-31.643 E610.08001
G1 X30.646 Y-44.306 E610.97345
G1 X29.784 Y-44.403 E611.01673
G1 X29.109 Y-44.429 E611.05043
G1 X43.436 Y-30.102 E612.06128
G1 X43.449 Y-29.658 E612.08344
G1 X43.449 Y-28.675 E612.13248
G1 X27.676 Y-44.448 E613.24535
G1 X26.261 Y-44.448 E613.31595
G1 X43.449 Y-27.261 E614.52862
G1 X43.449 Y-25.846 E614.59921
G1 X24.847 Y-44.448 E615.91168
G1 X23.433 Y-44.448 E615.98223
G1 X43.449 Y-24.432 E617.39447
G1 X43.449 Y-23.018 E617.46501
G1 X22.019 Y-44.448 E618.97701
G1 X20.605 Y-44.448 E619.04756
G1 X43.449 Y-21.604 E620.65932
G1 X43.449 Y-20.19 E620.72987
G1 X19.19 Y-44.448 E622.44144
G1 X17.776 Y-44.448 E622.51198
G1 X43.449 Y-18.775 E624.32335
G1 X43.449 Y-17.361 E624.3939
G1 X16.362 Y-44.448 E626.30503
G1 X14.948 Y-44.448 E626.37557
G1 X43.449 Y-15.947 E628.38647
G1 X43.449 Y-14.533 E628.45702
G1 X13.534 Y-44.448 E630.56768
G1 X12.119 Y-44.448 E630.63828
G1 X43.449 Y-13.118 E632.84878
G1 X43.449 Y-11.704 E632.91932
G1 X10.705 Y-44.448 E635.22959
G1 X9.291 Y-44.448 E635.30013
G1 X43.449 Y-10.29 E637.71017
G1 X43.449 Y-8.876 E637.78071
G1 X7.877 Y-44.448 E640.29051
G1 X6.462 Y-44.448 E640.3611
G1 X43.449 Y-7.462 E642.9707
G1 X43.449 Y-6.047 E643.04129
G1 X5.048 Y-44.448 E645.75069
G1 X3.634 Y-44.448 E645.82124
G1 X43.449 Y-4.633 E648.6304
G1 X43.449 Y-3.219 E648.70094
G1 X2.22 Y-44.448 E651.60987
G1 X0.806 Y-44.448 E651.68042
G1 X43.449 Y-1.805 E654.68911
G1 X43.449 Y-.391 E654.75966
G1 X-.608 Y-44.448 E657.86812
G1 X-2.022 Y-44.448 E657.93866
G1 X43.449 Y1.023 E661.14689
G1 X43.449 Y2.437 E661.21743
G1 X-3.436 Y-44.448 E664.52542
G1 X-4.85 Y-44.448 E664.59597
G1 X43.449 Y3.851 E668.00372
G1 X43.449 Y5.265 E668.07427
G1 X-6.264 Y-44.448 E671.58179
G1 X-7.679 Y-44.448 E671.65238
G1 X43.449 Y6.68 E675.25974
G1 X43.449 Y8.094 E675.33028
G1 X-9.093 Y-44.448 E679.0374
G1 X-10.507 Y-44.448 E679.10795
G1 X43.449 Y9.508 E682.91484
G1 X43.449 Y10.922 E682.98538
G1 X-11.921 Y-44.448 E686.89203
G1 X-13.336 Y-44.448 E686.96263
G1 X43.449 Y12.336 E690.96908
G1 X43.449 Y13.751 E691.03968
G1 X-14.75 Y-44.448 E695.14593
G1 X-16.164 Y-44.448 E695.21647
G1 X43.449 Y15.165 E699.42249
G1 X43.449 Y16.579 E699.49304
G1 X-17.578 Y-44.448 E703.79882
G1 X-18.992 Y-44.448 E703.86937
G1 X43.449 Y17.993 E708.27492
G1 X43.449 Y19.407 E708.34546
G1 X-20.407 Y-44.448 E712.85081
G1 X-21.821 Y-44.448 E712.92136
G1 X43.449 Y20.822 E717.52651
G1 X43.449 Y22.236 E717.59705
G1 X-23.235 Y-44.448 E722.30197
G1 X-24.649 Y-44.448 E722.37251
G1 X43.449 Y23.65 E727.1772
G1 X43.449 Y25.064 E727.24774
G1 X-26.063 Y-44.448 E732.15219
G1 X-27.478 Y-44.448 E732.22278
G1 X43.449 Y26.479 E737.22706
G1 X43.449 Y27.893 E737.29761
G1 X-28.877 Y-44.433 E742.4006
G1 X-29.986 Y-44.382 E742.45599
G1 X-30.199 Y-44.364 E742.46665
G1 X-30.219 Y-44.361 E742.46766
G1 X43.449 Y29.307 E747.66533
G1 X43.449 Y29.644 E747.68215
G1 X43.413 Y30.65 E747.73237
G1 X43.411 Y30.683 E747.73402
G1 X-31.444 Y-44.172 E753.01544
G1 X-32.08 Y-44.039 E753.04786
G1 X-32.263 Y-43.994 E753.05726
G1 X-32.587 Y-43.9 E753.07409
G1 X43.263 Y31.949 E758.42568
G1 X43.114 Y32.755 E758.46658
G1 X43.084 Y32.888 E758.47338
G1 X43.023 Y33.123 E758.48549
G1 X-33.656 Y-43.556 E763.89561
G1 X-34.151 Y-43.374 E763.92192
G1 X-34.233 Y-43.342 E763.92631
G1 X-34.656 Y-43.141 E763.94968
G1 X42.707 Y34.222 E769.40806
G1 X42.514 Y34.788 E769.43789
G1 X42.451 Y34.954 E769.44675
G1 X42.324 Y35.253 E769.46296
G1 X-35.615 Y-42.686 E774.96197
G1 X-35.644 Y-42.673 E774.96356
G1 X-35.796 Y-42.593 E774.97213
G1 X-36.511 Y-42.168 E775.01363
G1 X41.879 Y36.222 E780.54446
G1 X41.627 Y36.714 E780.57204
G1 X41.547 Y36.856 E780.58017
G1 X41.377 Y37.135 E780.59647
G1 X-37.352 Y-41.594 E786.15123
G1 X-37.458 Y-41.521 E786.15765
G1 X-38.142 Y-40.97 E786.20147
G1 X40.825 Y37.997 E791.77302
G1 X40.464 Y38.501 E791.80395
G1 X40.223 Y38.808 E791.82342
G1 X-38.883 Y-40.298 E797.40478
G1 X-39.052 Y-40.141 E797.41628
G1 X-39.176 Y-40.015 E797.4251
G1 X-39.578 Y-39.578 E797.45473
G1 X39.578 Y39.578 E803.03961
G1 X39.176 Y40.015 E803.06923
G1 X39.052 Y40.141 E803.07805
G1 X38.883 Y40.298 E803.08956
G1 X-40.223 Y-38.808 E808.67092
G1 X-40.462 Y-38.506 E808.69013
G1 X-40.825 Y-37.997 E808.72132
G1 X38.142 Y40.97 E814.29287
G1 X37.458 Y41.521 E814.33669
G1 X37.352 Y41.594 E814.34311
G1 X-41.378 Y-37.135 E819.8979
G1 X-41.548 Y-36.857 E819.91416
G1 X-41.879 Y-36.222 E819.94989
G1 X36.511 Y42.168 E825.48072
G1 X35.796 Y42.593 E825.52222
G1 X35.644 Y42.673 E825.53079
G1 X35.615 Y42.686 E825.53238
G1 X-42.324 Y-35.253 E831.03139
G1 X-42.451 Y-34.954 E831.0476
G1 X-42.514 Y-34.788 E831.05646
G1 X-42.707 Y-34.222 E831.08629
G1 X34.656 Y43.141 E836.54467
G1 X34.241 Y43.339 E836.56761
G1 X34.156 Y43.372 E836.57216
G1 X33.656 Y43.556 E836.59874
G1 X-43.023 Y-33.123 E842.00886
G1 X-43.084 Y-32.888 E842.02097
G1 X-43.114 Y-32.755 E842.02777
G1 X-43.262 Y-31.949 E842.06866
G1 X32.587 Y43.9 E847.42021
G1 X32.263 Y43.994 E847.43704
G1 X32.083 Y44.039 E847.4463
G1 X31.444 Y44.172 E847.47886
G1 X-43.411 Y-30.683 E852.76029
G1 X-43.413 Y-30.65 E852.76194
G1 X-43.449 Y-29.644 E852.81216
G1 X-43.449 Y-29.307 E852.82897
G1 X30.219 Y44.361 E858.02665
G1 X30.199 Y44.364 E858.02766
G1 X29.986 Y44.382 E858.03832
G1 X28.877 Y44.433 E858.09371
G1 X-43.449 Y-27.893 E863.1967
G1 X-43.449 Y-26.479 E863.26724
G1 X27.478 Y44.448 E868.27153
G1 X26.063 Y44.448 E868.34212
G1 X-43.449 Y-25.064 E873.24657
G1 X-43.449 Y-23.65 E873.31711
G1 X24.649 Y44.448 E878.12179
G1 X23.235 Y44.448 E878.19234
G1 X-43.449 Y-22.236 E882.89726
G1 X-43.449 Y-20.822 E882.9678
G1 X21.821 Y44.448 E887.57295
G1 X20.407 Y44.448 E887.6435
G1 X-43.449 Y-19.407 E892.14885
G1 X-43.449 Y-17.993 E892.21939
G1 X18.992 Y44.448 E896.62494
G1 X17.578 Y44.448 E896.69549
G1 X-43.449 Y-16.579 E901.00127
G1 X-43.449 Y-15.165 E901.07181
G1 X16.164 Y44.448 E905.27783
G1 X14.75 Y44.448 E905.34838
G1 X-43.449 Y-13.751 E909.45463
G1 X-43.449 Y-12.336 E909.52523
G1 X13.336 Y44.448 E913.53168
G1 X11.921 Y44.448 E913.60227
G1 X-43.449 Y-10.922 E917.50893
G1 X-43.449 Y-9.508 E917.57947
G1 X10.507 Y44.448 E921.38636
G1 X9.093 Y44.448 E921.4569
G1 X-43.449 Y-8.094 E925.16403
G1 X-43.449 Y-6.68 E925.23457
G1 X7.679 Y44.448 E928.84193
G1 X6.264 Y44.448 E928.91252
G1 X-43.449 Y-5.265 E932.42004
G1 X-43.449 Y-3.851 E932.49059
G1 X4.85 Y44.448 E935.89834
G1 X3.436 Y44.448 E935.96889
G1 X-43.449 Y-2.437 E939.27688
G1 X-43.449 Y-1.023 E939.34742
G1 X2.022 Y44.448 E942.55565
G1 X0.608 Y44.448 E942.62619
G1 X-43.449 Y0.391 E945.73465
G1 X-43.449 Y1.805 E945.8052
G1 X-.806 Y44.448 E948.81389
G1 X-2.22 Y44.448 E948.88443
G1 X-43.449 Y3.219 E951.79336
G1 X-43.449 Y4.633 E951.86391
G1 X-3.634 Y44.448 E954.67307
G1 X-5.048 Y44.448 E954.74362
G1 X-43.449 Y6.047 E957.45301
G1 X-43.449 Y7.462 E957.52361
G1 X-6.462 Y44.448 E960.13321
G1 X-7.877 Y44.448 E960.2038
G1 X-43.449 Y8.876 E962.7136
