;FLAVOR:Marlin
;TIME:2272
;Filament used: 1.00636m
;Layer height: 0.1
;MINX:-24.244
;MINY:-22.983
;MINZ:0.36
;MAXX:24.245
;MAXY:22.984
;MAXZ:28.06
;Generated with Cura_SteamEngine 4.6.2
M140 S70
M105
M190 S70
M104 S205
M105
M109 S205
M82 ;absolute extrusion mode
G28 ;Home
G1 Z15.0 F6000 ;Move the platform down 15mm
;Prime the extruder
G92 E0
G1 F200 E3
G92 E0
G92 E0
G92 E0
G1 F1500 E-6.5
;LAYER_COUNT:267
;LAYER:-9
M107
G0 F7200 X-17.419 Y15.397 Z0.36
;TYPE:SUPPORT-INTERFACE
G1 F1500 E0
G1 F1350 X-22.117 Y7.257 E1.12534
G1 X-22.535 Y6.472 E1.23183
G1 X-22.621 Y6.294 E1.2555
G1 X-23.03 Y5.355 E1.37813
G1 X-23.341 Y4.486 E1.48864
G1 X-23.393 Y4.322 E1.50924
G1 X-23.635 Y3.445 E1.61818
G1 X-23.673 Y3.287 E1.63764
G1 X-23.845 Y2.424 E1.743
G1 X-23.874 Y2.244 E1.76483
G1 X-23.983 Y1.365 E1.87089
G1 X-24.001 Y1.165 E1.89493
G1 X-24.047 Y0.145 E2.01718
G1 X-24.027 Y-.776 E2.12749
G1 X-24.017 Y-.949 E2.14824
G1 X-23.933 Y-1.818 E2.25277
G1 X-23.909 Y-2.005 E2.27535
G1 X-23.761 Y-2.878 E2.38137
G1 X-23.725 Y-3.053 E2.40276
G1 X-23.468 Y-4.077 E2.52917
G1 X-23.192 Y-4.925 E2.63595
G1 X-23.128 Y-5.098 E2.65804
G1 X-22.798 Y-5.908 E2.76277
G1 X-22.721 Y-6.078 E2.78511
G1 X-22.063 Y-7.355 E2.95712
G1 X-17.313 Y-15.576 E4.09397
G1 X-16.785 Y-16.405 E4.21166
G1 X-16.699 Y-16.529 E4.22972
G1 X-16.064 Y-17.374 E4.35629
G1 X-15.457 Y-18.076 E4.46741
G1 X-15.338 Y-18.204 E4.48833
G1 X-14.711 Y-18.829 E4.59433
G1 X-14.596 Y-18.936 E4.61314
G1 X-13.922 Y-19.518 E4.71977
G1 X-13.76 Y-19.647 E4.74456
G1 X-12.931 Y-20.255 E4.86766
G1 X-12.163 Y-20.743 E4.97661
G1 X-12.012 Y-20.831 E4.99754
G1 X-11.233 Y-21.248 E5.10334
G1 X-11.048 Y-21.339 E5.12802
G1 X-10.27 Y-21.685 E5.22997
G1 X-10.069 Y-21.766 E5.25592
G1 X-9.248 Y-22.062 E5.36042
G1 X-9.098 Y-22.11 E5.37928
G1 X-8.232 Y-22.353 E5.48697
G1 X-8.055 Y-22.396 E5.50878
G1 X-7.178 Y-22.573 E5.61591
G1 X-7.027 Y-22.598 E5.63424
G1 X-6.125 Y-22.713 E5.74311
G1 X-5.956 Y-22.728 E5.76343
G1 X-4.646 Y-22.784 E5.92043
G1 X4.724 Y-22.782 E7.04236
G1 X5.847 Y-22.737 E7.17693
G1 X6.765 Y-22.635 E7.28752
G1 X6.94 Y-22.61 E7.30869
G1 X7.817 Y-22.448 E7.41548
G1 X7.972 Y-22.413 E7.4345
G1 X8.83 Y-22.189 E7.54068
G1 X8.998 Y-22.138 E7.5617
G1 X9.85 Y-21.847 E7.6695
G1 X10.027 Y-21.78 E7.69216
G1 X10.819 Y-21.443 E7.79522
G1 X11.008 Y-21.355 E7.82019
G1 X11.919 Y-20.881 E7.94315
G1 X12.698 Y-20.406 E8.05239
G1 X12.849 Y-20.306 E8.07408
G1 X13.563 Y-19.795 E8.17921
G1 X13.711 Y-19.682 E8.20151
G1 X14.514 Y-19.006 E8.32719
G1 X15.165 Y-18.379 E8.43541
G1 X15.279 Y-18.261 E8.45506
G1 X15.877 Y-17.595 E8.56223
G1 X15.985 Y-17.465 E8.58247
G1 X16.531 Y-16.758 E8.68943
G1 X16.644 Y-16.598 E8.71288
G1 X17.397 Y-15.425 E8.87978
G1 X22.104 Y-7.283 E10.00586
G1 X22.542 Y-6.457 E10.11781
G1 X22.628 Y-6.28 E10.14137
G1 X22.981 Y-5.478 E10.24629
G1 X23.045 Y-5.318 E10.26693
G1 X23.347 Y-4.469 E10.37482
G1 X23.395 Y-4.318 E10.39379
G1 X23.634 Y-3.451 E10.50148
G1 X23.677 Y-3.272 E10.52352
G1 X23.848 Y-2.405 E10.62933
G1 X23.878 Y-2.223 E10.65142
G1 X23.986 Y-1.339 E10.75805
G1 X24 Y-1.176 E10.77764
G1 X24.045 Y-.286 E10.88434
G1 X24.048 Y-.111 E10.9053
G1 X24.026 Y0.799 E11.01429
G1 X24.017 Y0.956 E11.03312
G1 X23.932 Y1.832 E11.1385
G1 X23.904 Y2.044 E11.16411
G1 X23.758 Y2.893 E11.26726
G1 X23.721 Y3.075 E11.28949
G1 X23.507 Y3.938 E11.39596
G1 X23.458 Y4.109 E11.41725
G1 X23.189 Y4.934 E11.52116
G1 X23.119 Y5.124 E11.5454
G1 X22.791 Y5.926 E11.64915
G1 X22.718 Y6.086 E11.67021
G1 X22.073 Y7.339 E11.83895
G1 X17.34 Y15.527 E12.97136
G1 X16.847 Y16.315 E13.08265
G1 X16.23 Y17.166 E13.20851
G1 X16.111 Y17.316 E13.23144
G1 X15.54 Y17.985 E13.33675
G1 X15.411 Y18.126 E13.35964
G1 X14.788 Y18.756 E13.46573
G1 X14.676 Y18.862 E13.48419
G1 X13.984 Y19.468 E13.59433
G1 X13.861 Y19.567 E13.61323
G1 X13.151 Y20.102 E13.71968
G1 X13.001 Y20.206 E13.74153
G1 X12.255 Y20.687 E13.84782
G1 X12.097 Y20.78 E13.86977
G1 X11.33 Y21.199 E13.97442
G1 X11.144 Y21.292 E13.99932
G1 X10.37 Y21.644 E14.10112
G1 X10.176 Y21.724 E14.12625
G1 X9.354 Y22.026 E14.23111
G1 X9.187 Y22.08 E14.25212
G1 X8.341 Y22.324 E14.35755
G1 X8.14 Y22.373 E14.38232
G1 X7.302 Y22.55 E14.48487
G1 X7.113 Y22.583 E14.50785
G1 X6.236 Y22.702 E14.61382
G1 X6.066 Y22.717 E14.63425
G1 X4.674 Y22.783 E14.80111
G1 X-4.725 Y22.783 E15.92651
G1 X-5.849 Y22.738 E16.06121
G1 X-6.917 Y22.616 E16.18992
G1 X-7.802 Y22.452 E16.29769
G1 X-8.001 Y22.408 E16.32209
G1 X-8.856 Y22.184 E16.42792
G1 X-8.996 Y22.142 E16.44542
G1 X-9.862 Y21.847 E16.55496
G1 X-10.007 Y21.792 E16.57353
G1 X-10.842 Y21.436 E16.68222
G1 X-10.997 Y21.363 E16.70274
G1 X-11.792 Y20.955 E16.80973
G1 X-11.934 Y20.876 E16.82919
G1 X-12.697 Y20.411 E16.93617
G1 X-12.867 Y20.299 E16.96055
G1 X-13.566 Y19.798 E17.06352
G1 X-13.714 Y19.685 E17.08582
G1 X-14.403 Y19.111 E17.1932
G1 X-14.52 Y19.005 E17.2121
G1 X-15.176 Y18.373 E17.32117
G1 X-15.289 Y18.256 E17.34064
G1 X-15.883 Y17.595 E17.44705
G1 X-15.983 Y17.475 E17.46576
G1 X-16.548 Y16.743 E17.57648
G1 X-16.638 Y16.615 E17.59521
G1 X-17.419 Y15.397 E17.76846
G0 F7200 X-17.6 Y15.083
G1 F1350 X-17.6 Y-15.08 E21.38007
G0 F7200 X-16 Y-17.449
G1 F1350 X-16 Y17.452 E25.55899
G0 F7200 X-14.4 Y19.113
G1 F1350 X-14.4 Y-19.106 E30.1352
G0 F7200 X-12.8 Y-20.339
G1 F1350 X-12.8 Y20.343 E35.00632
G0 F7200 X-11.2 Y21.258
G1 F1350 X-11.2 Y-21.265 E40.09787
G0 F7200 X-9.6 Y-21.936
G1 F1350 X-9.6 Y21.936 E45.35095
G0 F7200 X-8 Y22.408
G1 F1350 X-8 Y-22.408 E50.71706
G0 F7200 X-6.4 Y-22.678
G1 F1350 X-6.4 Y22.675 E56.14747
G0 F7200 X-4.8 Y22.779
G1 F1350 X-4.8 Y-22.778 E61.60231
G0 F7200 X-3.2 Y-22.783
G1 F1350 X-3.2 Y22.783 E67.05822
G0 F7200 X-1.6 Y22.783
G1 F1350 X-1.6 Y-22.783 E72.51413
G0 F7200 X0.00 Y-22.783
G1 F1350 X0.00 Y22.783 E77.97005
G0 F7200 X1.6 Y22.783
G1 F1350 X1.6 Y-22.782 E83.42584
G0 F7200 X3.2 Y-22.782
G1 F1350 X3.2 Y22.783 E88.88163
G0 F7200 X4.8 Y22.778
G1 F1350 X4.8 Y-22.778 E94.33635
G0 F7200 X6.4 Y-22.675
G1 F1350 X6.4 Y22.68 E99.767
G0 F7200 X8 Y22.403
G1 F1350 X8 Y-22.405 E105.13215
G0 F7200 X9.6 Y-21.932
G1 F1350 X9.6 Y21.936 E110.38475
G0 F7200 X11.2 Y21.264
G1 F1350 X11.2 Y-21.255 E115.47582
G0 F7200 X12.8 Y-20.338
G1 F1350 X12.8 Y20.336 E120.34599
G0 F7200 X14.4 Y19.104
G1 F1350 X14.4 Y-19.101 E124.92052
G0 F7200 X16 Y-17.445
G1 F1350 X16 Y17.447 E129.09836
G0 F7200 X17.6 Y15.078
G1 F1350 X17.6 Y-15.073 E132.70854
G0 F7200 X19.2 Y-12.306
G1 F1350 X19.2 Y12.31 E135.65597
G0 F7200 X20.8 Y9.542
G1 F1350 X20.8 Y-9.538 E137.94054
G0 F7200 X22.4 Y-6.724
G1 F1350 X22.4 Y6.704 E139.54836
G0 F7200 X24 Y1.132
G1 F1350 X24 Y-1.176 E139.82472
G0 F7200 X-19.2 Y-12.311
G1 F1350 X-19.2 Y12.311 E142.77287
G0 F7200 X-20.8 Y9.538
G1 F1350 X-20.8 Y-9.541 E145.05732
G0 F7200 X-22.4 Y-6.701
G1 F1350 X-22.4 Y6.725 E146.6649
G0 F7200 X-24 Y1.176
G1 F1350 X-24 Y-1.125 E146.94042
G0 F600 X-24 Y-1.125 Z0.51
G0 F7200 X-17.812 Y14.714
;TIME_ELAPSED:58.732059
;LAYER:-8
M140 S70
;TYPE:SUPPORT
G1 F1350 X-11.342 Y21.184 E147.39691
G1 X-11.791 Y20.954 E147.42208
G1 X-11.934 Y20.875 E147.43023
G1 X-12.696 Y20.409 E147.47479
G1 X-12.866 Y20.298 E147.48492
G1 X-13.565 Y19.796 E147.52786
G1 X-13.713 Y19.684 E147.53711
G1 X-14.402 Y19.11 E147.58185
G1 X-14.519 Y19.004 E147.58973
G1 X-15.175 Y18.372 E147.63518
G1 X-15.289 Y18.254 E147.64336
G1 X-15.883 Y17.594 E147.68766
G1 X-15.982 Y17.474 E147.69542
G1 X-16.548 Y16.742 E147.74159
G1 X-16.637 Y16.614 E147.74936
G1 X-17.418 Y15.397 E147.82151
G0 F7200 X-11.342 Y21.184
G1 F1350 X-10.996 Y21.361 E147.8409
G1 X-10.841 Y21.435 E147.84947
G1 X-10.006 Y21.791 E147.89475
G1 X-9.862 Y21.846 E147.90244
G1 X-8.995 Y22.14 E147.94812
G1 X-8.961 Y22.15 E147.94989
G1 X-19.742 Y11.37 E148.71051
G1 X-21.672 Y8.025 E148.90318
G1 X-7.121 Y22.576 E149.92983
G1 X-6.916 Y22.614 E149.94023
G1 X-5.849 Y22.737 E149.99382
G1 X-5.534 Y22.749 E150.00954
G1 X-23.085 Y5.198 E151.24786
G1 X-23.34 Y4.485 E151.28564
G1 X-23.392 Y4.321 E151.29422
G1 X-23.634 Y3.445 E151.33956
G1 X-23.672 Y3.286 E151.34772
G1 X-23.695 Y3.174 E151.35342
G1 X-4.087 Y22.782 E152.73687
G1 X-2.673 Y22.782 E152.80742
G1 X-23.967 Y1.488 E154.30982
G1 X-23.982 Y1.364 E154.31606
G1 X-24 Y1.165 E154.32603
G1 X-24.046 Y0.144 E154.37701
G1 X-24.043 Y-0.002 E154.3843
G1 X-1.259 Y22.782 E155.99183
G1 X0.154 Y22.782 E156.06233
G1 X-23.977 Y-1.35 E157.76494
G1 X-23.932 Y-1.817 E157.78834
G1 X-23.907 Y-2.004 E157.79776
G1 X-23.808 Y-2.595 E157.82765
G1 X1.569 Y22.782 E159.61814
G1 X2.983 Y22.782 E159.68868
G1 X-23.549 Y-3.75 E161.56066
G1 X-23.467 Y-4.077 E161.57748
G1 X-23.22 Y-4.835 E161.61725
G1 X4.397 Y22.782 E163.56578
G1 X4.674 Y22.782 E163.5796
G1 X5.76 Y22.73 E163.63384
G1 X-22.821 Y-5.85 E165.65035
G1 X-22.797 Y-5.907 E165.65344
G1 X-22.72 Y-6.077 E165.66275
G1 X-22.35 Y-6.794 E165.703
G1 X7.035 Y22.592 E167.77631
G1 X7.113 Y22.582 E167.78023
G1 X7.302 Y22.548 E167.78981
G1 X8.139 Y22.372 E167.83248
G1 X8.212 Y22.354 E167.83623
G1 X-21.855 Y-7.713 E169.95762
G1 X-21.337 Y-8.609 E170.00925
G1 X9.311 Y22.039 E172.17164
G1 X9.354 Y22.025 E172.17389
G1 X10.175 Y21.723 E172.21754
G1 X10.34 Y21.654 E172.22646
G1 X-20.82 Y-9.506 E174.42497
G1 X-20.302 Y-10.402 E174.4766
G1 X11.308 Y21.208 E176.70686
G1 X11.329 Y21.198 E176.70802
G1 X12.097 Y20.779 E176.75166
G1 X12.22 Y20.706 E176.7588
G1 X-19.784 Y-11.298 E179.01685
G1 X-19.266 Y-12.195 E179.06853
G1 X13.079 Y20.15 E181.35065
G1 X13.15 Y20.101 E181.35495
G1 X13.861 Y19.566 E181.39934
G1 X13.887 Y19.544 E181.40104
G1 X-18.748 Y-13.092 E183.70365
G1 X-18.23 Y-13.987 E183.75524
G1 X14.644 Y18.887 E186.07468
G1 X14.676 Y18.86 E186.07677
G1 X14.788 Y18.755 E186.08443
G1 X15.354 Y18.183 E186.12458
G1 X-17.713 Y-14.884 E188.45763
G1 X-17.312 Y-15.576 E188.49753
G1 X-17.187 Y-15.773 E188.50917
G1 X16.014 Y17.428 E190.85168
G1 X16.11 Y17.315 E190.85908
G1 X16.23 Y17.165 E190.86866
G1 X16.623 Y16.623 E190.90207
G1 X-16.626 Y-16.626 E193.24796
G1 X-16.064 Y-17.373 E193.2946
G1 X-16.015 Y-17.43 E193.29835
G1 X17.186 Y15.772 E195.64089
G1 X17.338 Y15.527 E195.65528
G1 X17.711 Y14.883 E195.69241
G1 X-15.356 Y-18.184 E198.02546
G1 X-15.337 Y-18.203 E198.0268
G1 X-14.711 Y-18.828 E198.07094
G1 X-14.645 Y-18.888 E198.07539
G1 X18.229 Y13.987 E200.39486
G1 X18.748 Y13.091 E200.44652
G1 X-13.887 Y-19.544 E202.74909
G1 X-13.76 Y-19.646 E202.75722
G1 X-13.076 Y-20.147 E202.79952
G1 X19.265 Y12.194 E205.08135
G1 X19.784 Y11.298 E205.13301
G1 X-12.22 Y-20.705 E207.39103
G1 X-12.163 Y-20.742 E207.39442
G1 X-12.012 Y-20.829 E207.40312
G1 X-11.307 Y-21.206 E207.443
G1 X20.301 Y10.402 E209.67312
G1 X20.82 Y9.506 E209.72478
G1 X-10.339 Y-21.653 E211.92321
G1 X-10.27 Y-21.684 E211.92699
G1 X-10.068 Y-21.765 E211.93784
G1 X-9.31 Y-22.038 E211.97804
G1 X21.338 Y8.61 E214.14042
G1 X21.855 Y7.713 E214.19207
G1 X-8.213 Y-22.355 E216.31353
G1 X-8.055 Y-22.395 E216.32166
G1 X-7.178 Y-22.572 E216.3663
G1 X-7.039 Y-22.595 E216.37333
G1 X22.352 Y6.796 E218.44702
G1 X22.717 Y6.086 E218.48685
G1 X22.79 Y5.925 E218.49567
G1 X22.821 Y5.85 E218.49972
G1 X-5.764 Y-22.734 E220.51651
G1 X-4.645 Y-22.782 E220.57239
G1 X-4.397 Y-22.782 E220.58476
G1 X23.22 Y4.835 E222.53329
G1 X23.456 Y4.108 E222.57142
G1 X23.506 Y3.937 E222.58031
G1 X23.552 Y3.753 E222.58978
G1 X-2.983 Y-22.782 E224.46196
G1 X-1.569 Y-22.782 E224.53251
G1 X23.808 Y2.595 E226.32299
G1 X23.903 Y2.044 E226.35089
G1 X23.931 Y1.831 E226.36161
G1 X23.977 Y1.35 E226.38571
G1 X-.154 Y-22.781 E228.08828
G1 X1.26 Y-22.781 E228.15883
G1 X24.045 Y0.003 E229.7664
G1 X24.047 Y-.11 E229.77204
G1 X24.044 Y-.285 E229.78077
G1 X23.999 Y-1.175 E229.82523
G1 X23.985 Y-1.339 E229.83344
G1 X23.967 Y-1.488 E229.84093
G1 X2.674 Y-22.78 E231.34323
G1 X4.089 Y-22.78 E231.41382
G1 X23.695 Y-3.174 E232.79713
G1 X23.676 Y-3.271 E232.80206
G1 X23.632 Y-3.45 E232.81126
G1 X23.394 Y-4.318 E232.85616
G1 X23.345 Y-4.468 E232.86404
G1 X23.087 Y-5.197 E232.90262
G1 X5.535 Y-22.748 E234.14097
G1 X5.846 Y-22.736 E234.1565
G1 X6.764 Y-22.633 E234.20258
G1 X6.94 Y-22.609 E234.21145
G1 X7.122 Y-22.575 E234.22068
G1 X21.675 Y-8.022 E235.24747
G1 X19.737 Y-11.375 E235.44069
G1 X8.966 Y-22.146 E236.20064
G1 X8.997 Y-22.137 E236.20225
G1 X9.849 Y-21.846 E236.24717
G1 X10.026 Y-21.778 E236.25663
G1 X10.818 Y-21.442 E236.29955
G1 X11.008 Y-21.354 E236.31
G1 X11.35 Y-21.176 E236.32923
G1 X17.799 Y-14.726 E236.78428
G0 F7200 X17.396 Y-15.424
G1 F1350 X16.643 Y-16.597 E236.85382
G1 X16.53 Y-16.757 E236.86359
G1 X15.984 Y-17.464 E236.90816
G1 X15.877 Y-17.594 E236.91656
G1 X15.279 Y-18.26 E236.96122
G1 X15.165 Y-18.378 E236.9694
G1 X14.514 Y-19.005 E237.01449
G1 X13.71 Y-19.681 E237.0669
G1 X13.563 Y-19.794 E237.07615
G1 X12.849 Y-20.305 E237.11995
G1 X12.698 Y-20.405 E237.12899
G1 X11.918 Y-20.88 E237.17455
G1 X11.35 Y-21.176 E237.20651
G0 F600 X11.35 Y-21.176 Z0.61
G0 F7200 X6.977 Y-22.8
;TIME_ELAPSED:139.449662
;LAYER:-7
;TYPE:SUPPORT-INTERFACE
G1 F1800 X-6.991 Y-22.8 E237.4388
G1 X-6.157 Y-22.911 E237.45279
G1 X-4.776 Y-22.981 E237.47578
G1 X4.695 Y-22.983 E237.63329
G1 X5.733 Y-22.946 E237.65056
G1 X6.786 Y-22.834 E237.66817
G0 F7200 X-6.991 Y-22.8
G1 F1800 X-7.202 Y-22.772 E237.67171
G1 X-8.271 Y-22.549 E237.68987
G1 X-8.79 Y-22.4 E237.69885
G1 X8.808 Y-22.4 E237.99151
G1 X8.894 Y-22.378 E237.99298
G1 X9.907 Y-22.039 E238.01075
G1 X10.001 Y-22 E238.01244
G1 X-9.991 Y-22 E238.34491
G1 X-10.344 Y-21.87 E238.35116
G1 X-10.94 Y-21.6 E238.36204
G1 X10.953 Y-21.6 E238.72613
G1 X11.742 Y-21.2 E238.74084
G1 X-11.74 Y-21.2 E239.13134
G1 X-12.262 Y-20.916 E239.14123
G1 X-12.442 Y-20.8 E239.14479
G1 X12.431 Y-20.8 E239.55843
G1 X12.794 Y-20.581 E239.56548
G1 X13.051 Y-20.4 E239.57071
G1 X-13.063 Y-20.4 E240.00498
G1 X-13.166 Y-20.334 E240.00702
G1 X-13.611 Y-20 E240.01627
G1 X13.619 Y-20 E240.46911
G1 X13.689 Y-19.95 E240.47054
G1 X14.115 Y-19.6 E240.47971
G1 X-14.13 Y-19.6 E240.94942
G1 X-14.588 Y-19.2 E240.95954
G1 X14.593 Y-19.2 E241.44482
G1 X15.013 Y-18.8 E241.45446
G1 X-15.019 Y-18.8 E241.9539
G1 X-15.415 Y-18.4 E241.96326
G1 X15.416 Y-18.4 E242.47598
G1 X15.779 Y-18 E242.48496
G1 X-15.785 Y-18 E243.00987
G1 X-16.127 Y-17.6 E243.01862
G1 X16.127 Y-17.6 E243.55501
G1 X16.44 Y-17.2 E243.56346
G1 X-16.447 Y-17.2 E244.11037
G1 X-16.741 Y-16.8 E244.11863
G1 X16.744 Y-16.8 E244.67548
G1 X17.005 Y-16.4 E244.68343
G1 X-17.022 Y-16.4 E245.2493
G1 X-17.271 Y-16 E245.25713
G1 X17.266 Y-15.999 E245.83149
G1 X17.497 Y-15.644 E245.83853
G1 X17.524 Y-15.599 E245.8394
G1 X-17.519 Y-15.6 E246.42217
G1 X-17.705 Y-15.302 E246.42801
G1 X-17.763 Y-15.2 E246.42996
G1 X17.755 Y-15.199 E247.02063
G1 X17.987 Y-14.799 E247.02832
G1 X-17.994 Y-14.8 E247.62669
G1 X-18.225 Y-14.4 E247.63437
G1 X18.218 Y-14.399 E248.24042
G1 X18.45 Y-13.999 E248.24811
G1 X-18.456 Y-14 E248.86186
G1 X-18.686 Y-13.6 E248.86953
G1 X18.681 Y-13.599 E249.49095
G1 X18.913 Y-13.199 E249.49864
G1 X-18.917 Y-13.2 E250.12775
G1 X-19.148 Y-12.8 E250.13543
G1 X19.144 Y-12.799 E250.77223
G1 X19.376 Y-12.399 E250.77992
G1 X-19.379 Y-12.4 E251.42442
G1 X-19.609 Y-12 E251.43209
G1 X19.607 Y-11.999 E252.08426
G1 X19.839 Y-11.599 E252.09195
G1 X-19.84 Y-11.6 E252.75181
G1 X-20.071 Y-11.2 E252.75949
G1 X20.07 Y-11.199 E253.42704
G1 X20.302 Y-10.799 E253.43473
G1 X-20.302 Y-10.8 E254.10998
G1 X-20.533 Y-10.4 E254.11766
G1 X20.533 Y-10.399 E254.80059
G1 X20.765 Y-9.999 E254.80828
G1 X-20.763 Y-10 E255.49889
G1 X-20.994 Y-9.6 E255.50658
G1 X20.996 Y-9.599 E256.20487
G1 X21.228 Y-9.199 E256.21256
G1 X-21.225 Y-9.2 E256.91856
G1 X-21.456 Y-8.8 E256.92624
G1 X21.459 Y-8.799 E257.63992
G1 X21.691 Y-8.399 E257.64761
G1 X-21.686 Y-8.4 E258.36897
G1 X-21.917 Y-8 E258.37665
G1 X21.922 Y-7.999 E259.1057
G1 X22.154 Y-7.599 E259.11339
G1 X-22.148 Y-7.6 E259.85013
G1 X-22.292 Y-7.351 E259.85492
G1 X-22.368 Y-7.2 E259.85773
G1 X22.372 Y-7.199 E260.60176
G1 X22.585 Y-6.799 E260.60929
G1 X-22.57 Y-6.8 E261.36022
G1 X-22.772 Y-6.4 E261.36768
G1 X22.787 Y-6.399 E262.12533
G1 X22.966 Y-5.999 E262.13261
G1 X-22.974 Y-6 E262.8966
G1 X-22.98 Y-5.99 E262.89679
G1 X-23.136 Y-5.6 E262.90378
G1 X23.145 Y-5.599 E263.67343
G1 X23.166 Y-5.552 E263.67429
G1 X23.295 Y-5.199 E263.68054
G1 X-23.296 Y-5.2 E264.45535
G1 X-23.379 Y-4.994 E264.45905
