;FLAVOR:Marlin
;TIME:637
;Filament used: 0.5208m
;Layer height: 0.1
;MINX:-24.8
;MINY:-24.8
;MINZ:0.3
;MAXX:24.8
;MAXY:24.8
;MAXZ:1.3
;Generated with Cura_SteamEngine 4.6.2
M140 S70
M105
M190 S70
M104 S200
M105
M109 S200
M82 ;absolute extrusion mode
G28 ;Home
G1 Z15.0 F6000 ;Move the platform down 15mm
;Prime the extruder
G92 E0
G1 F200 E3
G92 E0
G92 E0
G92 E0
G1 F1500 E-6.5
;LAYER_COUNT:3
;LAYER:0
M107
G1 F600 Z1.3
;MESH:flat_rectangle.stl
G0 F3600 X-24.397 Y24.4 Z1.3
;TYPE:WALL-INNER
G1 F600 Z0.3
G1 F1500 E0
G1 F1800 X-24.4 Y-24.2 E2.42466
G1 X-24.4 Y-24.4 E2.43464
G1 X-24.2 Y-24.4 E2.4411
G1 X24.4 Y-24.4 E4.86577
G1 X24.4 Y24.4 E7.30041
G1 X-24.397 Y24.4 E9.7349
G0 F3600 X-24.327 Y24.33
G0 X24.33 Y-24.33
G0 X24.754 Y-24.647
;TYPE:WALL-OUTER
G1 F1800 X24.8 Y-24.474 E9.74383
G1 X24.8 Y24.474 E12.18586
G1 X24.754 Y24.647 E12.19479
G1 X24.647 Y24.754 E12.20234
G1 X24.474 Y24.8 E12.21127
G1 X-24.474 Y24.8 E14.65329
G1 X-24.647 Y24.754 E14.66222
G1 X-24.755 Y24.646 E14.66984
G1 X-24.797 Y24.5 E14.67742
G1 X-24.8 Y-24.474 E17.12075
G1 X-24.754 Y-24.647 E17.12968
G1 X-24.647 Y-24.754 E17.13723
G1 X-24.474 Y-24.8 E17.14616
G1 X24.474 Y-24.8 E19.58818
G1 X24.647 Y-24.754 E19.59711
G1 X24.754 Y-24.647 E19.60466
G0 F3600 X24.8 Y-24.474
G0 X24.8 Y-24.453
G0 X24.01 Y-24.01
;TYPE:SKIN
G1 F1800 X24.01 Y24.01 E22.00039
G1 X-24.007 Y24.01 E24.39597
G1 X-24.01 Y-24.01 E26.7917
G1 X24.01 Y-24.01 E29.18742
G0 F3600 X23.688 Y-23.829
G1 F1800 X23.829 Y-23.688 E29.19737
G0 F3600 X23.829 Y-23.122
G1 F1800 X23.122 Y-23.829 E29.24726
G0 F3600 X22.556 Y-23.829
G1 F1800 X23.829 Y-22.556 E29.33707
G0 F3600 X23.829 Y-21.991
G1 F1800 X21.991 Y-23.829 E29.46675
G0 F3600 X21.425 Y-23.829
G1 F1800 X23.829 Y-21.425 E29.63637
G0 F3600 X23.829 Y-20.859
G1 F1800 X20.859 Y-23.829 E29.84592
G0 F3600 X20.293 Y-23.829
G1 F1800 X23.829 Y-20.293 E30.0954
G0 F3600 X23.829 Y-19.728
G1 F1800 X19.728 Y-23.829 E30.38475
G0 F3600 X19.162 Y-23.829
G1 F1800 X23.829 Y-19.162 E30.71403
G0 F3600 X23.829 Y-18.596
G1 F1800 X18.596 Y-23.829 E31.08325
G0 F3600 X18.031 Y-23.829
G1 F1800 X23.829 Y-18.031 E31.49233
G0 F3600 X23.829 Y-17.465
G1 F1800 X17.465 Y-23.829 E31.94134
G0 F3600 X16.899 Y-23.829
G1 F1800 X23.829 Y-16.899 E32.43029
G0 F3600 X23.829 Y-16.334
G1 F1800 X16.334 Y-23.829 E32.9591
G0 F3600 X15.768 Y-23.829
G1 F1800 X23.829 Y-15.768 E33.52785
G0 F3600 X23.829 Y-15.202
G1 F1800 X15.202 Y-23.829 E34.13653
G0 F3600 X14.637 Y-23.829
G1 F1800 X23.829 Y-14.637 E34.78508
G0 F3600 X23.829 Y-14.071
G1 F1800 X14.071 Y-23.829 E35.47356
G0 F3600 X13.505 Y-23.829
G1 F1800 X23.829 Y-13.505 E36.20197
G0 F3600 X23.829 Y-12.94
G1 F1800 X12.94 Y-23.829 E36.97025
G0 F3600 X12.374 Y-23.829
G1 F1800 X23.829 Y-12.374 E37.77846
G0 F3600 X23.829 Y-11.808
G1 F1800 X11.808 Y-23.829 E38.62661
G0 F3600 X11.242 Y-23.829
G1 F1800 X23.829 Y-11.242 E39.51469
G0 F3600 X23.829 Y-10.677
G1 F1800 X10.677 Y-23.829 E40.44263
G0 F3600 X10.111 Y-23.829
G1 F1800 X23.829 Y-10.111 E41.41051
G0 F3600 X23.829 Y-9.545
G1 F1800 X9.545 Y-23.829 E42.41833
G0 F3600 X8.98 Y-23.829
G1 F1800 X23.829 Y-8.98 E43.466
G0 F3600 X23.829 Y-8.414
G1 F1800 X8.414 Y-23.829 E44.55361
G0 F3600 X7.848 Y-23.829
G1 F1800 X23.829 Y-7.848 E45.68116
G0 F3600 X23.829 Y-7.283
G1 F1800 X7.283 Y-23.829 E46.84857
G0 F3600 X6.717 Y-23.829
G1 F1800 X23.829 Y-6.717 E48.05591
G0 F3600 X23.829 Y-6.151
G1 F1800 X6.151 Y-23.829 E49.30319
G0 F3600 X5.586 Y-23.829
G1 F1800 X23.829 Y-5.586 E50.59034
G0 F3600 X23.829 Y-5.02
G1 F1800 X5.02 Y-23.829 E51.91741
G0 F3600 X4.454 Y-23.829
G1 F1800 X23.829 Y-4.454 E53.28442
G0 F3600 X23.829 Y-3.889
G1 F1800 X3.889 Y-23.829 E54.6913
G0 F3600 X3.323 Y-23.829
G1 F1800 X23.829 Y-3.323 E56.13811
G0 F3600 X23.829 Y-2.757
G1 F1800 X2.757 Y-23.829 E57.62485
G0 F3600 X2.192 Y-23.829
G1 F1800 X23.829 Y-2.192 E59.15146
G0 F3600 X23.829 Y-1.626
G1 F1800 X1.626 Y-23.829 E60.718
G0 F3600 X1.06 Y-23.829
G1 F1800 X23.829 Y-1.06 E62.32447
G0 F3600 X23.829 Y-.494
G1 F1800 X0.494 Y-23.829 E63.97088
G0 F3600 X-0.07 Y-23.829
G1 F1800 X23.829 Y0.07 E65.65709
G0 F3600 X23.829 Y0.636
G1 F1800 X-.636 Y-23.829 E67.38323
G0 F3600 X-1.202 Y-23.829
G1 F1800 X23.829 Y1.202 E69.1493
G0 F3600 X23.829 Y1.767
G1 F1800 X-1.767 Y-23.829 E70.95523
G0 F3600 X-2.333 Y-23.829
G1 F1800 X23.829 Y2.333 E72.8011
G0 F3600 X23.829 Y2.899
G1 F1800 X-2.899 Y-23.829 E74.68691
G0 F3600 X-3.464 Y-23.829
G1 F1800 X23.829 Y3.464 E76.61258
G0 F3600 X23.829 Y4.03
G1 F1800 X-4.03 Y-23.829 E78.57818
G0 F3600 X-4.596 Y-23.829
G1 F1800 X23.829 Y4.596 E80.58372
G0 F3600 X23.829 Y5.161
G1 F1800 X-5.161 Y-23.829 E82.62912
G0 F3600 X-5.727 Y-23.829
G1 F1800 X23.829 Y5.727 E84.71445
G0 F3600 X23.829 Y6.293
G1 F1800 X-6.293 Y-23.829 E86.83972
G0 F3600 X-6.858 Y-23.829
G1 F1800 X23.829 Y6.858 E89.00486
G0 F3600 X23.829 Y7.424
G1 F1800 X-7.424 Y-23.829 E91.20993
G0 F3600 X-7.99 Y-23.829
G1 F1800 X23.829 Y7.99 E93.45493
G0 F3600 X23.829 Y8.555
G1 F1800 X-8.555 Y-23.829 E95.73979
G0 F3600 X-9.121 Y-23.829
G1 F1800 X23.829 Y9.121 E98.0646
G0 F3600 X23.829 Y9.687
G1 F1800 X-9.687 Y-23.829 E100.42933
G0 F3600 X-10.253 Y-23.829
G1 F1800 X23.829 Y10.253 E102.834
G0 F3600 X23.829 Y10.818
G1 F1800 X-10.818 Y-23.829 E105.27853
G0 F3600 X-11.384 Y-23.829
G1 F1800 X23.829 Y11.384 E107.763
G0 F3600 X23.829 Y11.95
G1 F1800 X-11.95 Y-23.829 E110.2874
G0 F3600 X-12.515 Y-23.829
G1 F1800 X23.829 Y12.515 E112.85167
G0 F3600 X23.829 Y13.081
G1 F1800 X-13.081 Y-23.829 E115.45587
G0 F3600 X-13.647 Y-23.829
G1 F1800 X23.829 Y13.647 E118.1
G0 F3600 X23.829 Y14.212
G1 F1800 X-14.212 Y-23.829 E120.784
G0 F3600 X-14.778 Y-23.829
G1 F1800 X23.829 Y14.778 E123.50793
G0 F3600 X23.829 Y15.344
G1 F1800 X-15.344 Y-23.829 E126.2718
G0 F3600 X-15.909 Y-23.829
G1 F1800 X23.829 Y15.909 E129.07553
G0 F3600 X23.829 Y16.475
G1 F1800 X-16.475 Y-23.829 E131.91919
G0 F3600 X-17.041 Y-23.829
G1 F1800 X23.829 Y17.041 E134.80279
G0 F3600 X23.829 Y17.606
G1 F1800 X-17.606 Y-23.829 E137.72626
G0 F3600 X-18.172 Y-23.829
G1 F1800 X23.829 Y18.172 E140.68965
G0 F3600 X23.829 Y18.738
G1 F1800 X-18.738 Y-23.829 E143.69298
G0 F3600 X-19.304 Y-23.829
G1 F1800 X23.829 Y19.304 E146.73625
G0 F3600 X23.829 Y19.869
G1 F1800 X-19.869 Y-23.829 E149.81938
G0 F3600 X-20.435 Y-23.829
G1 F1800 X23.829 Y20.435 E152.94244
G0 F3600 X23.829 Y21.001
G1 F1800 X-21.001 Y-23.829 E156.10544
G0 F3600 X-21.566 Y-23.829
G1 F1800 X23.829 Y21.566 E159.30831
G0 F3600 X23.829 Y22.132
G1 F1800 X-22.132 Y-23.829 E162.5511
G0 F3600 X-22.698 Y-23.829
G1 F1800 X23.829 Y22.698 E165.83383
G0 F3600 X23.829 Y23.263
G1 F1800 X-23.263 Y-23.829 E169.15643
G0 F3600 X-23.829 Y-23.829
G1 F1800 X23.829 Y23.829 E172.51896
G0 F3600 X23.263 Y23.829
G1 F1800 X-23.829 Y-23.263 E175.84155
G0 F3600 X-23.829 Y-22.698
G1 F1800 X22.698 Y23.829 E179.12428
G0 F3600 X22.132 Y23.829
G1 F1800 X-23.829 Y-22.132 E182.36708
G0 F3600 X-23.829 Y-21.566
G1 F1800 X21.566 Y23.829 E185.56994
G0 F3600 X21.001 Y23.829
G1 F1800 X-23.829 Y-21.001 E188.73294
G0 F3600 X-23.829 Y-20.435
G1 F1800 X20.435 Y23.829 E191.85601
G0 F3600 X19.869 Y23.829
G1 F1800 X-23.829 Y-19.869 E194.93914
G0 F3600 X-23.829 Y-19.304
G1 F1800 X19.304 Y23.829 E197.9824
G0 F3600 X18.738 Y23.829
G1 F1800 X-23.829 Y-18.738 E200.98573
G0 F3600 X-23.829 Y-18.172
G1 F1800 X18.172 Y23.829 E203.94913
G0 F3600 X17.606 Y23.829
G1 F1800 X-23.829 Y-17.606 E206.87259
G0 F3600 X-23.829 Y-17.041
G1 F1800 X17.041 Y23.829 E209.75619
G0 F3600 X16.475 Y23.829
G1 F1800 X-23.829 Y-16.475 E212.59986
G0 F3600 X-23.829 Y-15.909
G1 F1800 X15.909 Y23.829 E215.40359
G0 F3600 X15.344 Y23.829
G1 F1800 X-23.829 Y-15.344 E218.16746
G0 F3600 X-23.829 Y-14.778
G1 F1800 X14.778 Y23.829 E220.89139
G0 F3600 X14.212 Y23.829
G1 F1800 X-23.829 Y-14.212 E223.57539
G0 F3600 X-23.829 Y-13.647
G1 F1800 X13.647 Y23.829 E226.21952
G0 F3600 X13.081 Y23.829
G1 F1800 X-23.829 Y-13.081 E228.82372
G0 F3600 X-23.829 Y-12.515
G1 F1800 X12.515 Y23.829 E231.38799
G0 F3600 X11.95 Y23.829
G1 F1800 X-23.829 Y-11.95 E233.91239
G0 F3600 X-23.828 Y-11.383
G1 F1800 X11.384 Y23.829 E236.39678
G0 F3600 X10.818 Y23.829
G1 F1800 X-23.828 Y-10.818 E238.84128
G0 F3600 X-23.828 Y-10.252
G1 F1800 X10.253 Y23.829 E241.24588
G0 F3600 X9.687 Y23.829
G1 F1800 X-23.828 Y-9.686 E243.61055
G0 F3600 X-23.828 Y-9.12
G1 F1800 X9.121 Y23.829 E245.93527
G0 F3600 X8.555 Y23.829
G1 F1800 X-23.828 Y-8.555 E248.22011
G0 F3600 X-23.828 Y-7.989
G1 F1800 X7.99 Y23.829 E250.46504
G0 F3600 X7.424 Y23.829
G1 F1800 X-23.828 Y-7.423 E252.67003
G0 F3600 X-23.828 Y-6.858
G1 F1800 X6.858 Y23.829 E254.83513
G0 F3600 X6.293 Y23.829
G1 F1800 X-23.828 Y-6.292 E256.96033
G0 F3600 X-23.828 Y-5.726
G1 F1800 X5.727 Y23.829 E259.0456
G0 F3600 X5.161 Y23.829
G1 F1800 X-23.828 Y-5.161 E261.09096
G0 F3600 X-23.828 Y-4.595
G1 F1800 X4.596 Y23.829 E263.09643
G0 F3600 X4.03 Y23.829
G1 F1800 X-23.828 Y-4.029 E265.06196
G0 F3600 X-23.828 Y-3.464
G1 F1800 X3.464 Y23.829 E266.9876
G0 F3600 X2.899 Y23.829
G1 F1800 X-23.828 Y-2.898 E268.87333
G0 F3600 X-23.828 Y-2.332
G1 F1800 X2.333 Y23.829 E270.71913
G0 F3600 X1.767 Y23.829
G1 F1800 X-23.828 Y-1.767 E272.52503
G0 F3600 X-23.828 Y-1.201
G1 F1800 X1.202 Y23.829 E274.29103
G0 F3600 X0.636 Y23.829
G1 F1800 X-23.828 Y-.635 E276.0171
G0 F3600 X-23.828 Y-0.07
G1 F1800 X0.07 Y23.829 E277.70327
G0 F3600 X-.494 Y23.829
G1 F1800 X-23.828 Y0.496 E279.34957
G0 F3600 X-23.828 Y1.062
G1 F1800 X-1.06 Y23.829 E280.95594
G0 F3600 X-1.626 Y23.829
G1 F1800 X-23.828 Y1.627 E282.52241
G0 F3600 X-23.828 Y2.193
G1 F1800 X-2.192 Y23.829 E284.04895
G0 F3600 X-2.757 Y23.829
G1 F1800 X-23.828 Y2.759 E285.53559
G0 F3600 X-23.828 Y3.324
G1 F1800 X-3.323 Y23.829 E286.98233
G0 F3600 X-3.889 Y23.829
G1 F1800 X-23.828 Y3.89 E288.38913
G0 F3600 X-23.828 Y4.456
G1 F1800 X-4.454 Y23.829 E289.75604
G0 F3600 X-5.02 Y23.829
G1 F1800 X-23.828 Y5.021 E291.08304
G0 F3600 X-23.828 Y5.587
G1 F1800 X-5.586 Y23.829 E292.37011
G0 F3600 X-6.151 Y23.829
G1 F1800 X-23.828 Y6.153 E293.61729
G0 F3600 X-23.828 Y6.718
G1 F1800 X-6.717 Y23.829 E294.82456
G0 F3600 X-7.283 Y23.829
G1 F1800 X-23.828 Y7.284 E295.9919
G0 F3600 X-23.828 Y7.85
G1 F1800 X-7.848 Y23.829 E297.11934
G0 F3600 X-8.414 Y23.829
G1 F1800 X-23.828 Y8.415 E298.20688
G0 F3600 X-23.828 Y8.981
G1 F1800 X-8.98 Y23.829 E299.25449
G0 F3600 X-9.545 Y23.829
G1 F1800 X-23.828 Y9.547 E300.26219
G0 F3600 X-23.828 Y10.113
G1 F1800 X-10.111 Y23.829 E301.22997
G0 F3600 X-10.677 Y23.829
G1 F1800 X-23.828 Y10.678 E302.15784
G0 F3600 X-23.828 Y11.244
G1 F1800 X-11.242 Y23.829 E303.04582
G0 F3600 X-11.808 Y23.829
G1 F1800 X-23.828 Y11.81 E303.89386
G0 F3600 X-23.827 Y12.376
G1 F1800 X-12.374 Y23.829 E304.70193
G0 F3600 X-12.94 Y23.829
G1 F1800 X-23.827 Y12.942 E305.47006
G0 F3600 X-23.827 Y13.507
G1 F1800 X-13.505 Y23.829 E306.19834
G0 F3600 X-14.071 Y23.829
G1 F1800 X-23.827 Y14.073 E306.88667
G0 F3600 X-23.827 Y14.639
G1 F1800 X-14.637 Y23.829 E307.53508
G0 F3600 X-15.202 Y23.829
G1 F1800 X-23.827 Y15.204 E308.14362
G0 F3600 X-23.827 Y15.77
G1 F1800 X-15.768 Y23.829 E308.71223
G0 F3600 X-16.334 Y23.829
G1 F1800 X-23.827 Y16.336 E309.2409
G0 F3600 X-23.827 Y16.901
G1 F1800 X-16.899 Y23.829 E309.7297
G0 F3600 X-17.465 Y23.829
G1 F1800 X-23.827 Y17.467 E310.17858
G0 F3600 X-23.827 Y18.033
G1 F1800 X-18.031 Y23.829 E310.58752
G0 F3600 X-18.596 Y23.829
G1 F1800 X-23.827 Y18.599 E310.95656
G0 F3600 X-23.827 Y19.164
G1 F1800 X-19.162 Y23.829 E311.2857
G0 F3600 X-19.728 Y23.829
G1 F1800 X-23.827 Y19.73 E311.5749
G0 F3600 X-23.827 Y20.296
G1 F1800 X-20.293 Y23.829 E311.82421
G0 F3600 X-20.859 Y23.829
G1 F1800 X-23.827 Y20.861 E312.03362
G0 F3600 X-23.827 Y21.427
G1 F1800 X-21.425 Y23.829 E312.20309
G0 F3600 X-21.991 Y23.829
G1 F1800 X-23.827 Y21.993 E312.33263
G0 F3600 X-23.827 Y22.558
G1 F1800 X-22.556 Y23.829 E312.42231
G0 F3600 X-23.122 Y23.829
G1 F1800 X-23.827 Y23.124 E312.47205
G0 F3600 X-23.827 Y23.69
G1 F1800 X-23.688 Y23.829 E312.48186
;MESH:NONMESH
G0 F600 X-23.688 Y23.829 Z0.4
G0 F3600 X-24.393 Y24.4
;TIME_ELAPSED:215.729199
;LAYER:1
M140 S70
M106 S255
;TYPE:WALL-INNER
;MESH:flat_rectangle.stl
G1 F2700 X-24.4 Y-24.2 E313.29008
G1 X-24.4 Y-24.4 E313.29341
G1 X-24.2 Y-24.4 E313.29556
G1 X24.4 Y-24.4 E314.10378
G1 X24.4 Y24.4 E314.91533
G1 X-24.393 Y24.4 E315.72676
G0 F5400 X-24.323 Y24.33
G0 X24.33 Y-24.33
G0 X24.754 Y-24.647
;TYPE:WALL-OUTER
G1 F1800 X24.8 Y-24.474 E315.72974
G1 X24.8 Y24.474 E316.54375
G1 X24.754 Y24.647 E316.54672
G1 X24.647 Y24.754 E316.54924
G1 X24.474 Y24.8 E316.55222
G1 X-24.474 Y24.8 E317.36622
G1 X-24.647 Y24.754 E317.3692
G1 X-24.756 Y24.645 E317.37176
G1 X-24.793 Y24.529 E317.37379
G1 X-24.8 Y-24.474 E318.18871
G1 X-24.754 Y-24.647 E318.19169
G1 X-24.647 Y-24.754 E318.19421
G1 X-24.474 Y-24.8 E318.19718
G1 X24.474 Y-24.8 E319.01119
G1 X24.647 Y-24.754 E319.01417
G1 X24.754 Y-24.647 E319.01669
G0 F5400 X24.8 Y-24.474
G0 X24.8 Y-24.453
G0 X24.01 Y-24.01
;TYPE:SKIN
G1 F1800 X24.01 Y24.01 E319.81526
G1 X-24.003 Y24.01 E320.61372
G1 X-24.01 Y-24.01 E321.4123
G1 X24.01 Y-24.01 E322.21087
G0 F5400 X-23.828 Y-23.688
G1 F1800 X-23.688 Y-23.829 E322.21418
G0 F5400 X-23.122 Y-23.829
G1 F1800 X-23.828 Y-23.123 E322.23078
G0 F5400 X-23.828 Y-22.557
G1 F1800 X-22.556 Y-23.829 E322.2607
G0 F5400 X-21.991 Y-23.829
G1 F1800 X-23.828 Y-21.991 E322.30391
G0 F5400 X-23.828 Y-21.426
G1 F1800 X-21.425 Y-23.829 E322.36043
G0 F5400 X-20.859 Y-23.829
G1 F1800 X-23.828 Y-20.86 E322.43025
G0 F5400 X-23.828 Y-20.294
G1 F1800 X-20.293 Y-23.829 E322.51339
G0 F5400 X-19.728 Y-23.829
G1 F1800 X-23.828 Y-19.728 E322.60983
G0 F5400 X-23.828 Y-19.163
G1 F1800 X-19.162 Y-23.829 E322.71956
G0 F5400 X-18.596 Y-23.829
G1 F1800 X-23.828 Y-18.597 E322.84261
G0 F5400 X-23.828 Y-18.032
G1 F1800 X-18.031 Y-23.829 E322.97895
G0 F5400 X-17.465 Y-23.829
G1 F1800 X-23.828 Y-17.466 E323.1286
G0 F5400 X-23.828 Y-16.901
G1 F1800 X-16.899 Y-23.829 E323.29155
G0 F5400 X-16.334 Y-23.829
G1 F1800 X-23.828 Y-16.335 E323.46779
G0 F5400 X-23.828 Y-15.769
G1 F1800 X-15.768 Y-23.829 E323.65735
G0 F5400 X-15.202 Y-23.829
G1 F1800 X-23.828 Y-15.204 E323.86021
G0 F5400 X-23.828 Y-14.638
G1 F1800 X-14.637 Y-23.829 E324.07637
G0 F5400 X-14.071 Y-23.829
G1 F1800 X-23.828 Y-14.072 E324.30584
G0 F5400 X-23.828 Y-13.507
G1 F1800 X-13.505 Y-23.829 E324.54861
G0 F5400 X-12.94 Y-23.829
G1 F1800 X-23.827 Y-12.942 E324.80465
G0 F5400 X-23.827 Y-12.376
G1 F1800 X-12.374 Y-23.829 E325.07401
G0 F5400 X-11.808 Y-23.829
G1 F1800 X-23.827 Y-11.81 E325.35668
G0 F5400 X-23.827 Y-11.245
G1 F1800 X-11.242 Y-23.829 E325.65265
G0 F5400 X-10.677 Y-23.829
G1 F1800 X-23.827 Y-10.679 E325.96191
G0 F5400 X-23.827 Y-10.113
G1 F1800 X-10.111 Y-23.829 E326.28449
G0 F5400 X-9.545 Y-23.829
G1 F1800 X-23.827 Y-9.548 E326.62037
G0 F5400 X-23.827 Y-8.982
G1 F1800 X-8.98 Y-23.829 E326.96955
G0 F5400 X-8.414 Y-23.829
G1 F1800 X-23.827 Y-8.416 E327.33204
G0 F5400 X-23.826 Y-7.851
G1 F1800 X-7.848 Y-23.829 E327.70782
G0 F5400 X-7.283 Y-23.829
G1 F1800 X-23.826 Y-7.286 E328.09689
G0 F5400 X-23.826 Y-6.72
G1 F1800 X-6.717 Y-23.829 E328.49926
G0 F5400 X-6.151 Y-23.829
G1 F1800 X-23.826 Y-6.154 E328.91495
G0 F5400 X-23.826 Y-5.588
G1 F1800 X-5.586 Y-23.829 E329.34394
G0 F5400 X-5.02 Y-23.829
G1 F1800 X-23.826 Y-5.023 E329.78623
G0 F5400 X-23.826 Y-4.457
G1 F1800 X-4.454 Y-23.829 E330.24183
G0 F5400 X-3.889 Y-23.829
G1 F1800 X-23.826 Y-3.891 E330.71073
G0 F5400 X-23.826 Y-3.326
G1 F1800 X-3.323 Y-23.829 E331.19293
G0 F5400 X-2.757 Y-23.829
G1 F1800 X-23.826 Y-2.76 E331.68844
G0 F5400 X-23.825 Y-2.195
G1 F1800 X-2.192 Y-23.829 E332.19722
G0 F5400 X-1.626 Y-23.829
G1 F1800 X-23.825 Y-1.629 E332.71932
G0 F5400 X-23.825 Y-1.064
G1 F1800 X-1.06 Y-23.829 E333.25472
G0 F5400 X-.494 Y-23.829
G1 F1800 X-23.825 Y-.498 E333.80343
G0 F5400 X-23.825 Y0.067
G1 F1800 X0.07 Y-23.829 E334.36542
G0 F5400 X0.636 Y-23.829
G1 F1800 X-23.825 Y0.632 E334.9407
G0 F5400 X-23.825 Y1.198
G1 F1800 X1.202 Y-23.829 E335.5293
G0 F5400 X1.767 Y-23.829
G1 F1800 X-23.825 Y1.764 E336.13119
G0 F5400 X-23.825 Y2.329
G1 F1800 X2.333 Y-23.829 E336.74639
G0 F5400 X2.899 Y-23.829
G1 F1800 X-23.825 Y2.894 E337.37489
G0 F5400 X-23.825 Y3.46
G1 F1800 X3.464 Y-23.829 E338.01668
