;FLAVOR:Marlin
;TIME:7488
;Filament used: 4.15161m
;Layer height: 0.1
;MINX:-33.681
;MINY:-31.169
;MINZ:0.36
;MAXX:33.697
;MAXY:31.169
;MAXZ:55.06
;Generated with Cura_SteamEngine 4.6.2
M140 S70
M105
M190 S70
M104 S205
M105
M109 S205
M82 ;absolute extrusion mode
G28 ;Home
G1 Z15.0 F6000 ;Move the platform down 15mm
;Prime the extruder
G92 E0
G1 F200 E3
G92 E0
G92 E0
G92 E0
G1 F1500 E-6.5
;LAYER_COUNT:536
;LAYER:-9
M107
G0 F7200 X22.928 Y-22.231 Z0.36
;TYPE:SUPPORT-INTERFACE
G1 F1500 E0
G1 F1350 X31.526 Y-7.334 E2.05949
G1 X31.977 Y-6.492 E2.17386
G1 X32.054 Y-6.334 E2.1949
G1 X32.41 Y-5.536 E2.29953
G1 X32.484 Y-5.352 E2.32328
G1 X32.779 Y-4.531 E2.42773
G1 X32.838 Y-4.346 E2.45098
G1 X33.067 Y-3.523 E2.55327
G1 X33.116 Y-3.321 E2.57816
G1 X33.289 Y-2.465 E2.68273
G1 X33.32 Y-2.281 E2.70507
G1 X33.447 Y-1.243 E2.83028
G1 X33.497 Y-.326 E2.94024
G1 X33.499 Y-.18 E2.95773
G1 X33.474 Y0.88 E3.08468
G1 X33.388 Y1.803 E3.19568
G1 X33.367 Y1.969 E3.21571
G1 X33.223 Y2.825 E3.31965
G1 X33.183 Y3.021 E3.3436
G1 X32.974 Y3.883 E3.4498
G1 X32.93 Y4.039 E3.46921
G1 X32.657 Y4.888 E3.57599
G1 X32.596 Y5.056 E3.59739
G1 X32.264 Y5.875 E3.70321
G1 X32.179 Y6.062 E3.7278
G1 X31.524 Y7.339 E3.89965
G1 X22.066 Y23.711 E6.16357
G1 X21.575 Y24.495 E6.27434
G1 X21.464 Y24.658 E6.29795
G1 X20.953 Y25.353 E6.40124
G1 X20.841 Y25.495 E6.42289
G1 X20.264 Y26.172 E6.5294
G1 X20.149 Y26.298 E6.54983
G1 X19.522 Y26.933 E6.65668
G1 X19.38 Y27.067 E6.68006
G1 X18.716 Y27.647 E6.78562
G1 X18.585 Y27.753 E6.8058
G1 X17.881 Y28.284 E6.91138
G1 X17.718 Y28.397 E6.93513
G1 X16.959 Y28.886 E7.04324
G1 X16.841 Y28.956 E7.05967
G1 X16.048 Y29.388 E7.16779
G1 X15.884 Y29.47 E7.18975
G1 X15.076 Y29.837 E7.29601
G1 X14.92 Y29.901 E7.3162
G1 X14.094 Y30.206 E7.42163
G1 X13.897 Y30.271 E7.44647
G1 X13.066 Y30.51 E7.55
G1 X12.874 Y30.558 E7.5737
G1 X12.029 Y30.735 E7.67707
G1 X11.84 Y30.768 E7.70004
G1 X10.963 Y30.887 E7.80601
G1 X10.794 Y30.902 E7.82633
G1 X9.4 Y30.968 E7.99343
G1 X-9.453 Y30.968 E10.25082
G1 X-10.577 Y30.923 E10.38551
G1 X-11.655 Y30.799 E10.51544
G1 X-12.542 Y30.636 E10.62342
G1 X-12.699 Y30.6 E10.64271
G1 X-13.562 Y30.375 E10.7495
G1 X-13.729 Y30.325 E10.77037
G1 X-14.58 Y30.034 E10.87806
G1 X-14.757 Y29.967 E10.90072
G1 X-15.549 Y29.63 E11.00378
G1 X-15.738 Y29.542 E11.02874
G1 X-16.649 Y29.068 E11.1517
G1 X-17.428 Y28.593 E11.26095
G1 X-17.579 Y28.493 E11.28264
G1 X-18.297 Y27.98 E11.3883
G1 X-18.438 Y27.87 E11.40971
G1 X-19.128 Y27.297 E11.5171
G1 X-19.245 Y27.193 E11.53584
G1 X-19.899 Y26.563 E11.64458
G1 X-20.025 Y26.431 E11.66643
G1 X-20.623 Y25.764 E11.77369
G1 X-20.714 Y25.654 E11.79078
G1 X-21.26 Y24.949 E11.89755
G1 X-21.377 Y24.784 E11.92177
G1 X-22.123 Y23.62 E12.08731
G1 X-31.327 Y7.678 E14.29144
G1 X-31.677 Y7.032 E14.37941
G1 X-31.89 Y6.613 E14.43569
G1 X-32.275 Y5.798 E14.54362
G1 X-32.339 Y5.65 E14.56293
G1 X-32.715 Y4.659 E14.68984
G1 X-32.987 Y3.763 E14.80196
G1 X-33.017 Y3.646 E14.81642
G1 X-33.221 Y2.748 E14.92668
G1 X-33.25 Y2.59 E14.94592
G1 X-33.386 Y1.683 E15.05573
G1 X-33.402 Y1.537 E15.07332
G1 X-33.472 Y0.614 E15.18415
G1 X-33.477 Y0.473 E15.20105
G1 X-33.481 Y-.435 E15.30977
G1 X-33.476 Y-.589 E15.32822
G1 X-33.412 Y-1.491 E15.43649
G1 X-33.395 Y-1.654 E15.45611
G1 X-33.239 Y-2.701 E15.58286
G1 X-33.041 Y-3.6 E15.69308
G1 X-33.003 Y-3.749 E15.7115
G1 X-32.744 Y-4.618 E15.82007
G1 X-32.696 Y-4.761 E15.83813
G1 X-32.37 Y-5.621 E15.94826
G1 X-32.306 Y-5.771 E15.96778
G1 X-31.933 Y-6.572 E16.07358
G1 X-31.848 Y-6.742 E16.09634
G1 X-31.5 Y-7.382 E16.18357
G1 X-22.022 Y-23.786 E18.45201
G1 X-21.516 Y-24.582 E18.56494
G1 X-21.419 Y-24.723 E18.58544
G1 X-20.879 Y-25.447 E18.69358
G1 X-20.777 Y-25.574 E18.71309
G1 X-20.193 Y-26.25 E18.82005
G1 X-20.069 Y-26.383 E18.84182
G1 X-19.438 Y-27.013 E18.94859
G1 X-19.323 Y-27.12 E18.9674
G1 X-18.625 Y-27.722 E19.07776
G1 X-18.5 Y-27.822 E19.09693
G1 X-17.785 Y-28.352 E19.2035
G1 X-17.653 Y-28.443 E19.22269
G1 X-16.865 Y-28.942 E19.33437
G1 X-16.74 Y-29.015 E19.3517
G1 X-15.949 Y-29.439 E19.45916
G1 X-15.795 Y-29.515 E19.47973
G1 X-14.989 Y-29.874 E19.58538
G1 X-14.816 Y-29.944 E19.60772
G1 X-13.98 Y-30.245 E19.71411
G1 X-13.811 Y-30.299 E19.73535
G1 X-12.952 Y-30.54 E19.84218
G1 X-12.792 Y-30.579 E19.8619
G1 X-11.913 Y-30.757 E19.96928
G1 X-11.749 Y-30.784 E19.98918
G1 X-10.848 Y-30.9 E20.09796
G1 X-10.687 Y-30.915 E20.11732
G1 X-9.371 Y-30.97 E20.27503
G1 X9.44 Y-30.968 E22.52739
G1 X10.563 Y-30.923 E22.66196
G1 X11.481 Y-30.821 E22.77256
G1 X11.656 Y-30.796 E22.79373
G1 X12.545 Y-30.632 E22.90197
G1 X12.668 Y-30.604 E22.91707
G1 X13.704 Y-30.328 E23.04545
G1 X14.579 Y-30.03 E23.15612
G1 X14.725 Y-29.974 E23.17485
G1 X15.541 Y-29.627 E23.28102
G1 X15.719 Y-29.543 E23.30459
G1 X16.502 Y-29.142 E23.40992
G1 X16.655 Y-29.056 E23.43094
G1 X17.401 Y-28.6 E23.53562
G1 X17.572 Y-28.487 E23.56017
G1 X18.294 Y-27.971 E23.66642
G1 X18.404 Y-27.886 E23.68307
G1 X19.114 Y-27.296 E23.7936
G1 X19.231 Y-27.192 E23.81235
G1 X19.874 Y-26.573 E23.91922
G1 X20.008 Y-26.433 E23.94242
G1 X20.603 Y-25.769 E24.04918
G1 X20.705 Y-25.647 E24.06822
G1 X21.233 Y-24.964 E24.17158
G1 X21.371 Y-24.77 E24.20009
G1 X22.055 Y-23.713 E24.35084
G1 X22.928 Y-22.231 E24.55679
G0 F7200 X22.4 Y-23.127
G1 F1350 X22.4 Y23.133 E30.0958
G0 F7200 X20.8 Y25.544
G1 F1350 X20.8 Y-25.524 E36.2105
G0 F7200 X19.2 Y-27.219
G1 F1350 X19.2 Y27.225 E42.72943
G0 F7200 X17.6 Y28.474
G1 F1350 X17.6 Y-28.466 E49.54723
G0 F7200 X16 Y-29.399
G1 F1350 X16 Y29.412 E56.58905
G0 F7200 X14.4 Y30.094
G1 F1350 X14.4 Y-30.09 E63.79527
G0 F7200 X12.8 Y-30.568
G1 F1350 X12.8 Y30.574 E71.1162
G0 F7200 X11.2 Y30.855
G1 F1350 X11.2 Y-30.852 E78.50478
G0 F7200 X9.6 Y-30.961
G1 F1350 X9.6 Y30.959 E85.91886
G0 F7200 X8 Y30.968
G1 F1350 X8 Y-30.968 E93.33486
G0 F7200 X6.4 Y-30.968
G1 F1350 X6.4 Y30.968 E100.75086
G0 F7200 X4.8 Y30.968
G1 F1350 X4.8 Y-30.968 E108.16686
G0 F7200 X3.2 Y-30.968
G1 F1350 X3.2 Y30.968 E115.58286
G0 F7200 X1.6 Y30.968
G1 F1350 X1.6 Y-30.968 E122.99886
G0 F7200 X0.00 Y-30.969
G1 F1350 X0.00 Y30.968 E130.41498
G0 F7200 X-1.6 Y30.968
G1 F1350 X-1.6 Y-30.969 E137.8311
G0 F7200 X-3.2 Y-30.969
G1 F1350 X-3.2 Y30.968 E145.24721
G0 F7200 X-4.8 Y30.968
G1 F1350 X-4.8 Y-30.969 E152.66333
G0 F7200 X-6.4 Y-30.969
G1 F1350 X-6.4 Y30.968 E160.07945
G0 F7200 X-8 Y30.968
G1 F1350 X-8 Y-30.969 E167.49557
G0 F7200 X-9.6 Y-30.961
G1 F1350 X-9.6 Y30.962 E174.91001
G0 F7200 X-11.2 Y30.851
G1 F1350 X-11.2 Y-30.855 E182.29847
G0 F7200 X-12.8 Y-30.578
G1 F1350 X-12.8 Y30.573 E189.62048
G0 F7200 X-14.4 Y30.095
G1 F1350 X-14.4 Y-30.094 E196.8273
G0 F7200 X-16 Y-29.412
G1 F1350 X-16 Y29.405 E203.86984
G0 F7200 X-17.6 Y28.477
G1 F1350 X-17.6 Y-28.477 E210.68931
G0 F7200 X-19.2 Y-27.227
G1 F1350 X-19.2 Y27.233 E217.21016
G0 F7200 X-20.8 Y25.542
G1 F1350 X-20.8 Y-25.546 E223.32726
G0 F7200 X-22.4 Y-23.132
G1 F1350 X-22.4 Y23.14 E228.8677
G0 F7200 X-24 Y20.368
G1 F1350 X-24 Y-20.363 E233.74469
G0 F7200 X-25.6 Y-17.594
G1 F1350 X-25.6 Y17.597 E237.95834
G0 F7200 X-27.2 Y14.826
G1 F1350 X-27.2 Y-14.825 E241.50864
G0 F7200 X-28.8 Y-12.056
G1 F1350 X-28.8 Y12.054 E244.39549
G0 F7200 X-30.4 Y9.283
G1 F1350 X-30.4 Y-9.286 E246.61888
G0 F7200 X-32 Y-6.429
G1 F1350 X-32 Y6.38 E248.15258
G0 F7200 X24 Y20.364
G1 F1350 X24 Y-20.373 E253.03029
G0 F7200 X25.6 Y-17.601
G1 F1350 X25.6 Y17.594 E257.24441
G0 F7200 X27.2 Y14.824
G1 F1350 X27.2 Y-14.829 E260.79496
G0 F7200 X28.8 Y-12.057
G1 F1350 X28.8 Y12.055 E263.68205
G0 F7200 X30.4 Y9.285
G1 F1350 X30.4 Y-9.284 E265.90543
G0 F7200 X32 Y-6.444
G1 F1350 X32 Y6.411 E267.44464
G0 F600 X32 Y6.411 Z0.51
G0 F7200 X21.575 Y24.494
;TIME_ELAPSED:104.131677
;LAYER:-8
M140 S70
;TYPE:SUPPORT
G1 F1350 X21.61 Y24.439 E267.4479
G1 X-23.703 Y-20.875 E270.64501
G1 X-23.186 Y-21.771 E270.69662
G1 X22.15 Y23.565 E273.89532
G1 X22.668 Y22.668 E273.947
G1 X-22.668 Y-22.668 E277.1457
G1 X-22.15 Y-23.564 E277.19733
G1 X23.186 Y21.771 E280.39599
G1 X23.704 Y20.875 E280.44763
G1 X-21.608 Y-24.436 E283.6446
G1 X-21.516 Y-24.581 E283.65317
G1 X-21.418 Y-24.722 E283.66173
G1 X-21.018 Y-25.26 E283.69518
G1 X24.221 Y19.979 E286.88704
G1 X24.739 Y19.082 E286.93871
G1 X-20.378 Y-26.035 E290.12196
G1 X-20.193 Y-26.249 E290.13607
G1 X-20.069 Y-26.382 E290.14515
G1 X-19.689 Y-26.76 E290.17189
G1 X25.257 Y18.186 E293.34307
G1 X25.775 Y17.29 E293.3947
G1 X-18.952 Y-27.437 E296.55044
G1 X-18.625 Y-27.721 E296.57204
G1 X-18.5 Y-27.821 E296.58003
G1 X-18.167 Y-28.067 E296.60069
G1 X26.293 Y16.393 E299.73758
G1 X26.811 Y15.497 E299.78921
G1 X-17.331 Y-28.644 E302.90363
G1 X-16.865 Y-28.941 E302.9312
G1 X-16.74 Y-29.014 E302.93842
G1 X-16.444 Y-29.172 E302.95516
G1 X27.328 Y14.601 E306.04355
G1 X27.846 Y13.704 E306.09523
G1 X-15.501 Y-29.644 E309.15363
G1 X-14.988 Y-29.873 E309.18166
G1 X-14.816 Y-29.943 E309.19092
G1 X-14.5 Y-30.056 E309.20766
G1 X28.364 Y12.808 E312.23195
G1 X28.882 Y11.911 E312.28363
G1 X-13.432 Y-30.403 E315.26911
G1 X-12.952 Y-30.539 E315.294
G1 X-12.791 Y-30.578 E315.30226
G1 X-12.293 Y-30.678 E315.32761
G1 X29.4 Y11.015 E318.26927
G1 X29.918 Y10.119 E318.32091
G1 X-11.071 Y-30.87 E321.2129
G1 X-10.848 Y-30.899 E321.22412
G1 X-10.687 Y-30.914 E321.23219
G1 X-9.74 Y-30.953 E321.27947
G1 X30.435 Y9.222 E324.11404
G1 X30.953 Y8.326 E324.16567
G1 X-8.341 Y-30.968 E326.93808
G1 X-6.926 Y-30.968 E327.00867
G1 X31.471 Y7.43 E329.71782
G1 X31.523 Y7.339 E329.72305
G1 X31.954 Y6.499 E329.77015
G1 X-5.512 Y-30.968 E332.41362
G1 X-4.098 Y-30.968 E332.48416
G1 X32.402 Y5.532 E335.05943
G1 X32.594 Y5.055 E335.08509
G1 X32.656 Y4.888 E335.09397
G1 X32.782 Y4.497 E335.11447
G1 X-2.683 Y-30.967 E337.61668
G1 X-1.269 Y-30.967 E337.68723
G1 X33.092 Y3.394 E340.11158
G1 X33.182 Y3.021 E340.13072
G1 X33.221 Y2.824 E340.14074
G1 X33.325 Y2.213 E340.17166
G1 X0.144 Y-30.967 E342.51273
G1 X1.559 Y-30.967 E342.58332
G1 X33.467 Y0.94 E344.83457
G1 X33.473 Y0.879 E344.83763
G1 X33.498 Y-.179 E344.89042
G1 X33.496 Y-.325 E344.89771
G1 X33.489 Y-.451 E344.904
G1 X2.973 Y-30.967 E347.05707
G1 X4.388 Y-30.967 E347.12767
G1 X33.353 Y-2.001 E349.17134
G1 X33.318 Y-2.281 E349.18542
G1 X33.287 Y-2.464 E349.19468
G1 X33.115 Y-3.32 E349.23824
G1 X33.066 Y-3.523 E349.24866
G1 X32.997 Y-3.771 E349.2615
G1 X5.802 Y-30.967 E351.18029
G1 X7.216 Y-30.967 E351.25083
G1 X32.217 Y-5.966 E353.01479
G1 X32.053 Y-6.334 E353.03489
G1 X31.976 Y-6.491 E353.04361
G1 X31.525 Y-7.334 E353.09131
G1 X30.518 Y-9.079 E353.19183
G1 X8.63 Y-30.967 E354.73614
G1 X9.439 Y-30.967 E354.7765
G1 X10.07 Y-30.941 E354.80801
G1 X28.587 Y-12.424 E356.11449
G1 X26.657 Y-15.769 E356.30715
G1 X11.626 Y-30.799 E357.36764
G1 X11.655 Y-30.795 E357.3691
G1 X12.544 Y-30.631 E357.4142
G1 X12.667 Y-30.602 E357.4205
G1 X13.444 Y-30.395 E357.46062
G1 X24.726 Y-19.113 E358.25663
G1 X22.927 Y-22.231 E358.43622
G1 X22.789 Y-22.465 E358.44977
G1 X15.706 Y-29.548 E358.94952
G1 X15.718 Y-29.542 E358.95019
G1 X16.502 Y-29.141 E358.99412
G1 X16.655 Y-29.055 E359.00288
G1 X17.401 Y-28.598 E359.04652
G1 X17.571 Y-28.486 E359.05668
G1 X18.294 Y-27.97 E359.10099
G1 X18.403 Y-27.884 E359.10792
G1 X19.113 Y-27.295 E359.15394
G1 X19.231 Y-27.191 E359.16179
G1 X19.873 Y-26.571 E359.20632
G1 X20.007 Y-26.432 E359.21595
G1 X20.602 Y-25.767 E359.26047
G1 X20.704 Y-25.646 E359.26836
G1 X21.233 Y-24.963 E359.31147
G1 X21.37 Y-24.769 E359.32331
G1 X22.054 Y-23.712 E359.38613
G0 F7200 X21.575 Y24.494
G1 F1350 X21.464 Y24.657 E359.39596
G1 X21.02 Y25.262 E359.4334
G1 X-24.221 Y-19.979 E362.6254
G1 X-24.739 Y-19.082 E362.67708
G1 X20.379 Y26.036 E365.8604
G1 X20.264 Y26.171 E365.86924
G1 X20.149 Y26.296 E365.87772
G1 X19.69 Y26.761 E365.91032
G1 X-25.257 Y-18.186 E369.08157
G1 X-25.775 Y-17.29 E369.1332
G1 X18.953 Y27.438 E372.28901
G1 X18.715 Y27.646 E372.30478
G1 X18.584 Y27.751 E372.31315
G1 X18.166 Y28.066 E372.33926
G1 X-26.293 Y-16.393 E375.47609
G1 X-26.811 Y-15.497 E375.52772
G1 X17.331 Y28.644 E378.64214
G1 X16.959 Y28.885 E378.66426
G1 X16.841 Y28.955 E378.6711
G1 X16.443 Y29.171 E378.69369
G1 X-27.328 Y-14.601 E381.78201
G1 X-27.846 Y-13.704 E381.83369
G1 X15.501 Y29.643 E384.89205
G1 X15.076 Y29.836 E384.91534
G1 X14.919 Y29.9 E384.9238
G1 X14.499 Y30.055 E384.94613
G1 X-28.364 Y-12.808 E387.97035
G1 X-28.882 Y-11.911 E388.02203
G1 X13.432 Y30.403 E391.00751
G1 X13.065 Y30.508 E391.02655
G1 X12.874 Y30.557 E391.03639
G1 X12.293 Y30.678 E391.066
G1 X-29.4 Y-11.015 E394.00766
G1 X-29.918 Y-10.119 E394.0593
G1 X11.072 Y30.871 E396.95136
G1 X10.962 Y30.886 E396.9569
G1 X10.793 Y30.901 E396.96537
G1 X9.737 Y30.95 E397.01811
G1 X-30.435 Y-9.222 E399.85246
G1 X-30.954 Y-8.326 E399.90412
G1 X8.339 Y30.967 E402.67645
G1 X6.925 Y30.967 E402.747
G1 X-31.471 Y-7.43 E405.45608
G1 X-31.499 Y-7.381 E405.45889
G1 X-31.847 Y-6.742 E405.49519
G1 X-31.932 Y-6.572 E405.50468
G1 X-31.963 Y-6.507 E405.50827
G1 X5.511 Y30.967 E408.15226
G1 X4.096 Y30.967 E408.22286
G1 X-32.403 Y-5.533 E410.79809
G1 X-32.695 Y-4.76 E410.83932
G1 X-32.743 Y-4.617 E410.84684
G1 X-32.78 Y-4.495 E410.8532
G1 X2.682 Y30.967 E413.35524
G1 X1.268 Y30.967 E413.42578
G1 X-33.087 Y-3.389 E415.84975
G1 X-33.238 Y-2.701 E415.88489
G1 X-33.313 Y-2.2 E415.91017
G1 X-.145 Y30.967 E418.25031
G1 X-1.559 Y30.967 E418.32086
G1 X-33.451 Y-.924 E420.57097
G1 X-33.475 Y-.589 E420.58773
G1 X-33.48 Y-.434 E420.59547
G1 X-33.477 Y0.463 E420.64022
G1 X-2.974 Y30.967 E422.79241
G1 X-4.388 Y30.967 E422.86295
G1 X-33.335 Y2.02 E424.90532
G1 X-33.248 Y2.59 E424.93408
G1 X-33.219 Y2.747 E424.94205
G1 X-33.016 Y3.645 E424.98798
G1 X-32.986 Y3.763 E424.99406
G1 X-32.978 Y3.791 E424.99551
G1 X-5.802 Y30.967 E426.91292
G1 X-7.216 Y30.967 E426.98347
G1 X-32.174 Y6.008 E428.74442
G1 X-31.889 Y6.612 E428.77774
G1 X-31.676 Y7.032 E428.80124
G1 X-31.326 Y7.677 E428.83785
G1 X-30.515 Y9.082 E428.91878
G1 X-8.63 Y30.967 E430.46289
G1 X-9.452 Y30.967 E430.5039
G1 X-10.07 Y30.941 E430.53476
G1 X-28.584 Y12.428 E431.84099
G1 X-26.652 Y15.773 E432.03371
G1 X-11.625 Y30.8 E433.09394
G1 X-11.655 Y30.798 E433.09544
G1 X-12.541 Y30.635 E433.14039
G1 X-12.699 Y30.599 E433.14847
G1 X-13.432 Y30.407 E433.18627
G1 X-24.721 Y19.119 E433.98274
G1 X-22.79 Y22.464 E434.17543
G1 X-15.693 Y29.561 E434.67616
G1 X-15.738 Y29.54 E434.67864
G1 X-16.648 Y29.067 E434.72981
G1 X-17.428 Y28.591 E434.7754
G1 X-17.578 Y28.492 E434.78436
G1 X-18.297 Y27.978 E434.82846
G1 X-18.437 Y27.869 E434.83731
G1 X-19.127 Y27.296 E434.88206
G1 X-19.244 Y27.192 E434.88987
G1 X-19.898 Y26.562 E434.93517
G1 X-20.025 Y26.43 E434.94431
G1 X-20.622 Y25.763 E434.98897
G1 X-20.713 Y25.653 E434.99609
G1 X-21.259 Y24.948 E435.04058
G1 X-21.376 Y24.783 E435.05067
G1 X-22.123 Y23.619 E435.11967
G0 F600 X-22.123 Y23.619 Z0.61
G0 F7200 X-12.706 Y30.8
;TIME_ELAPSED:254.202568
;LAYER:-7
;TYPE:SUPPORT-INTERFACE
G1 F1800 X12.669 Y30.8 E435.54166
G1 X12.055 Y30.933 E435.55211
G1 X10.983 Y31.085 E435.57011
G1 X9.483 Y31.166 E435.59509
G1 X-9.423 Y31.169 E435.9095
G1 X-10.463 Y31.132 E435.92681
G1 X-11.529 Y31.019 E435.94464
G1 X-12.592 Y30.829 E435.96259
G0 F7200 X12.669 Y30.8
G1 F1800 X13.113 Y30.704 E435.97015
G1 X14.143 Y30.4 E435.98801
G1 X-14.118 Y30.4 E436.45799
G1 X-14.637 Y30.226 E436.46709
G1 X-15.181 Y30 E436.47689
G1 X15.198 Y30 E436.98209
G1 X16.065 Y29.6 E436.99797
G1 X-16.052 Y29.6 E437.53208
G1 X-16.623 Y29.311 E437.54272
G1 X-16.808 Y29.2 E437.54631
G1 X16.802 Y29.2 E438.10525
G1 X17.068 Y29.054 E438.11029
G1 X17.457 Y28.8 E438.11802
G1 X-17.472 Y28.8 E438.69889
G1 X-17.525 Y28.768 E438.69992
G1 X-18.048 Y28.4 E438.71056
G1 X18.058 Y28.4 E439.311
G1 X18.582 Y28 E439.32196
G1 X-18.588 Y28 E439.9401
G1 X-19.075 Y27.6 E439.95058
G1 X19.07 Y27.6 E440.58494
G1 X19.522 Y27.2 E440.59498
G1 X-19.52 Y27.2 E441.24425
G1 X-19.941 Y26.8 E441.2539
G1 X19.93 Y26.8 E441.91696
G1 X20.32 Y26.4 E441.92625
G1 X-20.317 Y26.4 E442.60205
G1 X-20.679 Y26 E442.61102
G1 X20.669 Y26 E443.29864
G1 X21.006 Y25.6 E443.30734
G1 X-21.005 Y25.6 E444.00598
G1 X-21.318 Y25.2 E444.01443
G1 X21.31 Y25.2 E444.72334
G1 X21.601 Y24.8 E444.73156
G1 X-21.596 Y24.8 E445.44993
G1 X-21.857 Y24.4 E445.45787
G1 X21.87 Y24.4 E446.18506
G1 X22.119 Y24 E446.19289
