;FLAVOR:Marlin
;TIME:2856
;Filament used: 1.59677m
;Layer height: 0.1
;MINX:-31.8
;MINY:-22.952
;MINZ:0.36
;MAXX:31.8
;MAXY:19.648
;MAXZ:26.86
;Generated with Cura_SteamEngine 4.6.2
M140 S70
M105
M190 S70
M104 S205
M105
M109 S205
M82 ;absolute extrusion mode
G28 ;Home
G1 Z15.0 F6000 ;Move the platform down 15mm
;Prime the extruder
G92 E0
G1 F200 E3
G92 E0
G92 E0
G92 E0
G1 F1500 E-6.5
;LAYER_COUNT:258
;LAYER:-9
M107
G0 F7200 X16.94 Y19.448 Z0.36
;TYPE:SUPPORT-INTERFACE
G1 F1500 E0
G1 F1350 X-17.003 Y19.447 E4.06422
G1 X-18.127 Y19.402 E4.19891
G1 X-19.044 Y19.3 E4.30938
G1 X-19.219 Y19.275 E4.33055
G1 X-20.108 Y19.111 E4.43879
G1 X-20.231 Y19.083 E4.4539
G1 X-21.125 Y18.849 E4.56455
G1 X-21.288 Y18.8 E4.58493
G1 X-22.13 Y18.513 E4.69144
G1 X-22.296 Y18.45 E4.7127
G1 X-23.099 Y18.109 E4.81716
G1 X-23.288 Y18.021 E4.84212
G1 X-24.199 Y17.547 E4.96508
G1 X-24.978 Y17.072 E5.07433
G1 X-25.129 Y16.972 E5.09602
G1 X-25.843 Y16.461 E5.20115
G1 X-25.991 Y16.348 E5.22344
G1 X-26.682 Y15.772 E5.33116
G1 X-26.795 Y15.671 E5.3493
G1 X-27.444 Y15.046 E5.45719
G1 X-27.564 Y14.921 E5.47793
G1 X-28.167 Y14.25 E5.58595
G1 X-28.264 Y14.132 E5.60424
G1 X-28.822 Y13.41 E5.7135
G1 X-28.926 Y13.263 E5.73506
G1 X-29.419 Y12.52 E5.84183
G1 X-29.492 Y12.399 E5.85875
G1 X-29.944 Y11.594 E5.96929
G1 X-30.016 Y11.455 E5.98804
G1 X-30.413 Y10.609 E6.09993
G1 X-30.459 Y10.497 E6.11443
G1 X-30.788 Y9.638 E6.22457
G1 X-30.845 Y9.473 E6.24547
G1 X-31.095 Y8.638 E6.34984
G1 X-31.141 Y8.465 E6.37127
G1 X-31.343 Y7.564 E6.48183
G1 X-31.365 Y7.44 E6.49691
G1 X-31.5 Y6.526 E6.60754
G1 X-31.517 Y6.366 E6.6268
G1 X-31.592 Y5.293 E6.75559
G1 X-31.6 Y4.792 E6.81559
G1 X-31.6 Y-5.138 E8.00457
G1 X-31.564 Y-6.144 E8.1251
G1 X-31.554 Y-6.279 E8.14131
G1 X-31.453 Y-7.194 E8.25154
G1 X-31.427 Y-7.369 E8.27272
G1 X-31.265 Y-8.249 E8.37986
G1 X-31.235 Y-8.383 E8.3963
G1 X-31.004 Y-9.269 E8.50593
G1 X-30.952 Y-9.44 E8.52734
G1 X-30.665 Y-10.282 E8.63385
G1 X-30.602 Y-10.448 E8.65511
G1 X-30.261 Y-11.251 E8.75957
G1 X-30.18 Y-11.426 E8.78266
G1 X-29.699 Y-12.351 E8.90749
G1 X-29.224 Y-13.13 E9.01674
G1 X-29.124 Y-13.281 E9.03843
G1 X-28.608 Y-14.002 E9.14459
G1 X-28.5 Y-14.143 E9.16585
G1 X-27.827 Y-14.943 E9.29103
G1 X-27.344 Y-15.454 E9.37522
G1 X-24.305 Y-18.494 E9.88991
G1 X-23.609 Y-19.14 E10.00361
G1 X-23.47 Y-19.259 E10.02552
G1 X-22.779 Y-19.813 E10.13157
G1 X-22.64 Y-19.917 E10.15235
G1 X-21.925 Y-20.41 E10.25634
G1 X-21.741 Y-20.526 E10.28239
G1 X-20.985 Y-20.969 E10.3873
G1 X-20.843 Y-21.046 E10.40664
G1 X-19.898 Y-21.505 E10.53244
G1 X-19.048 Y-21.848 E10.64219
G1 X-18.875 Y-21.91 E10.66419
G1 X-18.037 Y-22.179 E10.76957
G1 X-17.873 Y-22.225 E10.78997
G1 X-17.001 Y-22.437 E10.89742
G1 X-16.839 Y-22.47 E10.91721
G1 X-15.946 Y-22.618 E11.0256
G1 X-15.769 Y-22.641 E11.04697
G1 X-14.875 Y-22.724 E11.15447
G1 X-14.733 Y-22.731 E11.1715
G1 X-13.992 Y-22.752 E11.26026
G1 X14.003 Y-22.751 E14.61228
G1 X15.127 Y-22.706 E14.74697
G1 X16.044 Y-22.604 E14.85745
G1 X16.219 Y-22.579 E14.87861
G1 X17.108 Y-22.415 E14.98686
G1 X17.231 Y-22.387 E15.00196
G1 X18.125 Y-22.153 E15.11261
G1 X18.288 Y-22.104 E15.13299
G1 X19.13 Y-21.817 E15.2395
G1 X19.296 Y-21.754 E15.26076
G1 X20.099 Y-21.413 E15.36522
G1 X20.288 Y-21.325 E15.39019
G1 X21.199 Y-20.851 E15.51315
G1 X21.978 Y-20.376 E15.62239
G1 X22.129 Y-20.276 E15.64408
G1 X22.843 Y-19.765 E15.74921
G1 X22.991 Y-19.652 E15.77151
G1 X23.791 Y-18.979 E15.89668
G1 X24.345 Y-18.455 E15.98799
G1 X27.336 Y-15.464 E16.49446
G1 X27.988 Y-14.761 E16.60927
G1 X28.107 Y-14.622 E16.63118
G1 X28.661 Y-13.931 E16.73722
G1 X28.765 Y-13.792 E16.75801
G1 X29.258 Y-13.077 E16.862
G1 X29.374 Y-12.893 E16.88804
G1 X29.887 Y-12.01 E17.01032
G1 X30.292 Y-11.187 E17.12015
G1 X30.353 Y-11.05 E17.1381
G1 X30.695 Y-10.205 E17.24726
G1 X30.754 Y-10.039 E17.26835
G1 X31.025 Y-9.197 E17.37426
G1 X31.072 Y-9.031 E17.39492
G1 X31.283 Y-8.162 E17.50199
G1 X31.317 Y-7.999 E17.52193
G1 X31.465 Y-7.107 E17.63019
G1 X31.489 Y-6.921 E17.65265
G1 X31.579 Y-5.885 E17.77716
G1 X31.6 Y-5.152 E17.86497
G1 X31.6 Y4.834 E19.06066
G1 X31.564 Y5.84 E19.18119
G1 X31.554 Y5.975 E19.1974
G1 X31.452 Y6.892 E19.30787
G1 X31.427 Y7.067 E19.32904
G1 X31.265 Y7.945 E19.43594
G1 X31.235 Y8.079 E19.45238
G1 X31.004 Y8.964 E19.5619
G1 X30.952 Y9.136 E19.58342
G1 X30.676 Y9.948 E19.68611
G1 X30.596 Y10.157 E19.7129
G1 X30.261 Y10.947 E19.81565
G1 X30.18 Y11.122 E19.83874
G1 X29.764 Y11.93 E19.94755
G1 X29.224 Y12.826 E20.07281
G1 X29.124 Y12.977 E20.0945
G1 X28.613 Y13.691 E20.19963
G1 X28.5 Y13.839 E20.22193
G1 X27.924 Y14.53 E20.32964
G1 X27.823 Y14.643 E20.34779
G1 X27.198 Y15.292 E20.45567
G1 X27.073 Y15.412 E20.47642
G1 X26.403 Y16.014 E20.58427
G1 X26.286 Y16.111 E20.60247
G1 X25.574 Y16.661 E20.71019
G1 X25.415 Y16.774 E20.73355
G1 X24.677 Y17.264 E20.83962
G1 X24.551 Y17.34 E20.85724
G1 X23.757 Y17.786 E20.96628
G1 X23.606 Y17.864 E20.98663
G1 X22.792 Y18.247 E21.09434
G1 X22.649 Y18.307 E21.11291
G1 X21.79 Y18.636 E21.22305
G1 X21.64 Y18.688 E21.24206
G1 X20.79 Y18.943 E21.34832
G1 X20.617 Y18.989 E21.36975
G1 X19.722 Y19.19 E21.47959
G1 X19.592 Y19.213 E21.49539
G1 X18.687 Y19.347 E21.60494
G1 X18.519 Y19.365 E21.62517
G1 X17.445 Y19.44 E21.75408
G1 X16.94 Y19.448 E21.81455
G0 F7200 X17.6 Y19.43
G1 F1350 X17.6 Y-22.29 E26.80996
G0 F7200 X16 Y-22.608
G1 F1350 X16 Y19.447 E31.84548
G0 F7200 X14.4 Y19.447
G1 F1350 X14.4 Y-22.735 E36.8962
G0 F7200 X12.8 Y-22.751
G1 F1350 X12.8 Y19.447 E41.94884
G0 F7200 X11.2 Y19.447
G1 F1350 X11.2 Y-22.751 E47.00148
G0 F7200 X9.6 Y-22.751
G1 F1350 X9.6 Y19.447 E52.05412
G0 F7200 X8 Y19.447
G1 F1350 X8 Y-22.751 E57.10676
G0 F7200 X6.4 Y-22.751
G1 F1350 X6.4 Y19.447 E62.1594
G0 F7200 X4.8 Y19.447
G1 F1350 X4.8 Y-22.751 E67.21204
G0 F7200 X3.2 Y-22.751
G1 F1350 X3.2 Y19.447 E72.26468
G0 F7200 X1.6 Y19.447
G1 F1350 X1.6 Y-22.751 E77.31732
G0 F7200 X0.00 Y-22.751
G1 F1350 X0.00 Y19.447 E82.36996
G0 F7200 X-1.6 Y19.447
G1 F1350 X-1.6 Y-22.751 E87.4226
G0 F7200 X-3.2 Y-22.751
G1 F1350 X-3.2 Y19.447 E92.47524
G0 F7200 X-4.8 Y19.447
G1 F1350 X-4.8 Y-22.751 E97.52788
G0 F7200 X-6.4 Y-22.751
G1 F1350 X-6.4 Y19.447 E102.58052
G0 F7200 X-8 Y19.447
G1 F1350 X-8 Y-22.751 E107.63316
G0 F7200 X-9.6 Y-22.751
G1 F1350 X-9.6 Y19.447 E112.6858
G0 F7200 X-11.2 Y19.447
G1 F1350 X-11.2 Y-22.751 E117.73844
G0 F7200 X-12.8 Y-22.751
G1 F1350 X-12.8 Y19.447 E122.79108
G0 F7200 X-14.4 Y19.447
G1 F1350 X-14.4 Y-22.741 E127.84253
G0 F7200 X-16 Y-22.61
G1 F1350 X-16 Y19.447 E132.87828
G0 F7200 X-17.6 Y19.423
G1 F1350 X-17.6 Y-22.292 E137.87309
G0 F7200 X-19.2 Y-21.787
G1 F1350 X-19.2 Y19.277 E142.78995
G0 F7200 X-20.8 Y18.934
G1 F1350 X-20.8 Y-21.067 E147.57953
G0 F7200 X-22.4 Y-20.083
G1 F1350 X-22.4 Y18.405 E152.18795
G0 F7200 X-24 Y17.65
G1 F1350 X-24 Y-18.778 E156.54971
G0 F7200 X-25.6 Y-17.199
G1 F1350 X-25.6 Y16.634 E160.60075
G0 F7200 X-27.2 Y15.28
G1 F1350 X-27.2 Y-15.599 E164.2981
G0 F7200 X-28.8 Y-13.734
G1 F1350 X-28.8 Y13.438 E167.55158
G0 F7200 X-30.4 Y10.636
G1 F1350 X-30.4 Y-10.924 E170.13309
G0 F7200 X19.2 Y-21.79
G1 F1350 X19.2 Y19.272 E175.04971
G0 F7200 X20.8 Y18.94
G1 F1350 X20.8 Y-21.058 E179.83893
G0 F7200 X22.4 Y-20.082
G1 F1350 X22.4 Y18.403 E184.44699
G0 F7200 X24 Y17.65
G1 F1350 X24 Y-18.781 E188.80911
G0 F7200 X25.6 Y-17.2
G1 F1350 X25.6 Y16.641 E192.86112
G0 F7200 X27.2 Y15.29
G1 F1350 X27.2 Y-15.6 E196.55978
G0 F7200 X28.8 Y-13.741
G1 F1350 X28.8 Y13.43 E199.81314
G0 F7200 X30.4 Y10.62
G1 F1350 X30.4 Y-10.933 E202.39382
G0 F600 X30.4 Y-10.933 Z0.51
G0 F7200 X28.764 Y-13.792
;TIME_ELAPSED:79.460360
;LAYER:-8
M140 S70
;TYPE:SUPPORT
G1 F1350 X28.66 Y-13.931 E202.40248
G1 X28.106 Y-14.621 E202.44662
G1 X27.987 Y-14.761 E202.45579
G1 X27.335 Y-15.464 E202.50363
G1 X24.344 Y-18.455 E202.71466
G1 X23.789 Y-18.978 E202.7527
G1 X22.99 Y-19.651 E202.80482
G1 X22.842 Y-19.765 E202.81414
G1 X22.208 Y-20.218 E202.85302
G1 X29.053 Y-13.372 E203.336
G1 X29.257 Y-13.077 E203.3539
G1 X29.373 Y-12.893 E203.36475
G1 X29.885 Y-12.01 E203.41567
G1 X30.291 Y-11.187 E203.46146
G1 X30.352 Y-11.049 E203.46898
G1 X30.617 Y-10.394 E203.50424
G1 X19.236 Y-21.775 E204.30723
G1 X19.13 Y-21.815 E204.31288
G1 X18.287 Y-22.103 E204.35732
G1 X18.124 Y-22.152 E204.36581
G1 X17.231 Y-22.386 E204.41187
G1 X17.206 Y-22.391 E204.41314
G1 X31.233 Y-8.364 E205.40282
G1 X31.282 Y-8.161 E205.41324
G1 X31.316 Y-7.998 E205.42155
G1 X31.464 Y-7.107 E205.46661
G1 X31.488 Y-6.92 E205.47602
G1 X31.51 Y-6.673 E205.48839
G1 X15.523 Y-22.66 E206.61636
G1 X15.126 Y-22.705 E206.63629
G1 X14.019 Y-22.749 E206.69156
G1 X31.599 Y-5.17 E207.93189
G1 X31.599 Y-5.151 E207.93284
G1 X31.599 Y-3.756 E208.00244
G1 X12.604 Y-22.75 E209.3426
G1 X11.19 Y-22.75 E209.41314
G1 X31.599 Y-2.341 E210.85311
G1 X31.599 Y-.927 E210.92365
G1 X9.776 Y-22.75 E212.46339
G1 X8.362 Y-22.75 E212.53393
G1 X31.599 Y0.486 E214.17339
G1 X31.599 Y1.9 E214.24394
G1 X6.948 Y-22.75 E215.98316
G1 X5.533 Y-22.75 E216.05376
G1 X31.599 Y3.314 E217.89278
G1 X31.599 Y4.729 E217.96338
G1 X4.119 Y-22.75 E219.9022
G1 X2.705 Y-22.75 E219.97275
G1 X31.541 Y6.086 E222.00728
G1 X31.451 Y6.892 E222.04775
G1 X31.426 Y7.066 E222.05652
G1 X31.377 Y7.335 E222.07016
G1 X1.291 Y-22.75 E224.19285
G1 X-.123 Y-22.75 E224.2634
G1 X31.125 Y8.498 E226.46811
G1 X31.003 Y8.963 E226.4921
G1 X30.951 Y9.135 E226.50106
G1 X30.798 Y9.585 E226.52477
G1 X-1.537 Y-22.75 E228.80618
G1 X-2.951 Y-22.75 E228.87673
G1 X30.405 Y10.606 E231.23017
G1 X30.26 Y10.946 E231.24861
G1 X30.179 Y11.121 E231.25823
G1 X29.95 Y11.566 E231.2832
G1 X-4.365 Y-22.75 E233.70435
G1 X-5.779 Y-22.75 E233.77489
G1 X29.438 Y12.468 E236.25968
G1 X29.223 Y12.825 E236.28047
G1 X29.122 Y12.976 E236.28953
G1 X28.877 Y13.321 E236.31064
G1 X-7.194 Y-22.75 E238.85565
G1 X-8.608 Y-22.75 E238.92619
G1 X28.264 Y14.122 E241.52771
G1 X27.922 Y14.53 E241.55427
G1 X27.821 Y14.642 E241.56179
G1 X27.601 Y14.873 E241.57771
G1 X-10.022 Y-22.75 E244.23221
G1 X-11.436 Y-22.75 E244.30276
G1 X26.889 Y15.575 E247.00679
G1 X26.402 Y16.013 E247.03947
G1 X26.285 Y16.111 E247.04709
G1 X26.129 Y16.23 E247.05688
G1 X-12.85 Y-22.75 E249.80709
G1 X-13.991 Y-22.751 E249.86401
G1 X-14.258 Y-22.743 E249.87734
G1 X25.32 Y16.835 E252.66978
G1 X24.675 Y17.264 E252.70843
G1 X24.55 Y17.34 E252.71573
G1 X24.46 Y17.389 E252.72084
G1 X-15.586 Y-22.657 E255.5463
G1 X-15.768 Y-22.64 E255.55542
G1 X-15.945 Y-22.616 E255.56433
G1 X-16.815 Y-22.472 E255.60833
G1 X23.547 Y17.89 E258.45609
G1 X22.79 Y18.246 E258.49782
G1 X22.648 Y18.306 E258.50551
G1 X22.576 Y18.333 E258.50935
G1 X-17.957 Y-22.2 E261.36917
G1 X-18.037 Y-22.178 E261.37331
G1 X-18.874 Y-21.909 E261.41717
G1 X-19.026 Y-21.854 E261.42523
G1 X21.544 Y18.716 E264.28767
G1 X20.789 Y18.942 E264.32699
G1 X20.616 Y18.988 E264.33592
G1 X20.441 Y19.027 E264.34486
G1 X-20.026 Y-21.44 E267.20003
G1 X-20.842 Y-21.044 E267.24528
G1 X-20.973 Y-20.973 E267.25271
G1 X19.261 Y19.261 E270.09144
G1 X18.687 Y19.346 E270.12039
G1 X18.519 Y19.364 E270.12882
G1 X17.986 Y19.4 E270.15547
G1 X-21.862 Y-20.448 E272.96696
G1 X-21.924 Y-20.409 E272.97061
G1 X-22.639 Y-19.917 E273.01392
G1 X-22.699 Y-19.871 E273.01769
G1 X16.618 Y19.446 E275.79171
G1 X15.204 Y19.446 E275.86226
G1 X-23.485 Y-19.243 E278.59198
G1 X-23.608 Y-19.139 E278.60001
G1 X-24.224 Y-18.567 E278.64195
G1 X13.789 Y19.446 E281.32397
G1 X12.375 Y19.446 E281.39452
G1 X-24.934 Y-17.863 E284.02687
G1 X-25.641 Y-17.156 E284.07675
G1 X10.961 Y19.446 E286.65922
G1 X9.547 Y19.446 E286.72977
G1 X-26.348 Y-16.449 E289.26235
G1 X-27.056 Y-15.742 E289.31227
G1 X8.133 Y19.446 E291.79501
G1 X6.718 Y19.446 E291.8656
G1 X-27.751 Y-15.023 E294.29758
G1 X-27.826 Y-14.942 E294.30309
G1 X-28.401 Y-14.259 E294.34763
G1 X5.304 Y19.446 E296.7257
G1 X3.89 Y19.446 E296.79624
G1 X-29.004 Y-13.447 E299.11706
G1 X-29.122 Y-13.28 E299.12726
G1 X-29.223 Y-13.129 E299.13632
G1 X-29.555 Y-12.585 E299.16812
G1 X2.476 Y19.446 E301.42808
G1 X1.062 Y19.446 E301.49862
G1 X-30.053 Y-11.668 E303.69392
G1 X-30.179 Y-11.425 E303.70757
G1 X-30.26 Y-11.25 E303.71719
G1 X-30.496 Y-10.697 E303.74719
G1 X-.352 Y19.446 E305.87398
G1 X-1.766 Y19.446 E305.94452
G1 X-30.875 Y-9.662 E307.99828
G1 X-30.951 Y-9.439 E308.01004
G1 X-31.003 Y-9.269 E308.01891
G1 X-31.188 Y-8.56 E308.05546
G1 X-3.18 Y19.446 E310.03151
G1 X-4.594 Y19.446 E310.10205
G1 X-31.423 Y-7.382 E311.99495
G1 X-31.425 Y-7.368 E311.99566
G1 X-31.452 Y-7.194 E312.00444
G1 X-31.553 Y-6.278 E312.05042
G1 X-31.563 Y-6.144 E312.05712
G1 X-31.564 Y-6.108 E312.05892
G1 X-6.008 Y19.446 E313.86196
G1 X-7.423 Y19.446 E313.93255
G1 X-31.599 Y-4.729 E315.63827
G1 X-31.599 Y-3.315 E315.70881
G1 X-8.837 Y19.446 E317.31476
G1 X-10.251 Y19.446 E317.3853
G1 X-31.599 Y-1.901 E318.89148
G1 X-31.599 Y-.487 E318.96203
G1 X-11.665 Y19.446 E320.36845
G1 X-13.08 Y19.446 E320.43904
G1 X-31.599 Y0.927 E321.74566
G1 X-31.599 Y2.341 E321.8162
G1 X-14.494 Y19.446 E323.02305
G1 X-15.908 Y19.446 E323.0936
G1 X-31.599 Y3.755 E324.20068
G1 X-31.599 Y4.792 E324.25242
G1 X-31.593 Y5.176 E324.27158
G1 X-17.336 Y19.433 E325.27748
G1 X-18.127 Y19.401 E325.31698
G1 X-18.864 Y19.319 E325.35398
G1 X-31.472 Y6.711 E326.24354
G1 X-31.364 Y7.44 E326.28031
G1 X-31.342 Y7.563 E326.28654
G1 X-31.142 Y8.455 E326.33215
G1 X-20.616 Y18.981 E327.07481
G1 X-21.124 Y18.848 E327.10101
G1 X-21.287 Y18.799 E327.1095
G1 X-22.128 Y18.512 E327.15384
G1 X-22.295 Y18.449 E327.16274
G1 X-22.759 Y18.252 E327.18789
G1 X-30.418 Y10.593 E327.72827
G1 X-30.411 Y10.608 E327.7291
G1 X-30.015 Y11.455 E327.77575
G1 X-29.943 Y11.593 E327.78351
G1 X-29.491 Y12.399 E327.82962
G1 X-29.418 Y12.52 E327.83667
G1 X-28.925 Y13.263 E327.88115
G1 X-28.82 Y13.41 E327.89016
G1 X-28.263 Y14.132 E327.93566
G1 X-28.166 Y14.25 E327.94328
G1 X-28.078 Y14.347 E327.94981
G1 X-26.519 Y15.907 E328.05984
G1 X-26.681 Y15.772 E328.07037
G1 X-26.793 Y15.67 E328.07792
G1 X-27.442 Y15.045 E328.12287
G1 X-27.563 Y14.921 E328.13152
G0 F600 X-27.563 Y14.921 Z0.61
G0 F7200 X-18.118 Y19.6
;TIME_ELAPSED:191.727295
;LAYER:-7
;TYPE:SUPPORT-INTERFACE
G1 F1800 X18.034 Y19.6 E328.73273
G1 X17.639 Y19.632 E328.73932
G1 X17.031 Y19.647 E328.74943
G1 X-16.974 Y19.648 E329.31494
G1 X-18.014 Y19.611 E329.33224
G0 F7200 X18.034 Y19.6
G1 F1800 X18.714 Y19.545 E329.34359
G1 X19.767 Y19.384 E329.36131
G1 X20.565 Y19.2 E329.37492
G1 X-20.563 Y19.2 E330.05889
G1 X-21.173 Y19.044 E330.06936
G1 X-21.903 Y18.8 E330.08216
G1 X21.92 Y18.8 E330.81094
G1 X22.862 Y18.435 E330.82774
G1 X22.935 Y18.4 E330.82908
G1 X-22.921 Y18.4 E331.59167
G1 X-23.19 Y18.288 E331.59652
G1 X-23.759 Y18 E331.60712
G1 X23.774 Y18 E332.3976
G1 X23.844 Y17.967 E332.39889
G1 X24.489 Y17.6 E332.41123
G1 X-24.489 Y17.6 E333.22574
G1 X-25.075 Y17.247 E333.23711
G1 X-25.142 Y17.2 E333.23847
G1 X25.129 Y17.2 E334.07448
G1 X25.69 Y16.824 E334.08571
G1 X25.72 Y16.8 E334.08635
G1 X-25.71 Y16.8 E334.94164
G1 X-25.97 Y16.616 E334.94693
G1 X-26.233 Y16.4 E334.95259
G1 X26.232 Y16.4 E335.82509
G1 X26.535 Y16.163 E335.83149
G1 X26.714 Y16 E335.83551
G1 X-26.719 Y15.999 E336.72411
G1 X-26.821 Y15.915 E336.72631
G1 X-27.153 Y15.599 E336.73393
G1 X27.155 Y15.6 E337.63707
G1 X27.336 Y15.436 E337.64114
G1 X27.56 Y15.2 E337.64655
G1 X-27.572 Y15.199 E338.5634
G1 X-27.594 Y15.178 E338.5639
G1 X-27.938 Y14.799 E338.57241
G1 X27.942 Y14.8 E339.5017
G1 X28.068 Y14.668 E339.50474
G1 X28.288 Y14.4 E339.5105
G1 X-28.301 Y14.399 E340.45158
G1 X-28.316 Y14.382 E340.45196
G1 X-28.616 Y13.999 E340.46005
G1 X28.617 Y14 E341.41184
G1 X28.772 Y13.812 E341.41589
G1 X28.921 Y13.6 E341.4202
G1 X-28.928 Y13.599 E342.38223
G1 X-28.976 Y13.537 E342.38354
G1 X-29.203 Y13.199 E342.39031
G1 X29.203 Y13.2 E343.3616
G1 X29.399 Y12.922 E343.36726
G1 X29.472 Y12.8 E343.36962
G1 X-29.471 Y12.799 E344.34985
G1 X-29.591 Y12.62 E344.35343
G1 X-29.717 Y12.399 E344.35766
G1 X29.713 Y12.4 E345.34599
G1 X29.942 Y12.02 E345.35337
G1 X29.952 Y12 E345.35374
G1 X-29.944 Y11.999 E346.34981
G1 X-30.119 Y11.691 E346.3557
G1 X-30.163 Y11.599 E346.3574
G1 X30.154 Y11.6 E347.36048
G1 X30.357 Y11.2 E347.36794
G1 X-30.354 Y11.199 E348.37756
G1 X-30.544 Y10.799 E348.38493
G1 X30.538 Y10.8 E349.40073
