;FLAVOR:Repetier
M2100 T580
;Generated with Cura_SteamEngine 3.2.1
M82 ;absolute extrusion mode
G21
G90
M82
M107 T0
M190 S60
M109 S210 T0
G28
G92 E0
G0 E3 F200
G92 E0

;LAYER_COUNT:3
;LAYER:0
M107
G0 F2400 X-24.498 Y27.16 Z0.3
G0 X-25.07 Y26.58
G0 X-24.907 Y26.129
G0 X-24.744 Y25.677
G0 X-24.581 Y25.226
;TYPE:SKIRT
G1 F1200 X-24.902 Y25.11 E0.02043
G1 X-25.028 Y25.005 E0.03025
G1 X-25.2 Y24.709 E0.05075
G1 X-25.232 Y24.588 E0.05824
G1 X-25.188 Y-24.719 E3.01017
G1 X-25.109 Y-24.897 E3.02183
G1 X-24.83 Y-25.149 E3.04433
G1 X-24.669 Y-25.211 E3.05466
G1 X24.588 Y-25.232 E6.00359
G1 X24.709 Y-25.2 E6.01109
G1 X25.005 Y-25.028 E6.03158
G1 X25.11 Y-24.902 E6.0414
G1 X25.226 Y-24.583 E6.06172
G1 X25.24 Y-24.501 E6.0667
G1 X25.232 Y24.588 E9.00557
G1 X25.2 Y24.709 E9.01307
G1 X25.028 Y25.005 E9.03356
G1 X24.94 Y25.092 E9.04097
G1 X24.789 Y25.179 E9.0514
G1 X24.669 Y25.211 E9.05884
G1 X-24.499 Y25.24 E12.00244
G1 X-24.581 Y25.226 E12.00742
G0 F2400 X-24.744 Y25.677
G1 F1200 X-25.065 Y25.561 E12.02786
G1 X-25.273 Y25.444 E12.04214
G1 X-25.443 Y25.246 E12.05777
G1 X-25.615 Y24.95 E12.07826
G1 X-25.699 Y24.726 E12.09259
G1 X-25.712 Y24.587 E12.10094
G1 X-25.668 Y-24.72 E15.05287
G1 X-25.628 Y-24.955 E15.06714
G1 X-25.513 Y-25.165 E15.08147
G1 X-25.431 Y-25.253 E15.08868
G1 X-25.152 Y-25.505 E15.11118
G1 X-24.95 Y-25.634 E15.12553
G1 X-24.669 Y-25.691 E15.1427
G1 X24.588 Y-25.712 E18.09163
G1 X24.824 Y-25.672 E18.10596
G1 X24.95 Y-25.615 E18.11424
G1 X25.246 Y-25.443 E18.13473
G1 X25.43 Y-25.29 E18.14906
G1 X25.561 Y-25.066 E18.1646
G1 X25.677 Y-24.747 E18.18492
G1 X25.72 Y-24.501 E18.19987
G1 X25.712 Y24.588 E21.13874
G1 X25.672 Y24.824 E21.15307
G1 X25.615 Y24.95 E21.16135
G1 X25.443 Y25.246 E21.18185
G1 X25.29 Y25.43 E21.19617
G1 X25.179 Y25.508 E21.20429
G1 X25.028 Y25.595 E21.21473
G1 X24.804 Y25.678 E21.22903
G1 X24.669 Y25.691 E21.23715
G1 X-24.499 Y25.72 E24.18075
G1 X-24.744 Y25.677 E24.19564
G0 F2400 X-24.907 Y26.129
G1 F1200 X-25.228 Y26.013 E24.21608
G1 X-25.503 Y25.871 E24.23461
G1 X-25.732 Y25.664 E24.25309
G1 X-25.858 Y25.487 E24.26609
G1 X-26.03 Y25.191 E24.28659
G1 X-26.149 Y24.906 E24.30508
G1 X-26.192 Y24.587 E24.32435
G1 X-26.148 Y-24.72 E27.27627
G1 X-26.108 Y-25.027 E27.29481
G1 X-25.991 Y-25.313 E27.31331
G1 X-25.752 Y-25.61 E27.33613
G1 X-25.473 Y-25.862 E27.35864
G1 X-25.219 Y-26.037 E27.37711
G1 X-24.928 Y-26.143 E27.39565
G1 X-24.67 Y-26.171 E27.41118
G1 X24.587 Y-26.192 E30.36012
G1 X24.894 Y-26.152 E30.37865
G1 X25.191 Y-26.03 E30.39787
G1 X25.487 Y-25.858 E30.41837
G1 X25.732 Y-25.669 E30.43689
G1 X25.921 Y-25.424 E30.45542
G1 X26.012 Y-25.23 E30.46825
G1 X26.128 Y-24.911 E30.48857
G1 X26.2 Y-24.501 E30.51349
G1 X26.192 Y24.588 E33.45236
G1 X26.152 Y24.895 E33.4709
G1 X26.03 Y25.191 E33.49006
G1 X25.858 Y25.487 E33.51056
G1 X25.669 Y25.732 E33.52908
G1 X25.419 Y25.924 E33.54796
G1 X25.268 Y26.011 E33.55839
G1 X24.983 Y26.129 E33.57686
G1 X24.67 Y26.171 E33.59576
G1 X-24.498 Y26.2 E36.53937
G1 X-24.907 Y26.129 E36.56422
G0 F2400 X-25.07 Y26.58
G0 X-25.233 Y27.031
G1 F1200 X-25.554 Y26.915 E36.58465
G1 X-25.929 Y26.737 E36.6095
G1 X-26.263 Y26.491 E36.63434
G1 X-26.544 Y26.185 E36.65921
G1 X-26.688 Y25.969 E36.67475
G1 X-26.86 Y25.673 E36.69525
G1 X-27.033 Y25.296 E36.72008
G1 X-27.13 Y24.892 E36.74495
G1 X-27.152 Y24.586 E36.76332
G1 X-27.108 Y-24.721 E39.71525
G1 X-27.068 Y-25.134 E39.74009
G1 X-26.949 Y-25.532 E39.76496
G1 X-26.757 Y-25.9 E39.78981
G1 X-26.396 Y-26.322 E39.82305
G1 X-26.117 Y-26.574 E39.84556
G1 X-25.783 Y-26.821 E39.87043
G1 X-25.409 Y-27 E39.89526
G1 X-25.007 Y-27.104 E39.92011
G1 X-24.67 Y-27.131 E39.94036
G1 X24.587 Y-27.152 E42.88929
G1 X25 Y-27.112 E42.91413
G1 X25.398 Y-26.994 E42.93898
G1 X25.673 Y-26.86 E42.95729
G1 X25.969 Y-26.688 E42.97779
G1 X26.307 Y-26.445 E43.00271
G1 X26.591 Y-26.143 E43.02753
G1 X26.813 Y-25.792 E43.05239
G1 X26.914 Y-25.558 E43.06765
G1 X27.03 Y-25.239 E43.08797
G1 X27.134 Y-24.837 E43.11283
G1 X27.16 Y-24.501 E43.13301
G1 X27.152 Y24.588 E46.07188
G1 X27.112 Y25.002 E46.09678
G1 X26.994 Y25.4 E46.12164
G1 X26.86 Y25.673 E46.13984
G1 X26.688 Y25.969 E46.16034
G1 X26.445 Y26.307 E46.18526
G1 X26.143 Y26.591 E46.21008
G1 X25.898 Y26.756 E46.22776
G1 X25.747 Y26.843 E46.2382
G1 X25.369 Y27.014 E46.26303
G1 X24.965 Y27.111 E46.28791
G1 X24.67 Y27.131 E46.30561
G1 X-24.498 Y27.16 E49.24921
G1 X-24.911 Y27.12 E49.27405
G1 X-25.233 Y27.031 E49.29405
G0 F2400 X-25.07 Y26.58
G1 F1200 X-25.391 Y26.464 E49.31449
G1 X-25.72 Y26.303 E49.33642
G1 X-26.006 Y26.074 E49.35835
G1 X-26.273 Y25.728 E49.38452
G1 X-26.445 Y25.432 E49.40501
G1 X-26.593 Y25.097 E49.42694
G1 X-26.672 Y24.587 E49.45783
G1 X-26.628 Y-24.72 E52.40976
G1 X-26.588 Y-25.084 E52.43168
G1 X-26.47 Y-25.431 E52.45363
G1 X-26.279 Y-25.744 E52.47558
G1 X-26.074 Y-25.966 E52.49367
G1 X-25.795 Y-26.218 E52.51618
G1 X-25.498 Y-26.432 E52.53809
G1 X-25.162 Y-26.577 E52.56
G1 X-24.67 Y-26.651 E52.58979
G1 X24.587 Y-26.672 E55.53872
G1 X24.951 Y-26.632 E55.56064
G1 X25.432 Y-26.445 E55.59154
G1 X25.728 Y-26.273 E55.61203
G1 X26.023 Y-26.055 E55.63399
G1 X26.263 Y-25.779 E55.65589
G1 X26.463 Y-25.394 E55.68186
G1 X26.579 Y-25.075 E55.70219
G1 X26.666 Y-24.72 E55.72407
G1 X26.68 Y-24.501 E55.73721
G1 X26.672 Y24.588 E58.67608
G1 X26.632 Y24.952 E58.698
G1 X26.445 Y25.432 E58.72884
G1 X26.273 Y25.728 E58.74934
G1 X26.055 Y26.023 E58.7713
G1 X25.659 Y26.34 E58.80167
G1 X25.508 Y26.427 E58.8121
G1 X25.172 Y26.574 E58.83406
G1 X24.67 Y26.651 E58.86446
G1 X-24.498 Y26.68 E61.80806
G1 X-24.862 Y26.64 E61.82999
G1 X-25.07 Y26.58 E61.84295
G1 F4800 E53.84295
G0 F2400 X-24.263 Y25.665
G0 X-24.263 Y24.261
G0 X-24.206 Y-24.21
G0 X-24.756 Y-24.465
;TYPE:WALL-OUTER
G1 F4800 E61.84295
G1 F1200 X-24.756 Y-24.528 E61.84672
G1 X-24.732 Y-24.612 E61.85195
G1 X-24.684 Y-24.68 E61.85693
G1 X-24.643 Y-24.713 E61.86008
G1 X-24.583 Y-24.745 E61.86415
G1 X-24.489 Y-24.76 E61.86985
G1 X-24.426 Y-24.76 E61.87362
G1 X24.546 Y-24.755 E64.80549
G1 X24.63 Y-24.725 E64.81083
G1 X24.701 Y-24.663 E64.81647
G1 X24.743 Y-24.59 E64.82152
G1 X24.754 Y-24.55 E64.824
G1 X24.76 Y-24.489 E64.82767
G1 X24.755 Y24.546 E67.76331
G1 X24.725 Y24.63 E67.76865
G1 X24.663 Y24.701 E67.77429
G1 X24.59 Y24.743 E67.77933
G1 X24.546 Y24.755 E67.78207
G1 X24.489 Y24.76 E67.78549
G1 X-24.546 Y24.755 E70.72113
G1 X-24.63 Y24.725 E70.72647
G1 X-24.701 Y24.663 E70.73211
G1 X-24.743 Y24.59 E70.73716
G1 X-24.757 Y24.522 E70.74131
G1 X-24.756 Y-24.465 E73.67408
G0 F2400 X-24.756 Y-24.528
G0 X-24.732 Y-24.612
G0 X-24.704 Y-24.652
G0 X-24.276 Y-24.28
;TYPE:WALL-INNER
G1 F1200 X-24.036 Y-24.28 E73.68845
G1 X24.04 Y-24.275 E76.56667
G1 X24.28 Y-24.275 E76.58104
G1 X24.28 Y-24.035 E76.59033
G1 X24.275 Y24.04 E79.4685
G1 X24.275 Y24.28 E79.48287
G1 X24.035 Y24.28 E79.49216
G1 X-24.277 Y24.275 E82.38452
G1 X-24.276 Y-24.04 E85.27705
G1 X-24.276 Y-24.28 E85.28635
G0 F2400 X-24.206 Y-24.21
G0 X-24.177 Y23.96
G0 X-24.236 Y23.96
;TYPE:SKIN
G1 F1200 X-23.961 Y24.234 E85.30959
G0 F2400 X-23.282 Y24.234
G1 F1200 X-24.236 Y23.281 E85.39032
G1 X-24.306 Y23.211
G0 F2400 X-24.236 Y22.602
G1 F1200 X-22.604 Y24.234 E85.52849
G1 X-22.534 Y24.304
G0 F2400 X-21.925 Y24.234
G1 F1200 X-24.236 Y21.923 E85.72416
G1 X-24.306 Y21.853
G0 F2400 X-24.236 Y21.245
G1 F1200 X-21.246 Y24.234 E85.97727
G1 X-21.176 Y24.304
G0 F2400 X-20.567 Y24.234
G1 F1200 X-24.236 Y20.566 E86.28787
G1 X-24.306 Y20.496
G0 F2400 X-24.236 Y19.887
G1 F1200 X-19.888 Y24.234 E86.65595
G1 X-19.818 Y24.304
G0 F2400 X-19.209 Y24.234
G1 F1200 X-24.236 Y19.208 E87.08153
G1 X-24.306 Y19.138
G0 F2400 X-24.236 Y18.529
G1 F1200 X-18.531 Y24.234 E87.56455
G1 X-18.461 Y24.304
G0 F2400 X-17.852 Y24.234
G1 F1200 X-24.236 Y17.85 E88.10506
G1 X-24.306 Y17.78
G0 F2400 X-24.236 Y17.172
G1 F1200 X-17.172 Y24.235 E88.7031
G1 X-17.102 Y24.305
G0 F2400 X-16.493 Y24.235
G1 F1200 X-24.236 Y16.493 E89.35863
G1 X-24.306 Y16.423
G0 F2400 X-24.236 Y15.814
G1 F1200 X-15.815 Y24.235 E90.07161
G1 X-15.745 Y24.305
G0 F2400 X-15.136 Y24.235
G1 F1200 X-24.236 Y15.135 E90.84208
G1 X-24.306 Y15.065
G0 F2400 X-24.236 Y14.456
G1 F1200 X-14.457 Y24.235 E91.67003
G1 X-14.387 Y24.305
G0 F2400 X-13.778 Y24.235
G1 F1200 X-24.236 Y13.777 E92.55547
G1 X-24.306 Y13.707
G0 F2400 X-24.236 Y13.099
G1 F1200 X-13.099 Y24.235 E93.49836
G1 X-13.029 Y24.305
G0 F2400 X-12.421 Y24.235
G1 F1200 X-24.236 Y12.42 E94.49869
G1 X-24.306 Y12.35
G0 F2400 X-24.236 Y11.741
G1 F1200 X-11.742 Y24.235 E95.55652
G1 X-11.672 Y24.305
G0 F2400 X-11.063 Y24.235
G1 F1200 X-24.236 Y11.062 E96.67183
G1 X-24.306 Y10.992
G0 F2400 X-24.236 Y10.383
G1 F1200 X-10.383 Y24.236 E97.84471
G1 X-10.313 Y24.306
G0 F2400 X-9.705 Y24.236
G1 F1200 X-24.236 Y9.705 E99.075
G1 X-24.306 Y9.635
G0 F2400 X-24.236 Y9.026
G1 F1200 X-9.026 Y24.236 E100.36278
G1 X-8.956 Y24.306
G0 F2400 X-8.347 Y24.236
G1 F1200 X-24.236 Y8.347 E101.70805
G1 X-24.306 Y8.277
G0 F2400 X-24.236 Y7.668
G1 F1200 X-7.668 Y24.236 E103.1108
G1 X-7.598 Y24.306
G0 F2400 X-6.989 Y24.236
G1 F1200 X-24.236 Y6.989 E104.57104
G1 X-24.306 Y6.919
G0 F2400 X-24.236 Y6.31
G1 F1200 X-6.31 Y24.236 E106.08877
G1 X-6.24 Y24.306
G0 F2400 X-5.632 Y24.236
G1 F1200 X-24.236 Y5.632 E107.66391
G1 X-24.306 Y5.562
G0 F2400 X-24.236 Y4.953
G1 F1200 X-4.953 Y24.236 E109.29653
G1 X-4.883 Y24.306
G0 F2400 X-4.274 Y24.236
G1 F1200 X-24.236 Y4.274 E110.98665
G1 X-24.306 Y4.204
G0 F2400 X-24.236 Y3.595
G1 F1200 X-3.595 Y24.236 E112.73425
G1 X-3.525 Y24.306
G0 F2400 X-2.916 Y24.236
G1 F1200 X-24.236 Y2.916 E114.53934
G1 X-24.306 Y2.846
G0 F2400 X-24.236 Y2.237
G1 F1200 X-2.237 Y24.236 E116.40191
G1 X-2.167 Y24.306
G0 F2400 X-1.558 Y24.236
G1 F1200 X-24.236 Y1.559 E118.32194
G1 X-24.306 Y1.489
G0 F2400 X-24.236 Y0.88
G1 F1200 X-.879 Y24.236 E120.29945
G1 X-.809 Y24.306
G0 F2400 X-.2 Y24.236
G1 F1200 X-24.236 Y0.201 E122.33445
G1 X-24.306 Y0.131
G0 F2400 X-24.236 Y-.477
G1 F1200 X0.478 Y24.236 E124.42686
G1 X0.548 Y24.306
G0 F2400 X1.156 Y24.236
G1 F1200 X-24.236 Y-1.156 E126.57671
G1 X-24.306 Y-1.226
G0 F2400 X-24.236 Y-1.834
G1 F1200 X1.835 Y24.236 E128.78401
G1 X1.905 Y24.306
G0 F2400 X2.514 Y24.236
G1 F1200 X-24.236 Y-2.513 E131.04879
G1 X-24.306 Y-2.583
G0 F2400 X-24.236 Y-3.192
G1 F1200 X3.193 Y24.236 E133.37107
G1 X3.263 Y24.306
G0 F2400 X3.872 Y24.237
G1 F1200 X-24.236 Y-3.871 E135.75087
G1 X-24.306 Y-3.941
G0 F2400 X-24.236 Y-4.55
G1 F1200 X4.551 Y24.237 E138.18817
G1 X4.621 Y24.307
G0 F2400 X5.23 Y24.237
G1 F1200 X-24.236 Y-5.229 E140.68295
G1 X-24.306 Y-5.299
G0 F2400 X-24.236 Y-5.907
G1 F1200 X5.909 Y24.237 E143.23518
G1 X5.979 Y24.307
G0 F2400 X6.588 Y24.237
G1 F1200 X-24.236 Y-6.586 E145.84489
G1 X-24.306 Y-6.656
G0 F2400 X-24.236 Y-7.265
G1 F1200 X7.266 Y24.237 E148.51206
G1 X7.336 Y24.307
G0 F2400 X7.945 Y24.237
G1 F1200 X-24.236 Y-7.944 E151.23671
G1 X-24.306 Y-8.014
G0 F2400 X-24.236 Y-8.623
G1 F1200 X8.624 Y24.237 E154.01885
G1 X8.694 Y24.307
G0 F2400 X9.303 Y24.237
G1 F1200 X-24.236 Y-9.301 E156.85844
G1 X-24.306 Y-9.371
G0 F2400 X-24.236 Y-9.98
G1 F1200 X9.982 Y24.237 E159.75551
G1 X10.052 Y24.307
G0 F2400 X10.661 Y24.238
G1 F1200 X-24.236 Y-10.659 E162.71012
G1 X-24.306 Y-10.729
G0 F2400 X-24.236 Y-11.338
G1 F1200 X11.34 Y24.238 E165.72221
G1 X11.41 Y24.308
G0 F2400 X12.019 Y24.238
G1 F1200 X-24.236 Y-12.017 E168.7918
G1 X-24.306 Y-12.087
G0 F2400 X-24.236 Y-12.696
G1 F1200 X12.698 Y24.238 E171.91887
G1 X12.768 Y24.308
G0 F2400 X13.377 Y24.238
G1 F1200 X-24.236 Y-13.374 E175.10339
G1 X-24.306 Y-13.444
G0 F2400 X-24.236 Y-14.053
G1 F1200 X14.055 Y24.238 E178.34535
G1 X14.125 Y24.308
G0 F2400 X14.734 Y24.238
G1 F1200 X-24.236 Y-14.732 E181.6448
G1 X-24.306 Y-14.802
G0 F2400 X-24.236 Y-15.411
G1 F1200 X15.413 Y24.238 E185.00174
G1 X15.483 Y24.308
G0 F2400 X16.092 Y24.238
G1 F1200 X-24.236 Y-16.09 E188.41617
G1 X-24.306 Y-16.16
G0 F2400 X-24.236 Y-16.769
G1 F1200 X16.771 Y24.238 E191.88809
G1 X16.841 Y24.308
G0 F2400 X17.45 Y24.238
G1 F1200 X-24.236 Y-17.447 E195.41746
G1 X-24.306 Y-17.517
G0 F2400 X-24.236 Y-18.126
G1 F1200 X18.129 Y24.238 E199.00431
G1 X18.199 Y24.308
G0 F2400 X18.808 Y24.238
G1 F1200 X-24.236 Y-18.805 E202.64865
G1 X-24.306 Y-18.875
G0 F2400 X-24.236 Y-19.484
G1 F1200 X19.487 Y24.238 E206.35048
G1 X19.557 Y24.308
G0 F2400 X20.165 Y24.238
G1 F1200 X-24.236 Y-20.163 E210.10976
G1 X-24.306 Y-20.233
G0 F2400 X-24.236 Y-20.841
G1 F1200 X20.844 Y24.238 E213.92648
G1 X20.914 Y24.308
G0 F2400 X21.523 Y24.238
G1 F1200 X-24.236 Y-21.52 E217.80069
G1 X-24.306 Y-21.59
G0 F2400 X-24.236 Y-22.199
G1 F1200 X22.202 Y24.238 E221.73239
G1 X22.272 Y24.308
G0 F2400 X22.881 Y24.238
G1 F1200 X-24.236 Y-22.878 E225.72158
G1 X-24.306 Y-22.948
G0 F2400 X-24.236 Y-23.557
G1 F1200 X23.56 Y24.238 E229.76826
G1 X23.63 Y24.308
G0 F2400 X24.236 Y24.236
G1 F1200 X-24.236 Y-24.236 E233.87221
G1 X-24.306 Y-24.306
G0 F2400 X-23.559 Y-24.238
G1 F1200 X24.236 Y23.557 E237.91885
G1 X24.306 Y23.627
G0 F2400 X24.236 Y22.878
G1 F1200 X-22.88 Y-24.238 E241.90799
G1 X-22.95 Y-24.308
G0 F2400 X-22.201 Y-24.238
G1 F1200 X24.236 Y22.199 E245.83965
G1 X24.306 Y22.269
G0 F2400 X24.236 Y21.52
G1 F1200 X-21.522 Y-24.238 E249.71382
G1 X-21.592 Y-24.308
G0 F2400 X-20.844 Y-24.238
G1 F1200 X24.236 Y20.841 E253.53054
G1 X24.306 Y20.911
G0 F2400 X24.236 Y20.163
G1 F1200 X-20.165 Y-24.238 E257.28982
G1 X-20.235 Y-24.308
G0 F2400 X-19.486 Y-24.238
G1 F1200 X24.236 Y19.484 E260.9916
G1 X24.306 Y19.554
G0 F2400 X24.236 Y18.805
G1 F1200 X-18.807 Y-24.238 E264.6359
G1 X-18.877 Y-24.308
G0 F2400 X-18.128 Y-24.238
G1 F1200 X24.236 Y18.126 E268.22271
G1 X24.306 Y18.196
G0 F2400 X24.236 Y17.447
G1 F1200 X-17.449 Y-24.238 E271.75204
G1 X-17.519 Y-24.308
G0 F2400 X-16.771 Y-24.238
G1 F1200 X24.236 Y16.769 E275.22396
G1 X24.306 Y16.839
G0 F2400 X24.236 Y16.09
G1 F1200 X-16.092 Y-24.238 E278.63839
G1 X-16.162 Y-24.308
G0 F2400 X-15.413 Y-24.238
G1 F1200 X24.236 Y15.412 E281.99537
G1 X24.306 Y15.482
G0 F2400 X24.236 Y14.733
G1 F1200 X-14.734 Y-24.238 E285.29486
G1 X-14.804 Y-24.308
G0 F2400 X-14.055 Y-24.237
G1 F1200 X24.236 Y14.054 E288.53683
G1 X24.306 Y14.124
G0 F2400 X24.236 Y13.375
G1 F1200 X-13.376 Y-24.237 E291.7213
G1 X-13.446 Y-24.307
G0 F2400 X-12.697 Y-24.237
G1 F1200 X24.236 Y12.696 E294.84829
G1 X24.306 Y12.766
G0 F2400 X24.236 Y12.017
G1 F1200 X-12.018 Y-24.237 E297.91779
G1 X-12.088 Y-24.307
G0 F2400 X-11.339 Y-24.237
G1 F1200 X24.236 Y11.339 E300.92984
G1 X24.306 Y11.409
G0 F2400 X24.236 Y10.66
G1 F1200 X-10.661 Y-24.237 E303.88445
G1 X-10.731 Y-24.307
G0 F2400 X-9.982 Y-24.237
G1 F1200 X24.236 Y9.981 E306.78157
G1 X24.306 Y10.051
G0 F2400 X24.236 Y9.302
G1 F1200 X-9.303 Y-24.237 E309.6212
G1 X-9.373 Y-24.307
G0 F2400 X-8.624 Y-24.237
G1 F1200 X24.236 Y8.623 E312.40334
G1 X24.306 Y8.693
G0 F2400 X24.237 Y7.945
G1 F1200 X-7.945 Y-24.237 E315.12807
G1 X-8.015 Y-24.307
G0 F2400 X-7.266 Y-24.237
G1 F1200 X24.237 Y7.266 E317.79532
G1 X24.307 Y7.336
G0 F2400 X24.237 Y6.588
G1 F1200 X-6.588 Y-24.237 E320.40517
G1 X-6.658 Y-24.307
G0 F2400 X-5.909 Y-24.237
G1 F1200 X24.237 Y5.909 E322.95752
G1 X24.307 Y5.979
G0 F2400 X24.237 Y5.23
G1 F1200 X-5.23 Y-24.237 E325.45239
G1 X-5.3 Y-24.307
G0 F2400 X-4.55 Y-24.236
G1 F1200 X24.237 Y4.551 E327.88968
G1 X24.307 Y4.621
G0 F2400 X24.237 Y3.872
G1 F1200 X-3.872 Y-24.236 E330.26953
G1 X-3.942 Y-24.306
G0 F2400 X-3.193 Y-24.236
G1 F1200 X24.237 Y3.194 E332.59193
G1 X24.307 Y3.264
G0 F2400 X24.237 Y2.515
G1 F1200 X-2.514 Y-24.236 E334.85684
G1 X-2.584 Y-24.306
G0 F2400 X-1.835 Y-24.236
G1 F1200 X24.237 Y1.836 E337.06427
G1 X24.307 Y1.906
G0 F2400 X24.237 Y1.157
G1 F1200 X-1.156 Y-24.236 E339.2142
G1 X-1.226 Y-24.306
G0 F2400 X-.478 Y-24.236
G1 F1200 X24.237 Y0.478 E341.30669
G1 X24.307 Y0.548
G0 F2400 X24.238 Y-.199
G1 F1200 X0.2 Y-24.236 E343.34187
G1 X0.13 Y-24.306
G0 F2400 X0.879 Y-24.236
G1 F1200 X24.238 Y-.878 E345.31955
G1 X24.308 Y-.808
G0 F2400 X24.238 Y-1.557
G1 F1200 X1.558 Y-24.236 E347.23974
G1 X1.488 Y-24.306
G0 F2400 X2.237 Y-24.236
G1 F1200 X24.238 Y-2.235 E349.10249
G1 X24.308 Y-2.165
G0 F2400 X24.238 Y-2.914
G1 F1200 X2.916 Y-24.236 E350.90775
G1 X2.846 Y-24.306
G0 F2400 X3.594 Y-24.236
G1 F1200 X24.238 Y-3.593 E352.65556
